;FLAVOR:Marlin
;TIME:656
;Filament used: 0.270629m
;Layer height: 0.08
;MINX:39.929
;MINY:9.448
;MINZ:0.24
;MAXX:130.071
;MAXY:44.591
;MAXZ:12
;Generated with Cura_SteamEngine mb-master-20210130
M82 ;absolute extrusion mode
M104 S220
M140 S0
M105
G28 ;Home
G1 Z16.0 F6000 ;Move the platform down 16mm
M109 S220
G92 E0 ;absolute position is set above
G92 E0 ;reset back to 0
G92 E0
G92 E0
G1 F12000 E-0.4
;LAYER_COUNT:148
;LAYER:0
M107
M204 S3000
G0 X40.621 Y16.232 Z0.24
M204 S200
;TYPE:SKIRT
G1 F12000 E0
G1 F1200 X40.983 Y15.39 E0.09145
G1 X41.418 Y14.583 E0.18293
G1 X41.92 Y13.817 E0.27431
G1 X42.488 Y13.098 E0.36574
G1 X43.116 Y12.431 E0.45715
G1 X43.8 Y11.821 E0.5486
G1 X44.535 Y11.273 E0.64007
G1 X45.315 Y10.792 E0.73151
G1 X46.133 Y10.38 E0.8229
G1 X46.984 Y10.041 E0.9143
G1 X47.862 Y9.778 E1.00576
G1 X48.759 Y9.592 E1.09716
G1 X49.669 Y9.485 E1.18859
G1 X50.144 Y9.461 E1.23604
G1 X50.465 Y9.452 E1.26809
G1 X50.759 Y9.448 E1.29743
G1 X63.864 Y9.448 E2.60505
G1 X64.713 Y9.459 E2.68977
G1 X65.628 Y9.512 E2.78122
G1 X66.475 Y9.634 E2.86661
G1 X67.302 Y9.788 E2.95054
G1 X68.669 Y10.062 E3.08966
G1 X71.137 Y10.483 E3.33947
G1 X73.68 Y10.845 E3.59577
G1 X76.177 Y11.128 E3.84652
G1 X78.724 Y11.343 E4.10156
G1 X81.214 Y11.484 E4.35041
G1 X83.767 Y11.555 E4.60525
G1 X86.284 Y11.555 E4.8564
G1 X88.832 Y11.482 E5.11074
G1 X91.344 Y11.339 E5.3618
G1 X93.865 Y11.123 E5.61427
G1 X96.418 Y10.832 E5.87065
G1 X98.88 Y10.481 E6.1188
G1 X101.403 Y10.048 E6.37422
G1 X102.748 Y9.787 E6.51093
G1 X103.358 Y9.665 E6.573
G1 X104.263 Y9.524 E6.66439
G1 X105.079 Y9.465 E6.74603
G1 X105.412 Y9.454 E6.77927
G1 X105.759 Y9.448 E6.8139
G1 X118.999 Y9.449 E8.13499
G1 X119.697 Y9.458 E8.20465
G1 X120.612 Y9.51 E8.29609
G1 X121.519 Y9.641 E8.38753
G1 X122.411 Y9.851 E8.47897
G1 X123.281 Y10.138 E8.57038
G1 X124.123 Y10.499 E8.66179
G1 X124.93 Y10.933 E8.75322
G1 X125.697 Y11.435 E8.84469
G1 X126.416 Y12.003 E8.93612
G1 X127.084 Y12.631 E9.0276
G1 X127.694 Y13.314 E9.11897
G1 X128.242 Y14.048 E9.21037
G1 X128.724 Y14.828 E9.30186
G1 X129.136 Y15.646 E9.39325
G1 X129.476 Y16.497 E9.48469
G1 X129.739 Y17.375 E9.57614
G1 X129.926 Y18.272 E9.66757
G1 X130.033 Y19.182 E9.75899
G1 X130.058 Y19.663 E9.80705
G1 X130.067 Y19.984 E9.8391
G1 X130.071 Y20.278 E9.86843
G1 X130.07 Y33.485 E11.18623
G1 X130.061 Y34.212 E11.25878
G1 X130.01 Y35.127 E11.35022
G1 X129.879 Y36.034 E11.44166
G1 X129.67 Y36.926 E11.53308
G1 X129.383 Y37.796 E11.62449
G1 X129.022 Y38.638 E11.7159
G1 X128.589 Y39.446 E11.80737
G1 X128.087 Y40.212 E11.89875
G1 X127.52 Y40.932 E11.99019
G1 X126.892 Y41.6 E12.08168
G1 X126.209 Y42.21 E12.17305
G1 X125.475 Y42.759 E12.26451
G1 X124.696 Y43.241 E12.35591
G1 X123.878 Y43.654 E12.44735
G1 X123.027 Y43.994 E12.53879
G1 X122.15 Y44.258 E12.63017
G1 X121.253 Y44.445 E12.7216
G1 X120.343 Y44.553 E12.81304
G1 X119.856 Y44.578 E12.86169
G1 X119.535 Y44.587 E12.89374
G1 X119.241 Y44.591 E12.92307
G1 X105.986 Y44.59 E14.24566
G1 X105.288 Y44.58 E14.31532
G1 X104.373 Y44.527 E14.40677
G1 X103.529 Y44.406 E14.49185
G1 X102.698 Y44.251 E14.57619
G1 X101.331 Y43.977 E14.71531
G1 X98.863 Y43.556 E14.96512
G1 X96.32 Y43.194 E15.22142
G1 X93.823 Y42.911 E15.47217
G1 X91.276 Y42.696 E15.72721
G1 X88.786 Y42.555 E15.97606
G1 X86.233 Y42.484 E16.2309
G1 X83.716 Y42.484 E16.48205
G1 X81.168 Y42.557 E16.73639
G1 X78.656 Y42.7 E16.98745
G1 X76.135 Y42.916 E17.23992
G1 X73.582 Y43.207 E17.4963
G1 X71.12 Y43.558 E17.74445
G1 X68.597 Y43.991 E17.99987
G1 X67.252 Y44.252 E18.13658
G1 X66.642 Y44.374 E18.19865
G1 X65.737 Y44.515 E18.29004
G1 X64.921 Y44.574 E18.37168
G1 X64.588 Y44.585 E18.40492
G1 X64.241 Y44.591 E18.43955
G1 X51.001 Y44.59 E19.76064
G1 X50.303 Y44.581 E19.8303
G1 X49.388 Y44.529 E19.92174
G1 X48.481 Y44.398 E20.01318
G1 X47.589 Y44.188 E20.10462
G1 X46.719 Y43.901 E20.19603
G1 X45.877 Y43.54 E20.28744
G1 X45.07 Y43.106 E20.37887
G1 X44.303 Y42.604 E20.47034
G1 X43.584 Y42.036 E20.56177
G1 X42.916 Y41.408 E20.65325
G1 X42.306 Y40.725 E20.74462
G1 X41.758 Y39.991 E20.83602
G1 X41.276 Y39.211 E20.92751
G1 X40.864 Y38.393 E21.0189
G1 X40.524 Y37.542 E21.11034
G1 X40.261 Y36.664 E21.20179
G1 X40.074 Y35.767 E21.29322
G1 X39.967 Y34.857 E21.38464
G1 X39.942 Y34.366 E21.4337
G1 X39.933 Y34.033 E21.46694
G1 X39.929 Y33.749 E21.49528
G1 X39.93 Y20.48 E22.81927
G1 X39.939 Y19.815 E22.88563
G1 X39.991 Y18.9 E22.97707
G1 X40.123 Y17.993 E23.06853
G1 X40.334 Y17.102 E23.15989
G1 X40.621 Y16.232 E23.2513
M204 S3000
G1 F12000 E22.8513
;MESH:bridge-torture-test_50mm.stl
G0 X51.055 Y20.574
G0 X51.111 Y20.66
G0 X50.919 Y20.438
M204 S50
;TYPE:WALL-OUTER
G1 F12000 E23.2513
G1 F900 X64.081 Y20.438 E24.53834
G1 X64.081 Y33.601 E25.82549
G1 X50.919 Y33.601 E27.11253
G1 X50.919 Y20.438 E28.39967
M204 S3000
G1 F12000 E27.99967
G0 X51.111 Y20.63
G0 X63.854 Y20.665
G0 X63.926 Y22.128
G0 X63.14 Y22.128
M204 S100
;TYPE:SKIN
G1 F12000 E28.39967
G1 F2400 X62.39 Y21.377 E28.50557
G1 X63.139 Y21.377 E28.58031
M204 S3000
G0 F12000 X62.39 Y21.377
M204 S100
G1 F2400 X60.975 Y21.377 E28.7215
G1 X63.14 Y23.542 E29.027
G1 X63.14 Y24.956 E29.16809
G1 X59.561 Y21.377 E29.67313
G1 X58.147 Y21.377 E29.81422
G1 X63.14 Y26.37 E30.51878
G1 X63.14 Y27.785 E30.65997
G1 X56.733 Y21.377 E31.56414
G1 X55.319 Y21.377 E31.70523
G1 X63.14 Y29.199 E32.80893
G1 X63.14 Y30.613 E32.95002
G1 X53.904 Y21.377 E34.25332
G1 X52.49 Y21.377 E34.39441
G1 X63.14 Y32.027 E35.89724
G1 X63.14 Y32.661 E35.9605
G1 X62.359 Y32.66 E36.03843
G1 X51.858 Y22.16 E37.52016
G1 X51.858 Y23.574 E37.66125
G1 X60.944 Y32.66 E38.94338
G1 X59.53 Y32.66 E39.08447
G1 X51.858 Y24.988 E40.16707
G1 X51.858 Y26.402 E40.30816
G1 X58.116 Y32.66 E41.19123
G1 X56.702 Y32.66 E41.33232
G1 X51.858 Y27.816 E42.01586
G1 X51.858 Y29.231 E42.15705
G1 X55.287 Y32.66 E42.64092
G1 X53.873 Y32.66 E42.78201
G1 X51.858 Y30.645 E43.06635
G1 X51.858 Y32.059 E43.20744
G1 X52.459 Y32.66 E43.29225
G1 X51.858 Y32.66 E43.35222
M204 S3000
G1 F12000 E42.95222
G0 X105.919 Y33.601
M204 S50
;TYPE:WALL-OUTER
G1 F12000 E43.35222
G1 F900 X105.919 Y20.438 E44.63936
G1 X119.081 Y20.438 E45.9264
G1 X119.081 Y33.601 E47.21354
G1 X105.919 Y33.601 E48.50059
M204 S3000
G0 F12000 X106.857 Y32.661
M204 S100
;TYPE:SKIN
G1 F2400 X107.614 Y32.661 E48.57612
G1 X106.857 Y31.904 E48.68294
M204 S3000
G0 F12000 X107.614 Y32.661
M104 S220
M204 S100
G1 F2400 X109.028 Y32.661 E48.82403
G1 X106.857 Y30.49 E49.13038
G1 X106.857 Y29.076 E49.27147
G1 X110.443 Y32.661 E49.77742
G1 X111.857 Y32.661 E49.91851
G1 X106.857 Y27.662 E50.624
G1 X106.857 Y26.247 E50.76519
G1 X113.271 Y32.661 E51.67027
G1 X114.685 Y32.661 E51.81136
G1 X106.857 Y24.833 E52.91598
G1 X106.857 Y23.419 E53.05706
G1 X116.099 Y32.661 E54.36121
G1 X117.514 Y32.661 E54.5024
G1 X106.857 Y22.005 E56.00615
G1 X106.858 Y21.377 E56.06881
G1 X107.644 Y21.377 E56.14724
G1 X118.14 Y31.873 E57.62834
G1 X118.14 Y30.459 E57.76943
G1 X109.059 Y21.377 E59.05092
G1 X110.473 Y21.377 E59.19201
G1 X118.14 Y29.045 E60.27398
G1 X118.14 Y27.63 E60.41517
G1 X111.887 Y21.377 E61.29753
G1 X113.301 Y21.377 E61.43862
G1 X118.14 Y26.216 E62.12146
G1 X118.14 Y24.802 E62.26255
G1 X114.716 Y21.377 E62.74578
G1 X116.13 Y21.377 E62.88687
G1 X118.14 Y23.388 E63.17058
G1 X118.14 Y21.974 E63.31167
G1 X117.544 Y21.377 E63.39584
G1 X118.139 Y21.377 E63.45521
M204 S3000
G1 F12000 E63.05521
;MESH:NONMESH
G0 F3000 X118.139 Y21.377 Z0.32
G0 F12000 X54.436 Y23.956
;TIME_ELAPSED:36.610080
;LAYER:1
M140 S15
M204 S3025
;TYPE:WALL-OUTER
;MESH:bridge-torture-test_50mm.stl
G1 F12000 E63.45521
G1 F1197 X60.32 Y23.955 E63.5511
G1 X60.565 Y23.955 E63.55509
G1 X60.565 Y24.2 E63.55609
G1 X60.565 Y29.839 E63.64799
G1 X60.565 Y30.084 E63.65199
G1 X60.32 Y30.084 E63.65299
G1 X54.68 Y30.083 E63.7449
G1 X54.435 Y30.083 E63.7489
G1 X54.435 Y29.838 E63.74989
G1 X54.436 Y23.956 E63.84576
M204 S4500
G0 F15000 X54.879 Y24.4
M204 S3050
;TYPE:SKIN
G1 F1292 X54.879 Y25.023 E63.85612
G1 X55.502 Y24.4 E63.87077
M204 S4500
G0 F15000 X54.879 Y25.023
M204 S3050
G1 F1292 X54.879 Y25.73 E63.88253
G1 X56.21 Y24.4 E63.91382
G1 X56.917 Y24.4 E63.92557
G1 X54.879 Y26.437 E63.97349
G1 X54.879 Y27.144 E63.98525
G1 X57.624 Y24.4 E64.0498
G1 X58.331 Y24.4 E64.06155
G1 X54.879 Y27.851 E64.14273
G1 X54.879 Y28.558 E64.15449
G1 X59.038 Y24.4 E64.25229
G1 X59.745 Y24.4 E64.26405
G1 X54.879 Y29.265 E64.37847
G1 X54.879 Y29.638 E64.38468
G1 X55.213 Y29.639 E64.39023
G1 X60.118 Y24.733 E64.5056
G1 X60.118 Y25.44 E64.51736
G1 X55.92 Y29.639 E64.6161
G1 X56.627 Y29.639 E64.62786
G1 X60.118 Y26.148 E64.70996
G1 X60.118 Y26.855 E64.72172
G1 X57.335 Y29.639 E64.78718
G1 X58.042 Y29.639 E64.79894
G1 X60.118 Y27.562 E64.84778
G1 X60.118 Y28.269 E64.85953
G1 X58.749 Y29.639 E64.89174
G1 X59.456 Y29.639 E64.9035
G1 X60.118 Y28.976 E64.91908
G1 X60.119 Y29.639 E64.93011
M204 S4500
G1 F12000 E64.53011
G0 F15000 X109.436 Y30.083
M204 S3025
;TYPE:WALL-OUTER
G1 F12000 E64.93011
G1 F1197 X109.436 Y23.956 E65.02996
G1 X115.32 Y23.955 E65.12586
G1 X115.565 Y23.955 E65.12985
G1 X115.565 Y24.2 E65.13085
G1 X115.564 Y29.839 E65.22275
G1 X115.564 Y30.084 E65.22674
G1 X115.319 Y30.084 E65.22774
G1 X109.436 Y30.083 E65.32362
M204 S4500
G1 F12000 E64.92362
G0 F15000 X109.628 Y29.891
G0 X109.591 Y24.4
G0 X109.88 Y24.4
M204 S3050
;TYPE:SKIN
G1 F12000 E65.32362
G1 F1292 X109.88 Y24.47 E65.32478
M204 S4500
G0 F15000 X109.95 Y24.4
M204 S3050
G1 F1292 X110.657 Y24.4 E65.33654
G1 X109.88 Y25.177 E65.35481
G1 X109.88 Y25.884 E65.36657
G1 X111.364 Y24.4 E65.40147
G1 X112.071 Y24.4 E65.41323
G1 X109.88 Y26.591 E65.46476
G1 X109.88 Y27.298 E65.47652
G1 X112.778 Y24.4 E65.54467
G1 X113.485 Y24.4 E65.55643
G1 X109.88 Y28.005 E65.64121
G1 X109.88 Y28.712 E65.65297
G1 X114.192 Y24.4 E65.75438
G1 X114.899 Y24.4 E65.76614
G1 X109.88 Y29.419 E65.88418
G1 X109.88 Y29.637 E65.8878
G1 X110.368 Y29.638 E65.89592
G1 X115.118 Y24.888 E66.00763
G1 X115.118 Y25.595 E66.01939
G1 X111.075 Y29.638 E66.11448
G1 X111.782 Y29.638 E66.12623
G1 X115.118 Y26.302 E66.20469
G1 X115.118 Y27.01 E66.21646
G1 X112.49 Y29.638 E66.27827
G1 X113.196 Y29.639 E66.29001
G1 X115.118 Y27.717 E66.33521
G1 X115.118 Y28.424 E66.34697
G1 X113.903 Y29.639 E66.37555
G1 X114.61 Y29.639 E66.3873
G1 X115.118 Y29.131 E66.39925
G1 X115.118 Y29.639 E66.4077
M204 S4500
G1 F12000 E66.0077
;MESH:NONMESH
G0 F3000 X115.118 Y29.639 Z0.4
G0 F15000 X54.442 Y23.962
;TIME_ELAPSED:46.040584
;LAYER:2
M204 S6000
;TYPE:WALL-OUTER
;MESH:bridge-torture-test_50mm.stl
G1 F12000 E66.4077
G1 F900 X60.314 Y23.961 E66.5034
G1 X60.559 Y23.961 E66.50739
G1 X60.559 Y24.206 E66.50839
G1 X60.559 Y29.833 E66.6001
G1 X60.559 Y30.078 E66.60409
G1 X60.314 Y30.078 E66.60509
G1 X54.686 Y30.077 E66.69681
G1 X54.441 Y30.077 E66.7008
G1 X54.441 Y29.832 E66.7018
G1 X54.442 Y23.962 E66.79747
G1 F12000 E66.39747
G0 F18000 X109.442 Y23.962
G1 F12000 E66.79747
G1 F900 X115.314 Y23.961 E66.89316
G1 X115.559 Y23.961 E66.89716
G1 X115.559 Y24.206 E66.89816
G1 X115.558 Y29.833 E66.98986
G1 X115.558 Y30.078 E66.99385
G1 X115.313 Y30.078 E66.99485
G1 X109.442 Y30.077 E67.09053
G1 X109.442 Y23.962 E67.19019
G1 F12000 E66.79019
;MESH:NONMESH
G0 F3000 X109.442 Y23.962 Z0.48
G0 F18000 X54.449 Y23.969
;TIME_ELAPSED:49.869840
;LAYER:3
;TYPE:WALL-OUTER
;MESH:bridge-torture-test_50mm.stl
G1 F12000 E67.19019
G1 F900 X60.307 Y23.968 E67.28566
G1 X60.552 Y23.968 E67.28966
G1 X60.552 Y24.213 E67.29066
G1 X60.552 Y29.826 E67.38213
G1 X60.552 Y30.071 E67.38613
G1 X60.307 Y30.071 E67.38712
G1 X54.693 Y30.07 E67.47862
G1 X54.448 Y30.07 E67.48261
G1 X54.448 Y29.825 E67.48361
G1 X54.449 Y23.969 E67.57905
G1 F12000 E67.17905
G0 F18000 X109.449 Y23.969
G1 F12000 E67.57905
G1 F900 X115.307 Y23.968 E67.67452
G1 X115.552 Y23.968 E67.67851
G1 X115.552 Y24.213 E67.67951
G1 X115.551 Y29.826 E67.77099
G1 X115.551 Y30.071 E67.77498
G1 X115.306 Y30.071 E67.77598
G1 X109.449 Y30.07 E67.87143
G1 X109.449 Y23.969 E67.97086
G1 F12000 E67.57086
;MESH:NONMESH
G0 F3000 X109.449 Y23.969 Z0.56
G0 F18000 X54.456 Y23.976
;TIME_ELAPSED:53.691629
;LAYER:4
;TYPE:WALL-OUTER
;MESH:bridge-torture-test_50mm.stl
G1 F12000 E67.97086
G1 F900 X60.3 Y23.975 E68.06611
G1 X60.545 Y23.975 E68.0701
G1 X60.545 Y24.22 E68.0711
G1 X60.545 Y29.819 E68.16235
G1 X60.545 Y30.064 E68.16634
G1 X60.3 Y30.064 E68.16734
G1 X54.7 Y30.063 E68.2586
G1 X54.455 Y30.063 E68.2626
G1 X54.455 Y29.818 E68.26359
G1 X54.456 Y23.976 E68.3588
G1 F12000 E67.9588
G0 F18000 X109.456 Y23.976
G1 F12000 E68.3588
G1 F900 X115.3 Y23.975 E68.45405
G1 X115.545 Y23.975 E68.45804
G1 X115.545 Y24.22 E68.45904
G1 X115.544 Y29.819 E68.55029
G1 X115.544 Y30.064 E68.55428
G1 X115.299 Y30.064 E68.55528
G1 X109.456 Y30.063 E68.6505
G1 X109.456 Y23.976 E68.74971
G1 F12000 E68.34971
;MESH:NONMESH
G0 F3000 X109.456 Y23.976 Z0.64
G0 F18000 X54.462 Y23.982
;TIME_ELAPSED:57.505955
;LAYER:5
;TYPE:WALL-OUTER
;MESH:bridge-torture-test_50mm.stl
G1 F12000 E68.74971
G1 F900 X60.294 Y23.981 E68.84475
G1 X60.539 Y23.981 E68.84875
G1 X60.539 Y24.226 E68.84974
G1 X60.539 Y29.813 E68.9408
G1 X60.539 Y30.058 E68.94479
G1 X60.294 Y30.058 E68.94579
G1 X54.706 Y30.057 E69.03686
G1 X54.461 Y30.057 E69.04085
G1 X54.461 Y29.812 E69.04185
G1 X54.462 Y23.982 E69.13687
G1 F12000 E68.73687
G0 F18000 X109.462 Y23.982
G1 F12000 E69.13687
G1 F900 X115.294 Y23.981 E69.23191
G1 X115.539 Y23.981 E69.23591
G1 X115.539 Y24.226 E69.2369
G1 X115.538 Y29.813 E69.32796
G1 X115.538 Y30.058 E69.33195
G1 X115.293 Y30.058 E69.33295
G1 X109.462 Y30.057 E69.42798
G1 X109.462 Y23.982 E69.52699
G1 F12000 E69.12699
;MESH:NONMESH
G0 F3000 X109.462 Y23.982 Z0.72
G0 F18000 X54.469 Y23.989
;TIME_ELAPSED:61.313877
;LAYER:6
;TYPE:WALL-OUTER
;MESH:bridge-torture-test_50mm.stl
G1 F12000 E69.52699
G1 F900 X60.287 Y23.988 E69.6218
G1 X60.532 Y23.988 E69.6258
G1 X60.532 Y24.233 E69.6268
G1 X60.532 Y29.806 E69.71762
G1 X60.532 Y30.051 E69.72161
G1 X60.287 Y30.051 E69.72261
G1 X54.713 Y30.05 E69.81345
G1 X54.468 Y30.05 E69.81745
G1 X54.468 Y29.805 E69.81845
G1 X54.469 Y23.989 E69.91323
G1 F12000 E69.51323
G0 F18000 X109.469 Y23.989
G1 F12000 E69.91323
G1 F900 X115.287 Y23.988 E70.00805
G1 X115.532 Y23.988 E70.01204
G1 X115.532 Y24.233 E70.01304
G1 X115.531 Y29.806 E70.10387
G1 X115.531 Y30.051 E70.10786
G1 X115.286 Y30.051 E70.10886
G1 X109.469 Y30.05 E70.20366
G1 X109.469 Y23.989 E70.30244
G1 F12000 E69.90244
;MESH:NONMESH
G0 F3000 X109.469 Y23.989 Z0.8
G0 F18000 X54.476 Y23.996
;TIME_ELAPSED:65.114333
;LAYER:7
;TYPE:WALL-OUTER
;MESH:bridge-torture-test_50mm.stl
G1 F12000 E70.30244
G1 F900 X60.28 Y23.995 E70.39703
G1 X60.525 Y23.995 E70.40102
G1 X60.525 Y24.24 E70.40202
G1 X60.525 Y29.799 E70.49262
G1 X60.525 Y30.044 E70.49661
G1 X60.28 Y30.044 E70.49761
G1 X54.72 Y30.043 E70.58822
G1 X54.475 Y30.043 E70.59222
G1 X54.475 Y29.798 E70.59322
G1 X54.476 Y23.996 E70.68777
G1 F12000 E70.28777
G0 F18000 X109.476 Y23.996
G1 F12000 E70.68777
G1 F900 X115.28 Y23.995 E70.78236
G1 X115.525 Y23.995 E70.78636
G1 X115.525 Y24.24 E70.78735
G1 X115.524 Y29.799 E70.87795
G1 X115.524 Y30.044 E70.88195
G1 X115.279 Y30.044 E70.88294
G1 X109.476 Y30.043 E70.97752
G1 X109.476 Y23.996 E71.07607
G1 F12000 E70.67607
;MESH:NONMESH
G0 F3000 X109.476 Y23.996 Z0.88
G0 F18000 X54.482 Y24.002
;TIME_ELAPSED:68.907326
;LAYER:8
;TYPE:WALL-OUTER
;MESH:bridge-torture-test_50mm.stl
G1 F12000 E71.07607
G1 F900 X60.274 Y24.001 E71.17046
G1 X60.519 Y24.001 E71.17446
G1 X60.519 Y24.246 E71.17545
G1 X60.519 Y29.793 E71.26586
G1 X60.519 Y30.038 E71.26985
G1 X60.274 Y30.038 E71.27085
G1 X54.726 Y30.037 E71.36127
G1 X54.481 Y30.037 E71.36526
G1 X54.481 Y29.792 E71.36626
G1 X54.482 Y24.002 E71.46062
G1 F12000 E71.06062
G0 F18000 X109.482 Y24.002
G1 F12000 E71.46062
G1 F900 X115.274 Y24.001 E71.55501
G1 X115.519 Y24.001 E71.55901
G1 X115.519 Y24.246 E71.56001
G1 X115.518 Y29.793 E71.65041
G1 X115.518 Y30.038 E71.6544
G1 X115.273 Y30.038 E71.6554
G1 X109.482 Y30.037 E71.74978
G1 X109.482 Y24.002 E71.84813
G1 F12000 E71.44813
;MESH:NONMESH
G0 F3000 X109.482 Y24.002 Z0.96
G0 F18000 X54.489 Y24.009
;TIME_ELAPSED:72.693915
;LAYER:9
;TYPE:WALL-OUTER
;MESH:bridge-torture-test_50mm.stl
G1 F12000 E71.84813
