;FLAVOR:Marlin
;TIME:1077
;Filament used: 0.749092m
;Layer height: 0.08
;MINX:44.583
;MINY:10.02
;MINZ:0.24
;MAXX:130.569
;MAXY:45.162
;MAXZ:15.28
;Generated with Cura_SteamEngine mb-master-20201121
M82 ;absolute extrusion mode
M104 S220
M140 S0
M105
G28 ;Home
G1 Z16.0 F6000 ;Move the platform down 16mm
M109 S220
G92 E0 ;absolute position is set above
G92 E0 ;reset back to 0
G92 E0
G92 E0
G1 F12000 E-1
;LAYER_COUNT:189
;LAYER:0
M107
M204 S3000
G0 X45.643 Y20.073 Z0.24
M204 S200
;TYPE:SKIRT
G1 F12000 E0
G1 F1200 X46.078 Y19.267 E0.09139
G1 X46.582 Y18.501 E0.18288
G1 X47.15 Y17.782 E0.27431
G1 X47.779 Y17.116 E0.36571
G1 X48.464 Y16.507 E0.45717
G1 X49.199 Y15.96 E0.54859
G1 X49.979 Y15.479 E0.64003
G1 X50.798 Y15.069 E0.73142
G1 X51.65 Y14.731 E0.82287
G1 X52.528 Y14.468 E0.91433
G1 X53.425 Y14.283 E1.00571
G1 X54.335 Y14.177 E1.09713
G1 X54.805 Y14.154 E1.14408
G1 X55.764 Y14.129 E1.2398
G1 X60.404 Y14.072 E1.70282
G1 X61.14 Y14.073 E1.77626
G1 X62.032 Y14.112 E1.86535
G1 X63.403 Y14.232 E2.00267
G1 X63.632 Y14.255 E2.02563
G1 X66.133 Y14.437 E2.27584
G1 X68.682 Y14.549 E2.53043
G1 X71.46 Y14.591 E2.80765
G1 X76.252 Y14.591 E3.2858
G1 X78.847 Y14.554 E3.54476
G1 X81.394 Y14.446 E3.79912
G1 X83.921 Y14.267 E4.0519
G1 X86.442 Y14.017 E4.30468
G1 X88.932 Y13.698 E4.55517
G1 X91.46 Y13.301 E4.8105
G1 X93.931 Y12.842 E5.06128
G1 X96.394 Y12.312 E5.31266
G1 X98.841 Y11.712 E5.56406
G1 X102.156 Y10.786 E5.90749
G1 X103.631 Y10.388 E6.05993
G1 X104.525 Y10.188 E6.15134
G1 X105.433 Y10.067 E6.24274
G1 X106.238 Y10.026 E6.32317
G1 X106.775 Y10.02 E6.37675
G1 X119.218 Y10.02 E7.61832
G1 X120.069 Y10.031 E7.70324
G1 X120.984 Y10.084 E7.79469
G1 X121.89 Y10.217 E7.88606
G1 X122.782 Y10.428 E7.97752
G1 X123.652 Y10.716 E8.06897
G1 X124.493 Y11.079 E8.16036
G1 X125.3 Y11.513 E8.25179
G1 X126.065 Y12.017 E8.3432
G1 X126.784 Y12.585 E8.43463
G1 X127.317 Y13.079 E8.50714
G1 X127.457 Y13.218 E8.52683
G1 X128.078 Y13.891 E8.6182
G1 X128.639 Y14.616 E8.70967
G1 X129.134 Y15.387 E8.80109
G1 X129.56 Y16.198 E8.8925
G1 X129.913 Y17.044 E8.98396
G1 X130.192 Y17.917 E9.07541
G1 X130.393 Y18.811 E9.16684
G1 X130.516 Y19.719 E9.25827
G1 X130.557 Y20.469 E9.33322
G1 X130.569 Y21.193 E9.40547
G1 X130.569 Y33.921 E10.67547
G1 X130.559 Y34.656 E10.74882
G1 X130.507 Y35.571 E10.84027
G1 X130.375 Y36.477 E10.93162
G1 X130.164 Y37.369 E11.02308
G1 X129.877 Y38.239 E11.11449
G1 X129.514 Y39.081 E11.20598
G1 X129.08 Y39.888 E11.29741
G1 X128.577 Y40.654 E11.38885
G1 X127.8 Y41.608 E11.51162
G1 X127.396 Y42.03 E11.56991
G1 X127.312 Y42.113 E11.58169
G1 X126.633 Y42.728 E11.6731
G1 X125.902 Y43.281 E11.76456
G1 X125.127 Y43.769 E11.85595
G1 X124.311 Y44.187 E11.94743
G1 X123.463 Y44.533 E12.03881
G1 X122.587 Y44.803 E12.13028
G1 X121.691 Y44.996 E12.22173
G1 X120.782 Y45.11 E12.31314
G1 X120.265 Y45.139 E12.36481
G1 X119.697 Y45.157 E12.42151
G1 X119.364 Y45.162 E12.45475
G1 X106.771 Y45.161 E13.71128
G1 X106.073 Y45.151 E13.78093
G1 X104.996 Y45.08 E13.88863
G1 X104.075 Y44.931 E13.98172
G1 X103.123 Y44.687 E14.07978
G1 X102.625 Y44.534 E14.13177
G1 X100.126 Y43.806 E14.39148
G1 X97.687 Y43.171 E14.64296
G1 X95.19 Y42.596 E14.89863
G1 X92.731 Y42.1 E15.14893
G1 X90.204 Y41.668 E15.40474
G1 X87.758 Y41.319 E15.65127
G1 X85.202 Y41.028 E15.90796
G1 X82.686 Y40.812 E16.15993
G1 X80.172 Y40.669 E16.41118
G1 X77.594 Y40.595 E16.66852
G1 X76.283 Y40.586 E16.79934
G1 X71.491 Y40.585 E17.27749
G1 X68.902 Y40.621 E17.53584
G1 X66.344 Y40.729 E17.79131
G1 X63.853 Y40.905 E18.04048
G1 X63.231 Y40.966 E18.10284
G1 X62.033 Y41.069 E18.22282
G1 X61.166 Y41.108 E18.30942
G1 X60.344 Y41.109 E18.39144
G1 X55.507 Y41.049 E18.87411
G1 X54.838 Y41.032 E18.94089
G1 X53.924 Y40.968 E19.03231
G1 X53.019 Y40.826 E19.12371
G1 X52.13 Y40.605 E19.21512
G1 X51.263 Y40.307 E19.3066
G1 X50.426 Y39.935 E19.39799
G1 X49.624 Y39.491 E19.48946
G1 X48.864 Y38.979 E19.58089
G1 X48.152 Y38.403 E19.67228
G1 X47.492 Y37.767 E19.76373
G1 X46.891 Y37.075 E19.85518
G1 X46.352 Y36.334 E19.94661
G1 X45.88 Y35.549 E20.03801
G1 X45.478 Y34.726 E20.1294
G1 X45.149 Y33.871 E20.22081
G1 X44.896 Y32.99 E20.31227
G1 X44.721 Y32.09 E20.40376
G1 X44.609 Y30.817 E20.53127
G1 X44.587 Y29.997 E20.61312
G1 X44.583 Y29.715 E20.64126
G1 X44.584 Y25.183 E21.09346
G1 X44.594 Y24.497 E21.16192
G1 X44.647 Y23.582 E21.25337
G1 X44.78 Y22.676 E21.34474
G1 X44.992 Y21.784 E21.43622
G1 X45.28 Y20.914 E21.52767
G1 X45.643 Y20.073 E21.61906
M204 S3000
G1 F12000 E20.61906
G0 X61.931 Y25.391
M204 S100
;TYPE:SUPPORT
G1 F12000 E21.61906
G1 F2400 X105.981 Y25.391 E24.25626
G1 X106.369 Y25.003 E24.28911
G1 X106.369 Y20.82 E24.53954
G1 X119.769 Y20.82 E25.34177
G1 X119.77 Y34.362 E26.15251
G1 X106.37 Y34.362 E26.95474
G1 X106.37 Y30.179 E27.20517
G1 X105.982 Y29.791 E27.23802
G1 X61.931 Y29.784 E29.87528
G1 X61.931 Y25.391 E30.13828
M204 S3000
G0 F12000 X62.4 Y25.653
M204 S100
G1 F2400 X62.4 Y29.522 E30.36991
M204 S3000
G0 F12000 X62.193 Y28.8
M204 S100
G1 F2400 X119.508 Y28.8 E33.80126
M204 S3000
G0 F12000 X119.508 Y27.6
M204 S100
G1 F2400 X62.193 Y27.6 E37.23261
M204 S3000
G0 F12000 X62.193 Y26.4
M204 S100
G1 F2400 X119.508 Y26.4 E40.66396
M204 S3000
G0 F12000 X119.508 Y25.2
M204 S100
G1 F2400 X106.541 Y25.2 E41.44027
M204 S3000
G0 F12000 X105.6 Y25.653
M204 S100
G1 F2400 X105.6 Y29.528 E41.67226
M204 S3000
G0 F12000 X106.562 Y30
M204 S100
G1 F2400 X119.508 Y30 E42.44731
M204 S3000
G0 F12000 X119.508 Y31.2
M204 S100
G1 F2400 X106.632 Y31.2 E43.21818
M204 S3000
G0 F12000 X106.632 Y32.4
M204 S100
G1 F2400 X119.508 Y32.4 E43.98904
M204 S3000
G0 F12000 X119.508 Y33.6
M204 S100
G1 F2400 X106.632 Y33.6 E44.7599
M204 S3000
G0 F12000 X106.8 Y34.1
M204 S100
G1 F2400 X106.8 Y21.082 E45.53927
M204 S3000
G0 F12000 X106.631 Y21.6
M204 S100
G1 F2400 X119.508 Y21.6 E46.31019
M204 S3000
G0 F12000 X118.8 Y21.082
M204 S100
G1 F2400 X118.8 Y34.1 E47.08956
M204 S3000
G0 F12000 X117.6 Y34.1
M204 S100
G1 F2400 X117.6 Y21.082 E47.86892
M204 S3000
G0 F12000 X116.4 Y21.082
M204 S100
G1 F2400 X116.4 Y34.1 E48.64828
M204 S3000
G0 F12000 X115.2 Y34.1
M204 S100
G1 F2400 X115.2 Y21.082 E49.42765
M204 S3000
G0 F12000 X114 Y21.082
M204 S100
G1 F2400 X114 Y34.1 E50.20701
M204 S3000
G0 F12000 X112.8 Y34.1
M204 S100
G1 F2400 X112.8 Y21.082 E50.98638
M204 S3000
G0 F12000 X111.6 Y21.082
M204 S100
G1 F2400 X111.6 Y34.1 E51.76574
M204 S3000
G0 F12000 X110.4 Y34.1
M204 S100
G1 F2400 X110.4 Y21.082 E52.54511
M204 S3000
G0 F12000 X109.2 Y21.082
M204 S100
G1 F2400 X109.2 Y34.1 E53.32447
M204 S3000
G0 F12000 X108 Y34.1
M204 S100
G1 F2400 X108 Y21.082 E54.10384
M204 S3000
G0 F12000 X106.631 Y22.8
M204 S100
G1 F2400 X119.508 Y22.8 E54.87476
M204 S3000
G0 F12000 X119.508 Y24
M204 S100
G1 F2400 X106.631 Y24 E55.64568
M204 S3000
G0 F12000 X104.4 Y25.653
M204 S100
G1 F2400 X104.4 Y29.528 E55.87767
M204 S3000
G0 F12000 X103.2 Y29.528
M204 S100
G1 F2400 X103.2 Y25.653 E56.10966
M204 S3000
G0 F12000 X102 Y25.653
M204 S100
G1 F2400 X102 Y29.528 E56.34165
M204 S3000
G0 F12000 X100.8 Y29.528
M204 S100
G1 F2400 X100.8 Y25.653 E56.57364
M204 S3000
G0 F12000 X99.6 Y25.653
M204 S100
G1 F2400 X99.6 Y29.527 E56.80557
M204 S3000
G0 F12000 X98.4 Y29.527
M204 S100
G1 F2400 X98.4 Y25.653 E57.0375
M204 S3000
G0 F12000 X97.2 Y25.653
M204 S100
G1 F2400 X97.2 Y29.527 E57.26943
M204 S3000
G0 F12000 X96 Y29.527
M204 S100
G1 F2400 X96 Y25.653 E57.50136
M204 S3000
G0 F12000 X94.8 Y25.653
M204 S100
G1 F2400 X94.8 Y29.527 E57.73329
M204 S3000
G0 F12000 X93.6 Y29.527
M204 S100
G1 F2400 X93.6 Y25.653 E57.96522
M204 S3000
G0 F12000 X92.4 Y25.653
M204 S100
G1 F2400 X92.4 Y29.526 E58.19709
M204 S3000
G0 F12000 X91.2 Y29.526
M204 S100
G1 F2400 X91.2 Y25.653 E58.42896
M204 S3000
G0 F12000 X90 Y25.653
M204 S100
G1 F2400 X90 Y29.526 E58.66083
M204 S3000
G0 F12000 X88.8 Y29.526
M204 S100
G1 F2400 X88.8 Y25.653 E58.8927
M204 S3000
G0 F12000 X87.6 Y25.653
M204 S100
G1 F2400 X87.6 Y29.526 E59.12457
M204 S3000
G0 F12000 X86.4 Y29.525
M204 S100
G1 F2400 X86.4 Y25.653 E59.35638
M204 S3000
G0 F12000 X85.2 Y25.653
M204 S100
G1 F2400 X85.2 Y29.525 E59.58819
M204 S3000
G0 F12000 X84 Y29.525
M204 S100
G1 F2400 X84 Y25.653 E59.82
M204 S3000
G0 F12000 X82.8 Y25.653
M204 S100
G1 F2400 X82.8 Y29.525 E60.05181
M204 S3000
G0 F12000 X81.6 Y29.525
M204 S100
G1 F2400 X81.6 Y25.653 E60.28362
M204 S3000
G0 F12000 X80.4 Y25.653
M204 S100
G1 F2400 X80.4 Y29.524 E60.51537
M204 S3000
G0 F12000 X79.2 Y29.524
M204 S100
G1 F2400 X79.2 Y25.653 E60.74712
M204 S3000
G0 F12000 X78 Y25.653
M204 S100
G1 F2400 X78 Y29.524 E60.97887
M204 S3000
G0 F12000 X76.8 Y29.524
M204 S100
G1 F2400 X76.8 Y25.653 E61.21062
M204 S3000
G0 F12000 X75.6 Y25.653
M204 S100
G1 F2400 X75.6 Y29.524 E61.44237
M204 S3000
G0 F12000 X74.4 Y29.523
M204 S100
G1 F2400 X74.4 Y25.653 E61.67406
M204 S3000
G0 F12000 X73.2 Y25.653
M204 S100
G1 F2400 X73.2 Y29.523 E61.90575
M204 S3000
G0 F12000 X72 Y29.523
M204 S100
G1 F2400 X72 Y25.653 E62.13744
M204 S3000
G0 F12000 X70.8 Y25.653
M204 S100
G1 F2400 X70.8 Y29.523 E62.36913
M204 S3000
G0 F12000 X69.6 Y29.523
M204 S100
G1 F2400 X69.6 Y25.653 E62.60082
M204 S3000
G0 F12000 X68.4 Y25.653
M204 S100
G1 F2400 X68.4 Y29.522 E62.83245
M204 S3000
G0 F12000 X67.2 Y29.522
M204 S100
G1 F2400 X67.2 Y25.653 E63.06408
M204 S3000
G0 F12000 X66 Y25.653
M204 S100
G1 F2400 X66 Y29.522 E63.29571
M204 S3000
G0 F12000 X64.8 Y29.522
M204 S100
G1 F2400 X64.8 Y25.653 E63.52734
M204 S3000
G0 F12000 X63.6 Y25.653
M204 S100
G1 F2400 X63.6 Y29.522 E63.75897
M204 S3000
G1 F12000 E62.75897
;MESH:CFFFP_bridge-torture-test_50mm.3mf
G0 X59.637 Y29.106
G0 X58.651 Y28.108
M204 S50
;TYPE:WALL-INNER
G1 F12000 E63.75897
G1 F900 X58.146 Y28.102 E63.80936
G1 X57.563 Y28.094 E63.86754
G1 X57.563 Y27.088 E63.96792
G1 X58.146 Y27.08 E64.0261
G1 X58.651 Y27.074 E64.07649
G1 X58.651 Y27.579 E64.08922
G1 X58.651 Y27.603 E64.09162
G1 X58.651 Y28.108 E64.10438
M204 S3000
G0 F12000 X59.581 Y29.049
G0 X59.651 Y29.12
M204 S50
G1 F900 X59.146 Y29.114 E64.15477
G1 X56.563 Y29.082 E64.41253
G1 X56.563 Y26.1 E64.71007
G1 X59.146 Y26.067 E64.96782
G1 X59.651 Y26.061 E65.01822
G1 X59.651 Y26.566 E65.03095
G1 X59.651 Y28.615 E65.2354
G1 X59.651 Y29.12 E65.24816
M204 S3000
G0 F12000 X59.581 Y29.049
G0 X60.641 Y30.122
M204 S50
;TYPE:WALL-OUTER
G1 F900 X60.146 Y30.117 E65.29657
G1 X55.573 Y30.06 E65.74378
G1 X55.573 Y25.122 E66.22664
G1 X60.145 Y25.065 E66.67374
G1 X60.641 Y25.059 E66.72225
G1 X60.641 Y25.554 E66.73447
G1 X60.641 Y29.626 E67.13265
G1 X60.641 Y30.122 E67.14493
M104 S220
M204 S3000
G0 F12000 X58.651 Y28.409
;MESH:NONMESH
G0 F3000 X58.651 Y28.409 Z0.32
G0 F12000 X56.634 Y26.17
G0 X56.313 Y25.876
;TIME_ELAPSED:48.199200
;LAYER:1
M140 S20
M204 S1033
;TYPE:WALL-INNER
;MESH:CFFFP_bridge-torture-test_50mm.3mf
G1 F1980 X59.601 Y25.835 E67.19961
G1 X59.853 Y25.832 E67.2038
G1 X59.853 Y26.084 E67.20486
G1 X59.853 Y29.098 E67.25498
G1 X59.853 Y29.35 E67.25917
G1 X59.601 Y29.347 E67.26023
G1 X56.313 Y29.305 E67.31492
G1 X56.313 Y25.876 E67.37194
M204 S4000
G0 F17000 X55.813 Y25.382
M204 S1033
G1 F1980 X60.101 Y25.329 E67.44326
G1 X60.353 Y25.326 E67.44745
G1 X60.353 Y25.578 E67.4485
G1 X60.353 Y29.604 E67.51546
G1 X60.353 Y29.856 E67.51965
G1 X60.101 Y29.853 E67.52071
G1 X55.813 Y29.799 E67.59202
G1 X55.813 Y25.382 E67.66548
M204 S4000
G0 F17000 X55.318 Y24.893
M204 S1033
;TYPE:WALL-OUTER
G1 F1980 X60.6 Y24.828 E67.75157
G1 X60.848 Y24.825 E67.75561
G1 X60.848 Y25.072 E67.75662
G1 X60.848 Y30.109 E67.83871
G1 X60.848 Y30.357 E67.84276
G1 X60.601 Y30.355 E67.84377
M106 S255
G1 X55.318 Y30.288 E67.92988
G1 X55.318 Y24.893 E68.0178
M204 S4000
G0 F17000 X55.884 Y25.452
G0 X56.671 Y25.946
M204 S3000
;TYPE:SKIN
;BRIDGE
G1 F900 X56.629 Y29.232 E68.1271
M204 S4000
G0 F17000 X57.129 Y29.239
M204 S3000
G1 F900 X57.171 Y25.939 E68.23687
M204 S4000
G0 F17000 X57.672 Y25.933
M204 S3000
G1 F900 X57.629 Y29.245 E68.34704
M204 S4000
G0 F17000 X58.129 Y29.252
M204 S3000
G1 F900 X58.172 Y25.927 E68.45764
M204 S4000
G0 F17000 X58.672 Y25.92
M204 S3000
G1 F900 X58.629 Y29.258 E68.56867
M204 S4000
G0 F17000 X59.129 Y29.264
M204 S3000
G1 F900 X59.172 Y25.914 E68.6801
M204 S4000
G0 F17000 X59.672 Y25.907
M204 S3000
M107
G1 F900 X59.629 Y29.271 E68.79199
M204 S4000
G1 F12000 E67.79199
;MESH:NONMESH
G0 F3000 X59.629 Y29.271 Z0.4
G0 F17000 X60.339 Y25.34
G0 X61.424 Y25.241
;TIME_ELAPSED:51.892769
;LAYER:2
M204 S2033
;TYPE:SUPPORT
G1 F12000 E68.79199
G1 F2990.4 X61.424 Y29.934 E68.83882
G1 X61.443 Y29.934 E68.83901
G1 X61.443 Y25.241 E68.88584
G1 X61.424 Y25.241 E68.88603
M204 S5000
G0 F22000 X62.4 Y25.391
M204 S2033
;TYPE:SUPPORT
G1 F2990.4 X61.893 Y25.391 E68.89615
G1 X61.893 Y29.784 E68.98381
G1 X62.4 Y29.784 E68.99393
G1 X62.4 Y25.391 E69.0816
G1 X63.6 Y25.391 E69.10554
G1 X63.6 Y29.784 E69.19321
G1 X64.8 Y29.784 E69.21716
G1 X64.8 Y25.391 E69.30483
G1 X66 Y25.391 E69.32877
G1 X66 Y29.784 E69.41644
G1 X67.2 Y29.784 E69.44039
G1 X67.2 Y25.391 E69.52805
G1 X68.4 Y25.391 E69.552
G1 X68.4 Y29.785 E69.63969
G1 X69.6 Y29.785 E69.66364
G1 X69.6 Y25.391 E69.75132
G1 X70.8 Y25.391 E69.77527
G1 X70.8 Y29.785 E69.86296
G1 X72 Y29.785 E69.8869
G1 X72 Y25.391 E69.97459
G1 X73.2 Y25.391 E69.99854
G1 X73.2 Y29.785 E70.08623
G1 X74.4 Y29.785 E70.11017
G1 X74.4 Y25.391 E70.19786
G1 X75.6 Y25.391 E70.22181
G1 X75.6 Y29.786 E70.30951
G1 X76.8 Y29.786 E70.33346
G1 X76.8 Y25.391 E70.42117
G1 X78 Y25.391 E70.44512
G1 X78 Y29.786 E70.53282
G1 X79.2 Y29.786 E70.55677
G1 X79.2 Y25.391 E70.64448
G1 X80.4 Y25.391 E70.66842
G1 X80.4 Y29.786 E70.75613
G1 X81.6 Y29.787 E70.78008
G1 X81.6 Y25.391 E70.86781
M204 S5000
G0 F22000 X82.8 Y25.391
M204 S2033
G1 F2990.4 X82.8 Y29.787 E70.95553
G1 X84 Y29.787 E70.97948
G1 X84 Y25.391 E71.06721
G1 X85.2 Y25.391 E71.09115
G1 X85.2 Y29.787 E71.17888
G1 X86.4 Y29.787 E71.20283
G1 X86.4 Y25.391 E71.29056
G1 X87.6 Y25.391 E71.3145
G1 X87.6 Y29.788 E71.40225
G1 X88.8 Y29.788 E71.4262
G1 X88.8 Y25.391 E71.51394
G1 X90 Y25.391 E71.53789
G1 X90 Y29.788 E71.62564
G1 X91.2 Y29.788 E71.64959
G1 X91.2 Y25.391 E71.73733
G1 X92.4 Y25.391 E71.76128
G1 X92.4 Y29.788 E71.84903
G1 X93.6 Y29.789 E71.87297
G1 X93.6 Y25.391 E71.96074
G1 X94.8 Y25.391 E71.98469
G1 X94.8 Y29.789 E72.07245
G1 X96 Y29.789 E72.0964
G1 X96 Y25.391 E72.18417
G1 X97.2 Y25.391 E72.20812
G1 X97.2 Y29.789 E72.29588
G1 X98.4 Y29.789 E72.31983
G1 X98.4 Y25.391 E72.4076
G1 X99.6 Y25.391 E72.43154
G1 X99.6 Y29.789 E72.51931
G1 X100.8 Y29.79 E72.54326
G1 X100.8 Y25.391 E72.63105
G1 X102 Y25.391 E72.65499
G1 X102 Y29.79 E72.74278
M204 S5000
G0 F22000 X103.2 Y29.79
M204 S2033
G1 F2990.4 X103.2 Y25.391 E72.83057
G1 X104.4 Y25.391 E72.85451
G1 X104.4 Y29.79 E72.9423
G1 X105.6 Y29.79 E72.96625
G1 X105.6 Y25.391 E73.05403
G1 X105.982 Y25.391 E73.06166
G1 X106.369 Y25.004 E73.07258
G1 X106.369 Y20.82 E73.15608
G1 X106.8 Y20.82 E73.16468
G1 X106.8 Y34.362 E73.43492
G1 X108 Y34.362 E73.45887
G1 X108 Y20.82 E73.72912
G1 X109.2 Y20.82 E73.75306
G1 X109.2 Y34.362 E74.02331
G1 X110.4 Y34.362 E74.04725
G1 X110.4 Y20.82 E74.3175
G1 X111.6 Y20.82 E74.34145
G1 X111.6 Y34.362 E74.61169
G1 X112.8 Y34.362 E74.63564
G1 X112.8 Y20.82 E74.90589
G1 X114 Y20.82 E74.92983
G1 X114 Y34.362 E75.20008
G1 X115.2 Y34.362 E75.22403
G1 X115.2 Y20.82 E75.49427
G1 X116.4 Y20.82 E75.51822
G1 X116.4 Y34.362 E75.78846
G1 X117.6 Y34.362 E75.81241
G1 X117.6 Y20.82 E76.08266
G1 X118.8 Y20.82 E76.1066
G1 X118.8 Y34.362 E76.37685
G1 X119.77 Y34.362 E76.39621
G1 X119.769 Y20.82 E76.66645
G1 X118.8 Y20.82 E76.68579
M204 S5000
G1 F12000 E75.68579
;MESH:CFFFP_bridge-torture-test_50mm.3mf
G0 F22000 X60.32 Y25.347
G0 X59.834 Y25.839
M204 S2017
;TYPE:WALL-INNER
G1 F12000 E76.68579
G1 F4179.8 X59.834 Y26.091 E76.68998
G1 X59.834 Y29.091 E76.73987
G1 X59.834 Y29.343 E76.74406
G1 X59.582 Y29.34 E76.74512
G1 X56.308 Y29.299 E76.79957
G1 X56.308 Y25.883 E76.85638
G1 X59.582 Y25.842 E76.91083
G1 X59.834 Y25.839 E76.91189
M204 S5000
G0 F22000 X60.334 Y25.333
M204 S2017
G1 F4179.8 X60.334 Y25.585 E76.91608
G1 X60.334 Y29.597 E76.9828
G1 X60.334 Y29.849 E76.98699
G1 X60.082 Y29.846 E76.98805
G1 X55.808 Y29.793 E77.05913
G1 X55.808 Y25.389 E77.13237
G1 X60.082 Y25.336 E77.20345
