;FLAVOR:Marlin
;TIME:524
;Filament used: 0.28756m
;Layer height: 0.16
;MINX:68.5
;MINY:93.5
;MINZ:0.24
;MAXX:101.5
;MAXY:126.5
;MAXZ:10
;Generated with Cura_SteamEngine mb-master-20201121
M82 ;absolute extrusion mode
M104 S220
M140 S0
M105
G28 ;Home
G1 Z16.0 F6000 ;Move the platform down 16mm
M109 S220
G92 E0 ;absolute position is set above
G92 E0 ;reset back to 0
G92 E0
G92 E0
G1 F12000 E-1
;LAYER_COUNT:62
;LAYER:0
M107
M204 S3000
G0 X73.144 Y95.783 Z0.24
M204 S200
;TYPE:SKIRT
G1 F12000 E0
G1 F1200 X73.936 Y95.243 E0.09565
G1 X74.771 Y94.771 E0.19135
G1 X75.642 Y94.37 E0.28703
G1 X76.544 Y94.044 E0.38273
G1 X77.469 Y93.793 E0.47836
G1 X78.413 Y93.62 E0.57413
G1 X79.687 Y93.514 E0.70169
G1 X80.008 Y93.505 E0.73373
G1 X80.33 Y93.5 E0.76586
G1 X89.293 Y93.5 E1.66019
G1 X90.156 Y93.511 E1.74631
G1 X91.113 Y93.565 E1.84195
G1 X92.063 Y93.698 E1.93767
G1 X92.998 Y93.91 E2.03333
G1 X93.912 Y94.199 E2.12898
G1 X94.799 Y94.564 E2.22469
G1 X95.653 Y95 E2.32036
G1 X96.467 Y95.507 E2.41605
G1 X97.237 Y96.08 E2.51182
G1 X97.955 Y96.714 E2.60739
G1 X98.619 Y97.407 E2.70316
G1 X99.222 Y98.152 E2.79879
G1 X99.762 Y98.945 E2.89452
G1 X100.233 Y99.78 E2.99018
G1 X100.633 Y100.652 E3.08591
G1 X100.959 Y101.553 E3.18151
G1 X101.209 Y102.479 E3.27722
G1 X101.381 Y103.423 E3.37296
G1 X101.486 Y104.687 E3.49952
G1 X101.495 Y105.007 E3.53146
G1 X101.5 Y105.33 E3.56369
G1 X101.499 Y114.406 E4.4693
G1 X101.49 Y115.133 E4.54185
G1 X101.438 Y116.091 E4.63758
G1 X101.307 Y117.041 E4.73326
G1 X101.097 Y117.976 E4.82888
G1 X100.809 Y118.891 E4.9246
G1 X100.447 Y119.779 E5.02028
G1 X100.012 Y120.634 E5.116
G1 X99.507 Y121.449 E5.21167
G1 X98.935 Y122.219 E5.30738
G1 X98.302 Y122.939 E5.40304
G1 X97.611 Y123.604 E5.49873
G1 X96.867 Y124.209 E5.59441
G1 X96.075 Y124.75 E5.69011
G1 X95.241 Y125.223 E5.78578
G1 X94.37 Y125.625 E5.8815
G1 X93.469 Y125.952 E5.97714
G1 X92.544 Y126.204 E6.0728
G1 X91.6 Y126.378 E6.16858
G1 X90.313 Y126.486 E6.29745
G1 X89.992 Y126.495 E6.32949
G1 X89.67 Y126.5 E6.36163
G1 X80.559 Y126.499 E7.27073
G1 X79.861 Y126.49 E7.34038
G1 X78.903 Y126.438 E7.43611
G1 X77.953 Y126.306 E7.53181
G1 X77.018 Y126.095 E7.62745
G1 X76.103 Y125.807 E7.72317
G1 X75.215 Y125.444 E7.81889
G1 X74.361 Y125.009 E7.91452
G1 X73.546 Y124.503 E8.01024
G1 X72.776 Y123.932 E8.10589
G1 X72.056 Y123.298 E8.20161
G1 X71.392 Y122.607 E8.29723
G1 X70.787 Y121.862 E8.393
G1 X70.247 Y121.07 E8.48864
G1 X69.775 Y120.236 E8.58426
G1 X69.373 Y119.365 E8.67998
G1 X69.046 Y118.463 E8.77571
G1 X68.795 Y117.538 E8.87135
G1 X68.621 Y116.595 E8.96703
G1 X68.513 Y115.302 E9.0965
G1 X68.504 Y114.969 E9.12973
G1 X68.5 Y114.658 E9.16077
G1 X68.501 Y105.518 E10.07276
G1 X68.51 Y104.853 E10.13912
G1 X68.563 Y103.896 E10.23476
G1 X68.696 Y102.946 E10.33047
G1 X68.907 Y102.011 E10.42611
G1 X69.195 Y101.096 E10.52183
G1 X69.559 Y100.209 E10.6175
G1 X69.995 Y99.355 E10.71317
G1 X70.501 Y98.54 E10.80889
G1 X71.073 Y97.77 E10.9046
G1 X71.707 Y97.051 E11.00025
G1 X72.399 Y96.387 E11.09595
G1 X73.144 Y95.783 E11.19164
M204 S3000
G0 F12000 X74.106 Y96.325
M204 S200
G1 F1200 X74.886 Y95.844 E11.28308
G1 X75.704 Y95.432 E11.37447
G1 X76.555 Y95.093 E11.46587
G1 X77.433 Y94.83 E11.55732
G1 X78.33 Y94.644 E11.64873
G1 X79.24 Y94.537 E11.74016
G1 X79.715 Y94.513 E11.78761
G1 X80.036 Y94.504 E11.81966
G1 X80.33 Y94.5 E11.84899
G1 X89.293 Y94.5 E12.74333
G1 X90.141 Y94.511 E12.82795
G1 X91.056 Y94.564 E12.9194
G1 X91.963 Y94.697 E13.01087
G1 X92.854 Y94.908 E13.10223
G1 X93.724 Y95.196 E13.19367
G1 X94.566 Y95.559 E13.28516
G1 X95.372 Y95.994 E13.37655
G1 X96.138 Y96.497 E13.46799
G1 X96.857 Y97.066 E13.55948
G1 X97.523 Y97.694 E13.65082
G1 X98.132 Y98.379 E13.74227
G1 X98.679 Y99.114 E13.83369
G1 X99.16 Y99.894 E13.92513
G1 X99.571 Y100.713 E14.01656
G1 X99.91 Y101.564 E14.10796
G1 X100.172 Y102.442 E14.19939
G1 X100.357 Y103.34 E14.29087
G1 X100.463 Y104.25 E14.38229
G1 X100.487 Y104.715 E14.42875
G1 X100.496 Y105.035 E14.46069
G1 X100.5 Y105.33 E14.49013
G1 X100.499 Y114.394 E15.39454
G1 X100.49 Y115.121 E15.46708
G1 X100.439 Y116.036 E15.55852
G1 X100.308 Y116.943 E15.64996
G1 X100.099 Y117.835 E15.74138
G1 X99.812 Y118.705 E15.83279
G1 X99.451 Y119.547 E15.9242
G1 X99.018 Y120.355 E16.01567
G1 X98.516 Y121.121 E16.10705
G1 X97.949 Y121.841 E16.1985
G1 X97.321 Y122.509 E16.28998
G1 X96.638 Y123.119 E16.38135
G1 X95.904 Y123.668 E16.47281
G1 X95.125 Y124.15 E16.56422
G1 X94.307 Y124.563 E16.65565
G1 X93.456 Y124.903 E16.74709
G1 X92.579 Y125.167 E16.83848
G1 X91.682 Y125.354 E16.9299
G1 X90.772 Y125.462 E17.02134
G1 X90.285 Y125.487 E17.07
G1 X89.964 Y125.496 E17.10204
G1 X89.67 Y125.5 E17.13138
G1 X80.572 Y125.499 E18.03918
G1 X79.874 Y125.49 E18.10883
G1 X78.959 Y125.438 E18.20028
G1 X78.052 Y125.307 E18.29172
G1 X77.16 Y125.097 E18.38316
G1 X76.29 Y124.81 E18.47457
G1 X75.448 Y124.449 E18.56598
G1 X74.641 Y124.015 E18.65741
G1 X73.874 Y123.513 E18.74887
G1 X73.155 Y122.945 E18.8403
G1 X72.487 Y122.317 E18.93178
G1 X71.877 Y121.634 E19.02316
G1 X71.329 Y120.9 E19.11456
G1 X70.847 Y120.12 E19.20605
G1 X70.435 Y119.302 E19.29743
G1 X70.095 Y118.451 E19.38887
G1 X69.832 Y117.573 E19.48033
G1 X69.645 Y116.676 E19.57175
G1 X69.538 Y115.766 E19.66318
G1 X69.513 Y115.275 E19.71224
G1 X69.504 Y114.942 E19.74547
G1 X69.5 Y114.658 E19.77381
G1 X69.501 Y105.532 E20.68441
G1 X69.51 Y104.867 E20.75077
G1 X69.562 Y103.952 E20.84222
G1 X69.694 Y103.045 E20.93367
G1 X69.905 Y102.154 E21.02503
G1 X70.192 Y101.284 E21.11645
G1 X70.554 Y100.442 E21.2079
G1 X70.989 Y99.635 E21.29937
G1 X71.491 Y98.869 E21.39075
G1 X72.059 Y98.15 E21.48218
G1 X72.687 Y97.483 E21.57359
G1 X73.371 Y96.873 E21.66504
G1 X74.106 Y96.325 E21.75652
M204 S3000
G1 F12000 E20.75652
;MESH:Modifier_Cube.stl
G0 X81.494 Y106.494
G0 X81.48 Y106.48
M204 S50
;TYPE:WALL-INNER
G1 F12000 E21.75652
G1 F900 X88.52 Y106.48 E22.45897
G1 X88.52 Y113.52 E23.16143
G1 X81.48 Y113.52 E23.86388
G1 X81.48 Y106.48 E24.56634
M204 S3000
G0 F12000 X81.55 Y106.55
G0 X80.49 Y105.49
M204 S50
;TYPE:WALL-OUTER
G1 F900 X89.51 Y105.49 E25.44835
G1 X89.51 Y114.51 E26.33037
G1 X80.49 Y114.51 E27.21239
G1 X80.49 Y105.49 E28.09441
M204 S3000
G1 F12000 E27.09441
G0 X81.55 Y106.55
G0 X87.57 Y108.783
M204 S100
;TYPE:SKIN
G1 F12000 E28.09441
G1 F2400 X86.216 Y107.429 E28.28548
G1 X87.569 Y107.429 E28.42048
M204 S3000
G0 F12000 X86.216 Y107.429
M204 S100
G1 F2400 X84.801 Y107.429 E28.56167
G1 X87.57 Y110.197 E28.95233
G1 X87.57 Y111.611 E29.09342
G1 X83.387 Y107.429 E29.68362
G1 X82.43 Y107.429 E29.77911
G1 X82.429 Y107.885 E29.82461
G1 X87.113 Y112.569 E30.48557
G1 X85.699 Y112.569 E30.62666
G1 X82.429 Y109.299 E31.08809
G1 X82.429 Y110.713 E31.22918
G1 X84.285 Y112.569 E31.49108
G1 X82.87 Y112.569 E31.63227
G1 X82.429 Y112.128 E31.6945
M204 S3000
G0 F12000 X82.429 Y112.569
M204 S100
G1 F2400 X82.87 Y112.569 E31.73851
M104 S220
M204 S3000
G0 F12000 X82.87 Y112.52
G1 F12000 E30.73851
;MESH:NONMESH
G0 F3000 X82.87 Y112.52 Z0.4
G0 F12000 X81.55 Y106.55
G0 X80.74 Y105.74
;TIME_ELAPSED:21.983922
;LAYER:1
M204 S1525
;TYPE:WALL-INNER
;MESH:Modifier_Cube.stl
G1 F12000 E31.73851
G1 F1250.1 X89.26 Y105.74 E32.02188
G1 X89.26 Y114.26 E32.30526
G1 X80.74 Y114.26 E32.58864
G1 X80.74 Y105.74 E32.87201
M204 S4500
G0 F19500 X80.245 Y105.245
M204 S1525
;TYPE:WALL-OUTER
G1 F1250.1 X89.755 Y105.245 E33.18199
G1 X89.755 Y114.755 E33.49197
G1 X80.245 Y114.755 E33.80195
G1 X80.245 Y105.245 E34.11192
M204 S4500
G1 F12000 E33.11192
G0 F19500 X80.81 Y105.81
G0 X88.809 Y113.808
M204 S1550
;TYPE:SKIN
G1 F12000 E34.11192
G1 F1439.6 X88.809 Y113.422 E34.12476
G1 X88.423 Y113.808 E34.14292
G1 X87.716 Y113.808 E34.16643
G1 X88.809 Y112.715 E34.21784
G1 X88.809 Y112.008 E34.24136
G1 X87.009 Y113.808 E34.32603
G1 X86.302 Y113.808 E34.34954
G1 X88.809 Y111.301 E34.46746
G1 X88.809 Y110.594 E34.49098
G1 X85.595 Y113.808 E34.64215
G1 X84.888 Y113.808 E34.66567
G1 X88.809 Y109.887 E34.8501
G1 X88.809 Y109.18 E34.87362
G1 X84.181 Y113.808 E35.0913
G1 X83.473 Y113.808 E35.11485
G1 X88.809 Y108.473 E35.36582
G1 X88.809 Y107.765 E35.38936
G1 X82.766 Y113.808 E35.67361
G1 X82.059 Y113.808 E35.69712
G1 X88.809 Y107.058 E36.01462
G1 X88.809 Y106.351 E36.03814
G1 X81.352 Y113.808 E36.38889
G1 X81.19 Y113.808 E36.39428
G1 X81.19 Y113.264 E36.41237
G1 X88.265 Y106.189 E36.74516
G1 X87.558 Y106.189 E36.76867
G1 X81.19 Y112.557 E37.06821
G1 X81.19 Y111.85 E37.09172
G1 X86.851 Y106.189 E37.358
G1 X86.143 Y106.189 E37.38155
G1 X81.19 Y111.143 E37.61454
G1 X81.19 Y110.435 E37.63809
G1 X85.436 Y106.189 E37.83781
G1 X84.729 Y106.189 E37.86132
G1 X81.19 Y109.728 E38.02779
G1 X81.19 Y109.021 E38.0513
G1 X84.022 Y106.189 E38.18451
G1 X83.315 Y106.189 E38.20803
G1 X81.19 Y108.314 E38.30798
G1 X81.19 Y107.607 E38.33149
G1 X82.608 Y106.189 E38.39819
G1 X81.901 Y106.189 E38.42171
G1 X81.19 Y106.9 E38.45515
G1 X81.19 Y106.193 E38.47867
M204 S4500
G0 F19500 X81.24 Y106.24
;MESH:NONMESH
G0 F3000 X81.24 Y106.24 Z0.56
G0 F19500 X81.202 Y106.201
;TIME_ELAPSED:31.366276
;LAYER:2
M204 S3000
;TYPE:FILL
;MESH:Modifier_Cube.stl
G1 F900 X88.798 Y113.797 E38.83596
G1 X88.797 Y106.201 E39.0886
G1 X81.202 Y113.796 E39.44585
G1 X81.202 Y106.202 E39.69843
G1 X88.798 Y106.202 E39.95107
M204 S6000
G0 F27000 X89.26 Y105.74
M204 S3000
;TYPE:WALL-INNER
G1 F900 X89.26 Y114.26 E40.23445
G1 X80.74 Y114.26 E40.51782
G1 X80.74 Y105.74 E40.8012
G1 X89.26 Y105.74 E41.08458
M204 S6000
G0 F27000 X89.755 Y105.245
M204 S3000
;TYPE:WALL-OUTER
G1 F900 X89.755 Y114.755 E41.39455
G1 X80.245 Y114.755 E41.70453
G1 X80.245 Y105.245 E42.01451
G1 X89.755 Y105.245 E42.32449
M204 S6000
G0 F27000 X88.76 Y106.093
G1 F12000 E41.32449
;MESH:NONMESH
G0 F3000 X88.76 Y106.093 Z0.72
G0 F27000 X81.202 Y106.201
;TIME_ELAPSED:39.346286
;LAYER:3
M204 S3000
;TYPE:FILL
;MESH:Modifier_Cube.stl
G1 F12000 E42.32449
G1 F900 X88.798 Y113.797 E42.68178
G1 X88.797 Y106.201 E42.93442
G1 X81.202 Y113.796 E43.29167
G1 X81.202 Y106.202 E43.54425
G1 X88.798 Y106.202 E43.79689
M204 S6000
G0 F27000 X89.26 Y105.74
M204 S3000
;TYPE:WALL-INNER
G1 F900 X89.26 Y114.26 E44.08027
G1 X80.74 Y114.26 E44.36364
G1 X80.74 Y105.74 E44.64702
G1 X89.26 Y105.74 E44.9304
M204 S6000
G0 F27000 X89.755 Y105.245
M204 S3000
;TYPE:WALL-OUTER
G1 F900 X89.755 Y114.755 E45.24037
G1 X80.245 Y114.755 E45.55035
G1 X80.245 Y105.245 E45.86033
G1 X89.755 Y105.245 E46.17031
M204 S6000
G0 F27000 X88.76 Y106.093
G1 F12000 E45.17031
;MESH:NONMESH
G0 F3000 X88.76 Y106.093 Z0.88
G0 F27000 X81.202 Y106.201
;TIME_ELAPSED:47.363969
;LAYER:4
M204 S3000
;TYPE:FILL
;MESH:Modifier_Cube.stl
G1 F12000 E46.17031
G1 F900 X88.798 Y113.797 E46.5276
G1 X88.797 Y106.201 E46.78024
G1 X81.202 Y113.796 E47.13749
G1 X81.202 Y106.202 E47.39007
G1 X88.798 Y106.202 E47.64271
M204 S6000
G0 F27000 X89.26 Y105.74
M204 S3000
;TYPE:WALL-INNER
G1 F900 X89.26 Y114.26 E47.92609
G1 X80.74 Y114.26 E48.20946
G1 X80.74 Y105.74 E48.49284
G1 X89.26 Y105.74 E48.77622
M204 S6000
G0 F27000 X89.755 Y105.245
M204 S3000
;TYPE:WALL-OUTER
G1 F900 X89.755 Y114.755 E49.08619
G1 X80.245 Y114.755 E49.39617
G1 X80.245 Y105.245 E49.70615
G1 X89.755 Y105.245 E50.01613
M204 S6000
G0 F27000 X88.76 Y106.093
G1 F12000 E49.01613
;MESH:NONMESH
G0 F3000 X88.76 Y106.093 Z1.04
G0 F27000 X81.202 Y106.201
;TIME_ELAPSED:55.381652
;LAYER:5
M204 S3000
;TYPE:FILL
;MESH:Modifier_Cube.stl
G1 F12000 E50.01613
G1 F900 X88.798 Y113.797 E50.37342
G1 X88.797 Y106.201 E50.62606
G1 X81.202 Y113.796 E50.98331
G1 X81.202 Y106.202 E51.23589
G1 X88.798 Y106.202 E51.48853
M204 S6000
G0 F27000 X89.26 Y105.74
M204 S3000
;TYPE:WALL-INNER
G1 F900 X89.26 Y114.26 E51.77191
G1 X80.74 Y114.26 E52.05528
G1 X80.74 Y105.74 E52.33866
G1 X89.26 Y105.74 E52.62204
M204 S6000
G0 F27000 X89.755 Y105.245
M204 S3000
;TYPE:WALL-OUTER
G1 F900 X89.755 Y114.755 E52.93201
G1 X80.245 Y114.755 E53.24199
G1 X80.245 Y105.245 E53.55197
G1 X89.755 Y105.245 E53.86195
M204 S6000
G0 F27000 X88.76 Y106.093
G1 F12000 E52.86195
;MESH:NONMESH
G0 F3000 X88.76 Y106.093 Z1.2
G0 F27000 X81.202 Y106.201
;TIME_ELAPSED:63.399336
;LAYER:6
M204 S3000
;TYPE:FILL
;MESH:Modifier_Cube.stl
G1 F12000 E53.86195
G1 F900 X88.798 Y113.797 E54.21924
G1 X88.797 Y106.201 E54.47188
G1 X81.202 Y113.796 E54.82913
G1 X81.202 Y106.202 E55.08171
G1 X88.798 Y106.202 E55.33435
M204 S6000
G0 F27000 X89.26 Y105.74
M204 S3000
;TYPE:WALL-INNER
G1 F900 X89.26 Y114.26 E55.61773
G1 X80.74 Y114.26 E55.9011
G1 X80.74 Y105.74 E56.18448
G1 X89.26 Y105.74 E56.46786
M204 S6000
G0 F27000 X89.755 Y105.245
M204 S3000
;TYPE:WALL-OUTER
G1 F900 X89.755 Y114.755 E56.77783
G1 X80.245 Y114.755 E57.08781
G1 X80.245 Y105.245 E57.39779
G1 X89.755 Y105.245 E57.70777
M204 S6000
G0 F27000 X88.76 Y106.093
G1 F12000 E56.70777
;MESH:NONMESH
G0 F3000 X88.76 Y106.093 Z1.36
G0 F27000 X81.202 Y106.201
;TIME_ELAPSED:71.417019
;LAYER:7
M204 S3000
;TYPE:FILL
;MESH:Modifier_Cube.stl
G1 F12000 E57.70777
G1 F900 X88.798 Y113.797 E58.06506
G1 X88.797 Y106.201 E58.3177
G1 X81.202 Y113.796 E58.67495
G1 X81.202 Y106.202 E58.92753
G1 X88.798 Y106.202 E59.18017
M204 S6000
G0 F27000 X89.26 Y105.74
M204 S3000
;TYPE:WALL-INNER
G1 F900 X89.26 Y114.26 E59.46355
G1 X80.74 Y114.26 E59.74692
G1 X80.74 Y105.74 E60.0303
G1 X89.26 Y105.74 E60.31368
M204 S6000
G0 F27000 X89.755 Y105.245
M204 S3000
;TYPE:WALL-OUTER
G1 F900 X89.755 Y114.755 E60.62365
G1 X80.245 Y114.755 E60.93363
G1 X80.245 Y105.245 E61.24361
G1 X89.755 Y105.245 E61.55359
M204 S6000
G0 F27000 X88.76 Y106.093
G1 F12000 E60.55359
;MESH:NONMESH
G0 F3000 X88.76 Y106.093 Z1.52
G0 F27000 X81.202 Y106.201
;TIME_ELAPSED:79.434703
;LAYER:8
M204 S3000
;TYPE:FILL
;MESH:Modifier_Cube.stl
G1 F12000 E61.55359
G1 F900 X88.798 Y113.797 E61.91088
G1 X88.797 Y106.201 E62.16352
G1 X81.202 Y113.796 E62.52077
G1 X81.202 Y106.202 E62.77335
G1 X88.798 Y106.202 E63.02599
M204 S6000
G0 F27000 X89.26 Y105.74
M204 S3000
;TYPE:WALL-INNER
G1 F900 X89.26 Y114.26 E63.30937
G1 X80.74 Y114.26 E63.59274
G1 X80.74 Y105.74 E63.87612
G1 X89.26 Y105.74 E64.1595
M204 S6000
G0 F27000 X89.755 Y105.245
M204 S3000
;TYPE:WALL-OUTER
G1 F900 X89.755 Y114.755 E64.46947
G1 X80.245 Y114.755 E64.77945
G1 X80.245 Y105.245 E65.08943
G1 X89.755 Y105.245 E65.39941
M204 S6000
G0 F27000 X88.76 Y106.093
G1 F12000 E64.39941
;MESH:NONMESH
G0 F3000 X88.76 Y106.093 Z1.68
G0 F27000 X81.202 Y106.201
;TIME_ELAPSED:87.452386
;LAYER:9
M204 S3000
;TYPE:FILL
;MESH:Modifier_Cube.stl
G1 F12000 E65.39941
G1 F900 X88.798 Y113.797 E65.7567
G1 X88.797 Y106.201 E66.00934
G1 X81.202 Y113.796 E66.36659
G1 X81.202 Y106.202 E66.61917
G1 X88.798 Y106.202 E66.87181
M204 S6000
G0 F27000 X89.26 Y105.74
M204 S3000
;TYPE:WALL-INNER
G1 F900 X89.26 Y114.26 E67.15519
G1 X80.74 Y114.26 E67.43856
G1 X80.74 Y105.74 E67.72194
G1 X89.26 Y105.74 E68.00532
M204 S6000
G0 F27000 X89.755 Y105.245
M204 S3000
;TYPE:WALL-OUTER
G1 F900 X89.755 Y114.755 E68.31529
G1 X80.245 Y114.755 E68.62527
G1 X80.245 Y105.245 E68.93525
G1 X89.755 Y105.245 E69.24523
M204 S6000
G0 F27000 X88.76 Y106.093
G1 F12000 E68.24523
;MESH:NONMESH
G0 F3000 X88.76 Y106.093 Z1.84
G0 F27000 X81.202 Y106.201
;TIME_ELAPSED:95.470069
;LAYER:10
M204 S3000
;TYPE:FILL
;MESH:Modifier_Cube.stl
G1 F12000 E69.24523
G1 F900 X88.798 Y113.797 E69.60252
G1 X88.797 Y106.201 E69.85516
G1 X81.202 Y113.796 E70.21241
G1 X81.202 Y106.202 E70.46499
G1 X88.798 Y106.202 E70.71763
M204 S6000
G0 F27000 X89.26 Y105.74
M204 S3000
;TYPE:WALL-INNER
G1 F900 X89.26 Y114.26 E71.00101
G1 X80.74 Y114.26 E71.28438
G1 X80.74 Y105.74 E71.56776
G1 X89.26 Y105.74 E71.85114
M204 S6000
G0 F27000 X89.755 Y105.245
M204 S3000
;TYPE:WALL-OUTER
G1 F900 X89.755 Y114.755 E72.16111
G1 X80.245 Y114.755 E72.47109
G1 X80.245 Y105.245 E72.78107
G1 X89.755 Y105.245 E73.09105
M204 S6000
G0 F27000 X88.76 Y106.093
G1 F12000 E72.09105
;MESH:NONMESH
G0 F3000 X88.76 Y106.093 Z2
G0 F27000 X81.202 Y106.201
;TIME_ELAPSED:103.487753
;LAYER:11
M204 S3000
;TYPE:FILL
;MESH:Modifier_Cube.stl
G1 F12000 E73.09105
G1 F900 X88.798 Y113.797 E73.44834
G1 X88.797 Y106.201 E73.70098
G1 X81.202 Y113.796 E74.05823
G1 X81.202 Y106.202 E74.31081
G1 X88.798 Y106.202 E74.56345
M204 S6000
G0 F27000 X89.26 Y105.74
M204 S3000
;TYPE:WALL-INNER
