;FLAVOR:Marlin
;TIME:359
;Filament used: 0.20742m
;Layer height: 0.16
;MINX:69.267
;MINY:94.265
;MINZ:0.24
;MAXX:100.735
;MAXY:125.731
;MAXZ:10
;Generated with Cura_SteamEngine mb-master-20210130
M82 ;absolute extrusion mode
M104 S220
M140 S0
M105
G28 ;Home
G1 Z16.0 F6000 ;Move the platform down 16mm
M109 S220
G92 E0 ;absolute position is set above
G92 E0 ;reset back to 0
G92 E0
G92 E0
G1 F12000 E-0.2
;LAYER_COUNT:62
;LAYER:0
M107
M204 S3000
G0 X75.601 Y97.389 Z0.24
M204 S200
;TYPE:SKIRT
G1 F12000 E0
G1 F1200 X76.126 Y97.015 E0.03216
G1 X76.915 Y96.503 E0.07908
G1 X77.854 Y95.982 E0.13266
G1 X78.642 Y95.613 E0.17607
G1 X79.769 Y95.163 E0.23661
G1 X80.655 Y94.88 E0.28301
G1 X81.734 Y94.61 E0.33851
G1 X82.733 Y94.431 E0.38914
G1 X83.672 Y94.327 E0.43627
G1 X84.218 Y94.289 E0.46358
G1 X85.316 Y94.265 E0.51837
G1 X86.378 Y94.326 E0.57144
G1 X87.807 Y94.522 E0.6434
G1 X88.962 Y94.774 E0.70238
G1 X89.908 Y95.05 E0.75155
G1 X90.837 Y95.392 E0.80093
G1 X91.856 Y95.839 E0.85645
G1 X92.78 Y96.324 E0.90851
G1 X93.586 Y96.819 E0.9557
G1 X94.007 Y97.102 E0.98101
G1 X94.582 Y97.517 E1.01639
G1 X95.691 Y98.461 E1.08905
G1 X96.188 Y98.944 E1.12362
G1 X96.824 Y99.618 E1.16986
G1 X97.15 Y100.012 E1.19537
G1 X97.542 Y100.511 E1.22703
G1 X98.082 Y101.264 E1.27326
G1 X98.638 Y102.153 E1.32557
G1 X99.177 Y103.172 E1.38308
G1 X99.772 Y104.596 E1.46008
G1 X99.971 Y105.18 E1.49086
G1 X100.195 Y105.922 E1.52953
G1 X100.43 Y106.939 E1.5816
G1 X100.668 Y108.64 E1.66729
G1 X100.713 Y109.33 E1.70179
G1 X100.735 Y110.167 E1.74356
G1 X100.696 Y111.159 E1.79309
G1 X100.597 Y112.094 E1.84
G1 X100.31 Y113.619 E1.91742
G1 X100.159 Y114.201 E1.94741
G1 X99.867 Y115.146 E1.99676
G1 X99.257 Y116.642 E2.07736
G1 X98.973 Y117.219 E2.10945
G1 X98.532 Y118.027 E2.15537
G1 X98.017 Y118.836 E2.20322
G1 X97.328 Y119.776 E2.26136
G1 X96.748 Y120.463 E2.30622
G1 X96.011 Y121.237 E2.35954
G1 X95.239 Y121.944 E2.41176
G1 X94.421 Y122.601 E2.46411
G1 X93.587 Y123.179 E2.51473
G1 X93.153 Y123.452 E2.54031
G1 X92.505 Y123.829 E2.57771
G1 X91.194 Y124.463 E2.65037
G1 X89.889 Y124.952 E2.71989
G1 X88.825 Y125.261 E2.77517
G1 X87.804 Y125.479 E2.82726
G1 X86.748 Y125.636 E2.88052
G1 X85.774 Y125.713 E2.92926
G1 X84.697 Y125.731 E2.983
G1 X83.736 Y125.682 E3.03101
G1 X82.677 Y125.558 E3.0842
G1 X81.538 Y125.349 E3.14198
G1 X80.597 Y125.104 E3.19049
G1 X79.619 Y124.781 E3.24187
G1 X78.094 Y124.132 E3.32456
G1 X77.608 Y123.883 E3.3518
G1 X76.829 Y123.442 E3.39646
G1 X75.903 Y122.834 E3.45173
G1 X74.635 Y121.83 E3.53242
G1 X74.193 Y121.426 E3.5623
G1 X73.559 Y120.795 E3.60692
G1 X72.856 Y120.002 E3.65979
G1 X72.288 Y119.264 E3.70625
G1 X71.584 Y118.219 E3.76912
G1 X71.171 Y117.503 E3.81036
G1 X70.706 Y116.568 E3.86245
G1 X70.263 Y115.503 E3.92
G1 X69.924 Y114.502 E3.97273
G1 X69.697 Y113.645 E4.01696
G1 X69.463 Y112.466 E4.07692
G1 X69.344 Y111.537 E4.12365
G1 X69.27 Y110.423 E4.17935
G1 X69.267 Y109.599 E4.22046
G1 X69.327 Y108.586 E4.27109
G1 X69.469 Y107.503 E4.32558
G1 X69.711 Y106.299 E4.38685
G1 X70.167 Y104.77 E4.46645
G1 X70.401 Y104.15 E4.49951
G1 X70.742 Y103.348 E4.54299
G1 X71.179 Y102.484 E4.5913
G1 X71.726 Y101.555 E4.64508
G1 X72.264 Y100.766 E4.69273
G1 X72.98 Y99.848 E4.75081
G1 X73.598 Y99.161 E4.79691
G1 X74.407 Y98.369 E4.85339
G1 X75.601 Y97.389 E4.93046
M204 S3000
G0 F12000 X75.891 Y97.797
M204 S200
G1 F1200 X76.416 Y97.423 E4.96262
G1 X77.169 Y96.935 E5.00738
G1 X78.077 Y96.43 E5.05922
G1 X78.837 Y96.073 E5.10111
G1 X79.932 Y95.636 E5.15993
G1 X80.788 Y95.362 E5.20477
G1 X81.833 Y95.1 E5.25852
G1 X82.8 Y94.926 E5.30754
G1 X83.706 Y94.826 E5.35301
G1 X84.252 Y94.788 E5.38032
G1 X85.313 Y94.765 E5.43327
G1 X86.325 Y94.823 E5.48384
G1 X87.709 Y95.012 E5.55353
G1 X88.833 Y95.257 E5.61092
G1 X89.748 Y95.524 E5.65847
G1 X90.645 Y95.853 E5.70614
G1 X91.635 Y96.288 E5.76009
G1 X92.528 Y96.756 E5.81039
G1 X93.307 Y97.234 E5.85599
G1 X93.728 Y97.517 E5.88129
G1 X94.276 Y97.912 E5.915
G1 X95.343 Y98.819 E5.98486
G1 X95.84 Y99.302 E6.01944
G1 X96.46 Y99.961 E6.06458
G1 X97.148 Y100.82 E6.11949
G1 X97.663 Y101.537 E6.16353
G1 X98.203 Y102.4 E6.21432
G1 X98.724 Y103.383 E6.26982
G1 X99.299 Y104.757 E6.34413
G1 X99.498 Y105.341 E6.37491
G1 X99.711 Y106.049 E6.4118
G1 X99.938 Y107.029 E6.46199
G1 X100.169 Y108.673 E6.54481
G1 X100.214 Y109.363 E6.57931
G1 X100.235 Y110.16 E6.61908
G1 X100.198 Y111.117 E6.66687
G1 X100.103 Y112.022 E6.71226
G1 X99.827 Y113.493 E6.78693
G1 X99.676 Y114.075 E6.81693
G1 X99.397 Y114.976 E6.86399
G1 X98.808 Y116.421 E6.94184
G1 X98.524 Y116.998 E6.97392
G1 X98.104 Y117.768 E7.01768
G1 X97.606 Y118.551 E7.06398
G1 X96.939 Y119.461 E7.12027
G1 X96.378 Y120.126 E7.16367
G1 X95.664 Y120.877 E7.21537
G1 X94.918 Y121.561 E7.26586
G1 X94.125 Y122.198 E7.31661
G1 X93.321 Y122.756 E7.36544
G1 X92.887 Y123.029 E7.39102
G1 X92.269 Y123.388 E7.42667
G1 X91.006 Y124 E7.49669
G1 X89.74 Y124.475 E7.56415
G1 X88.707 Y124.775 E7.61782
G1 X87.722 Y124.986 E7.66808
G1 X86.695 Y125.138 E7.71987
G1 X85.756 Y125.213 E7.76687
G1 X84.709 Y125.232 E7.81911
G1 X83.782 Y125.185 E7.86542
G1 X82.758 Y125.064 E7.91686
G1 X81.65 Y124.861 E7.97306
G1 X80.743 Y124.626 E8.0198
G1 X79.796 Y124.313 E8.06956
G1 X78.322 Y123.687 E8.14946
G1 X77.836 Y123.438 E8.1767
G1 X77.093 Y123.018 E8.21928
G1 X76.196 Y122.429 E8.27282
G1 X74.973 Y121.461 E8.35064
G1 X74.531 Y121.057 E8.38051
G1 X73.925 Y120.456 E8.42309
G1 X73.244 Y119.687 E8.47434
G1 X72.696 Y118.975 E8.51916
G1 X72.012 Y117.961 E8.58019
G1 X71.613 Y117.268 E8.62008
G1 X71.163 Y116.366 E8.67037
G1 X70.733 Y115.333 E8.72619
G1 X70.404 Y114.363 E8.7773
G1 X70.185 Y113.536 E8.81998
G1 X69.957 Y112.392 E8.87817
G1 X69.843 Y111.494 E8.92333
G1 X69.77 Y110.412 E8.97744
G1 X69.766 Y109.613 E9.0173
G1 X69.824 Y108.638 E9.06603
G1 X69.961 Y107.591 E9.11871
G1 X70.196 Y106.42 E9.1783
G1 X70.635 Y104.947 E9.25498
G1 X70.869 Y104.327 E9.28804
G1 X71.194 Y103.562 E9.32951
G1 X71.615 Y102.729 E9.37607
G1 X72.145 Y101.827 E9.42827
G1 X72.665 Y101.064 E9.47433
G1 X73.359 Y100.174 E9.53064
G1 X73.956 Y99.51 E9.57519
G1 X74.74 Y98.742 E9.62994
G1 X75.891 Y97.797 E9.70424
M204 S3000
G1 F12000 E9.50424
;MESH:Modifier_Cylinder.stl
G0 X82.35 Y106.705
G0 X82.338 Y106.69
M204 S50
;TYPE:WALL-INNER
G1 F12000 E9.70424
G1 F900 X82.789 Y106.373 E9.73174
G1 X83.298 Y106.107 E9.76039
G1 X83.819 Y105.919 E9.78803
G1 X84.366 Y105.801 E9.81595
G1 X85.216 Y105.756 E9.85841
G1 X85.758 Y105.818 E9.88563
G1 X86.308 Y105.958 E9.91394
G1 X86.841 Y106.171 E9.94258
G1 X87.323 Y106.442 E9.97017
G1 X87.769 Y106.776 E9.99797
G1 X88.165 Y107.166 E10.02569
G1 X88.51 Y107.606 E10.05359
G1 X88.81 Y108.119 E10.08324
G1 X89.016 Y108.614 E10.10999
G1 X89.161 Y109.143 E10.13735
G1 X89.239 Y109.728 E10.1668
G1 X89.24 Y110.273 E10.19399
G1 X89.166 Y110.844 E10.22271
G1 X89.024 Y111.364 E10.24961
G1 X88.797 Y111.908 E10.27901
G1 X88.519 Y112.381 E10.30639
G1 X88.173 Y112.827 E10.33455
G1 X87.782 Y113.211 E10.36189
G1 X87.329 Y113.554 E10.39024
G1 X86.839 Y113.831 E10.41832
G1 X86.314 Y114.039 E10.44649
G1 X85.77 Y114.178 E10.4745
G1 X85.215 Y114.243 E10.50238
G1 X84.64 Y114.234 E10.53107
G1 X84.093 Y114.152 E10.55867
G1 X83.561 Y113.998 E10.5863
G1 X83.042 Y113.77 E10.61458
G1 X82.563 Y113.481 E10.64249
G1 X82.12 Y113.124 E10.67088
G1 X81.737 Y112.721 E10.69861
G1 X81.41 Y112.272 E10.72632
G1 X81.138 Y111.771 E10.75477
G1 X80.94 Y111.25 E10.78257
G1 X80.811 Y110.703 E10.81061
G1 X80.755 Y110.154 E10.83814
G1 X80.771 Y109.584 E10.86659
G1 X80.861 Y109.035 E10.89435
G1 X81.031 Y108.484 E10.92311
G1 X81.261 Y107.982 E10.95066
G1 X81.564 Y107.5 E10.97907
G1 X81.921 Y107.072 E11.00687
G1 X82.338 Y106.69 E11.03509
M204 S3000
G0 F12000 X82.4 Y106.767
G0 X84.379 Y105.9
G0 X84.296 Y105.304
M204 S50
;TYPE:WALL-OUTER
G1 F900 X85.234 Y105.255 E11.08195
G1 X85.85 Y105.325 E11.11288
G1 X86.46 Y105.48 E11.14428
G1 X87.059 Y105.72 E11.17647
G1 X87.596 Y106.022 E11.20721
G1 X88.095 Y106.396 E11.23832
G1 X88.538 Y106.832 E11.26933
G1 X88.925 Y107.325 E11.3006
G1 X89.256 Y107.891 E11.33331
G1 X89.49 Y108.452 E11.36364
G1 X89.653 Y109.05 E11.39456
G1 X89.739 Y109.691 E11.42683
G1 X89.74 Y110.307 E11.45756
G1 X89.658 Y110.937 E11.48925
G1 X89.497 Y111.529 E11.51986
G1 X89.245 Y112.132 E11.55247
G1 X88.932 Y112.665 E11.5833
G1 X88.549 Y113.158 E11.61445
G1 X88.11 Y113.59 E11.64518
G1 X87.604 Y113.972 E11.67681
G1 X87.051 Y114.285 E11.70851
G1 X86.47 Y114.516 E11.7397
G1 X85.861 Y114.671 E11.77106
G1 X85.243 Y114.743 E11.8021
G1 X84.603 Y114.734 E11.83403
G1 X83.984 Y114.641 E11.86526
G1 X83.387 Y114.468 E11.89627
G1 X82.81 Y114.215 E11.9277
G1 X82.277 Y113.892 E11.95879
G1 X81.781 Y113.493 E11.99055
G1 X81.354 Y113.044 E12.02146
G1 X80.986 Y112.538 E12.05268
G1 X80.684 Y111.983 E12.0842
G1 X80.459 Y111.39 E12.11585
G1 X80.318 Y110.792 E12.1465
G1 X80.254 Y110.168 E12.17779
G1 X80.272 Y109.542 E12.20904
G1 X80.374 Y108.916 E12.24068
G1 X80.562 Y108.307 E12.27248
G1 X80.82 Y107.745 E12.30333
G1 X81.159 Y107.205 E12.33514
G1 X81.561 Y106.723 E12.36645
G1 X82.023 Y106.3 E12.3977
G1 X82.524 Y105.947 E12.42828
G1 X83.098 Y105.648 E12.46057
G1 X83.685 Y105.436 E12.49171
G1 X84.296 Y105.304 E12.52289
M204 S3000
G0 F12000 X84.417 Y106.249
M204 S100
;TYPE:SKIN
G1 F1800 X85.201 Y106.258 E12.56201
G1 X85.084 Y106.72 E12.58578
G1 X85.168 Y107.21 E12.61059
G1 X85.498 Y107.249 E12.62717
G1 X86.219 Y107.484 E12.665
G1 X86.82 Y107.874 E12.70074
G1 X87.305 Y108.417 E12.73707
G1 X87.646 Y109.096 E12.77497
G1 X87.789 Y109.831 E12.81233
G1 X87.741 Y110.557 E12.84863
G1 X87.496 Y111.261 E12.88582
G1 X87.079 Y111.869 E12.9226
G1 X86.531 Y112.339 E12.95862
G1 X85.868 Y112.657 E12.9953
G1 X85.138 Y112.791 E13.03233
G1 X84.401 Y112.732 E13.06922
G1 X83.7 Y112.474 E13.10649
G1 X83.1 Y112.05 E13.14314
G1 X82.633 Y111.486 E13.17967
G1 X82.331 Y110.823 E13.21602
G1 X82.207 Y110.109 E13.25217
G1 X82.276 Y109.368 E13.2893
G1 X82.54 Y108.671 E13.32649
G1 X82.969 Y108.077 E13.36304
G1 X83.549 Y107.612 E13.40013
G1 X83.831 Y107.487 E13.41552
G1 X83.888 Y108.004 E13.44147
G1 X84.503 Y108.276 E13.47502
G1 X85.321 Y108.236 E13.51588
G1 X85.992 Y108.505 E13.55194
G1 X86.475 Y108.979 E13.58571
G1 X86.751 Y109.614 E13.62025
G1 X86.79 Y110.114 E13.64527
G1 X86.596 Y110.821 E13.68185
G1 X86.183 Y111.351 E13.71537
G1 X85.569 Y111.7 E13.7506
G1 X84.838 Y111.786 E13.78732
G1 X84.156 Y111.582 E13.82284
G1 X83.625 Y111.151 E13.85696
G1 X83.289 Y110.531 E13.89214
G1 X83.217 Y109.818 E13.92789
G1 X83.423 Y109.146 E13.96296
G1 X83.603 Y108.929 E13.97703
G1 X83.97 Y109.222 E14.00045
G1 X84.494 Y109.393 E14.02795
G1 X84.819 Y109.231 E14.04607
G1 X85.134 Y109.22 E14.0618
G1 X85.513 Y109.394 E14.0826
G1 X85.768 Y109.809 E14.1069
G1 X85.756 Y110.236 E14.12821
G1 X85.523 Y110.595 E14.14957
G1 X85.151 Y110.775 E14.17018
G1 X84.753 Y110.753 E14.19007
G1 X84.396 Y110.51 E14.21162
G1 X85.064 Y110.281 E14.24685
G1 X85.253 Y110.145 E14.25846
G1 X85.276 Y109.908 E14.27034
G1 X85.137 Y109.745 E14.28103
G1 X84.881 Y109.734 E14.29381
G1 X84.794 Y109.85 E14.30105
G1 X84.224 Y110.045 E14.3311
G1 X84.248 Y109.834 E14.3417
G1 X83.756 Y109.672 E14.36754
G1 X83.743 Y109.699 E14.36904
G1 X83.723 Y110.193 E14.3937
G1 X83.903 Y110.683 E14.41974
G1 X84.27 Y111.067 E14.44625
G1 X84.711 Y111.261 E14.47028
G1 X85.24 Y111.268 E14.49668
G1 X85.703 Y111.085 E14.52151
G1 X86.078 Y110.715 E14.5478
G1 X86.266 Y110.265 E14.57213
G1 X86.259 Y109.709 E14.59987
G1 X86.06 Y109.26 E14.62437
G1 X85.722 Y108.927 E14.64804
G1 X85.225 Y108.728 E14.67475
G1 X84.754 Y108.734 E14.69825
G1 X84.342 Y108.888 E14.7202
G1 X83.946 Y108.57 E14.74553
G1 X83.432 Y108.342 E14.77359
G1 X83.332 Y108.423 E14.78001
G1 X82.982 Y108.908 E14.80985
G1 X82.765 Y109.477 E14.84023
G1 X82.708 Y110.094 E14.87114
G1 X82.809 Y110.674 E14.90051
G1 X83.057 Y111.22 E14.93043
G1 X83.44 Y111.682 E14.96037
G1 X83.931 Y112.03 E14.9904
G1 X84.502 Y112.241 E15.02077
G1 X85.111 Y112.29 E15.05125
G1 X85.721 Y112.178 E15.08219
G1 X86.255 Y111.921 E15.11176
G1 X86.707 Y111.534 E15.14144
G1 X87.046 Y111.041 E15.17129
G1 X87.249 Y110.461 E15.20195
G1 X87.289 Y109.866 E15.2317
G1 X87.172 Y109.259 E15.26254
G1 X86.89 Y108.698 E15.29387
G1 X86.492 Y108.252 E15.32369
G1 X86.005 Y107.937 E15.35263
G1 X85.408 Y107.742 E15.38396
G1 X84.362 Y107.795 E15.43621
G1 X84.308 Y107.304 E15.46086
G1 X84.676 Y107.264 E15.47932
G1 X84.592 Y106.775 E15.50408
G1 X84.084 Y106.832 E15.52958
G1 X83.285 Y107.186 E15.57318
G1 X82.606 Y107.732 E15.61665
G1 X82.097 Y108.437 E15.66003
G1 X81.788 Y109.254 E15.70361
G1 X81.706 Y110.123 E15.74716
G1 X81.851 Y110.969 E15.78998
G1 X82.212 Y111.758 E15.83327
G1 X82.76 Y112.418 E15.87606
G1 X83.475 Y112.922 E15.91971
G1 X84.292 Y113.221 E15.96311
G1 X85.166 Y113.292 E16.00686
G1 X86.02 Y113.134 E16.05019
G1 X86.804 Y112.759 E16.09355
G1 X87.456 Y112.2 E16.13639
G1 X87.944 Y111.485 E16.17958
G1 X88.233 Y110.653 E16.22352
G1 X88.289 Y109.794 E16.26647
G1 X88.118 Y108.929 E16.31046
G1 X87.719 Y108.134 E16.35484
G1 X87.148 Y107.496 E16.39755
G1 X86.433 Y107.031 E16.44011
G1 X85.585 Y106.755 E16.4846
G1 X85.708 Y106.27 E16.50956
G1 X86.167 Y106.387 E16.53319
G1 X86.647 Y106.578 E16.55897
G1 X87.477 Y107.119 E16.60839
G1 X88.134 Y107.854 E16.65758
G1 X88.405 Y108.319 E16.68443
G1 X88.719 Y109.234 E16.73269
G1 X88.789 Y109.757 E16.75902
G1 X88.724 Y110.753 E16.80881
G1 X88.392 Y111.709 E16.8593
G1 X87.832 Y112.531 E16.90892
G1 X87.079 Y113.178 E16.95845
G1 X86.643 Y113.425 E16.98345
G1 X86.178 Y113.609 E17.0084
G1 X85.686 Y113.735 E17.03374
G1 X84.676 Y113.784 E17.08419
G1 X83.717 Y113.575 E17.13316
G1 X83.244 Y113.366 E17.15896
G1 X82.42 Y112.786 E17.20923
G1 X81.791 Y112.03 E17.25829
G1 X81.549 Y111.585 E17.28357
G1 X81.371 Y111.115 E17.30864
G1 X81.205 Y110.137 E17.35813
G1 X81.221 Y109.624 E17.38374
G1 X81.453 Y108.642 E17.43408
G1 X81.93 Y107.762 E17.48402
G1 X82.617 Y107.045 E17.53356
G1 X83.027 Y106.757 E17.55855
G1 X83.484 Y106.518 E17.58428
G1 X84.417 Y106.249 E17.63273
M104 S220
M204 S3000
G0 F12000 X84.427 Y106.3
;MESH:NONMESH
G0 F3000 X84.427 Y106.3 Z0.4
G0 F12000 X82.409 Y106.761
G0 X82.351 Y106.678
;TIME_ELAPSED:21.701343
;LAYER:1
M140 S60
M204 S1525
;TYPE:WALL-INNER
;MESH:Modifier_Cylinder.stl
G1 F1536.2 X82.8 Y106.366 E17.65091
G1 X83.313 Y106.1 E17.67013
G1 X83.823 Y105.917 E17.68815
G1 X84.38 Y105.797 E17.7071
G1 X85.225 Y105.758 E17.73524
G1 X85.783 Y105.824 E17.75393
G1 X86.315 Y105.96 E17.77219
G1 X86.84 Y106.171 E17.79101
G1 X87.335 Y106.45 E17.80991
G1 X87.779 Y106.785 E17.82841
G1 X88.176 Y107.177 E17.84696
G1 X88.528 Y107.632 E17.8661
G1 X88.804 Y108.107 E17.88437
G1 X89.022 Y108.634 E17.90334
G1 X89.166 Y109.164 E17.92161
G1 X89.24 Y109.733 E17.94069
G1 X89.239 Y110.277 E17.95878
G1 X89.161 Y110.86 E17.97835
G1 X89.018 Y111.38 E17.99628
G1 X88.798 Y111.905 E18.01522
G1 X88.513 Y112.39 E18.03393
G1 X88.174 Y112.824 E18.05224
G1 X87.772 Y113.22 E18.07101
G1 X87.319 Y113.561 E18.08987
G1 X86.827 Y113.835 E18.1086
G1 X86.306 Y114.042 E18.12725
G1 X85.754 Y114.182 E18.14619
G1 X85.205 Y114.243 E18.16456
G1 X84.629 Y114.233 E18.18372
G1 X84.087 Y114.15 E18.20196
G1 X83.535 Y113.988 E18.22109
G1 X83.034 Y113.766 E18.23932
G1 X82.552 Y113.474 E18.25806
G1 X82.118 Y113.122 E18.27665
G1 X81.73 Y112.713 E18.2954
G1 X81.401 Y112.258 E18.31407
G1 X81.136 Y111.767 E18.33263
G1 X80.935 Y111.235 E18.35155
G1 X80.808 Y110.694 E18.37003
G1 X80.754 Y110.139 E18.38858
G1 X80.773 Y109.576 E18.40731
G1 X80.868 Y109.012 E18.42633
G1 X81.037 Y108.468 E18.44528
G1 X81.262 Y107.98 E18.46315
G1 X81.569 Y107.495 E18.48225
G1 X81.931 Y107.061 E18.50104
G1 X82.351 Y106.678 E18.51995
M204 S3000
G0 F14970 X82.413 Y106.756
G0 X84.392 Y105.896
G0 X84.312 Y105.3
M204 S1525
;TYPE:WALL-OUTER
G1 F1536.2 X85.249 Y105.257 E18.55115
G1 X85.868 Y105.33 E18.57188
G1 X86.475 Y105.485 E18.59271
G1 X87.056 Y105.719 E18.61355
G1 X87.608 Y106.03 E18.63462
G1 X88.107 Y106.407 E18.65542
G1 X88.549 Y106.843 E18.67607
G1 X88.943 Y107.352 E18.69748
G1 X89.254 Y107.887 E18.71806
G1 X89.498 Y108.476 E18.73926
G1 X89.657 Y109.064 E18.75952
G1 X89.74 Y109.699 E18.78082
G1 X89.739 Y110.315 E18.80131
G1 X89.653 Y110.954 E18.82276
