;FLAVOR:Marlin
;TIME:1294
;Filament used: 1.63941m
;Layer height: 0.16
;MINX:50.758
;MINY:92.251
;MINZ:0.24
;MAXX:113.328
;MAXY:127.75
;MAXZ:39.28
;Generated with Cura_SteamEngine mb-master-20210130
M82 ;absolute extrusion mode
M104 S220
M140 S0
M105
G28 ;Home
G1 Z16.0 F6000 ;Move the platform down 16mm
M109 S220
G92 E0 ;absolute position is set above
G92 E0 ;reset back to 0
G92 E0
G92 E0
G1 F12000 E-0.2
;LAYER_COUNT:246
;LAYER:0
M107
M204 S3000
G0 X55.917 Y94.056 Z0.24
M204 S200
;TYPE:SKIRT
G1 F12000 E0
G1  F15000 X56.451 Y93.739 E0.03098
G1 X57.474 Y93.218 E0.08826 F15000
G1 X58.317 Y92.887 E0.13344 F15000
G1 X59.161 Y92.639 E0.17733 F15000
G1 X60.335 Y92.389 E0.23721 F15000
G1 X61.572 Y92.272 E0.2992 F15000
G1 X62.363 Y92.251 E0.33868 F15000
G1 X97.863 Y92.251 E2.10978 F15000
G1 X98.622 Y92.256 E2.14765 F15000
G1 X99.516 Y92.273 E2.19226 F15000
G1 X100.373 Y92.301 E2.23504 F15000
G1 X101.249 Y92.342 E2.27879 F15000
G1 X102.08 Y92.394 E2.32033 F15000
G1 X102.694 Y92.441 E2.35105 F15000
G1 X103.368 Y92.504 E2.38482 F15000
G1 X103.892 Y92.563 E2.41113 F15000
G1 X104.504 Y92.645 E2.44194 F15000
G1 X105.394 Y92.811 E2.48711 F15000
G1 X106.266 Y93.054 E2.53227 F15000
G1 X107.113 Y93.373 E2.57742 F15000
G1 X107.929 Y93.766 E2.62261 F15000
G1 X108.707 Y94.229 E2.66778 F15000
G1 X109.441 Y94.759 E2.71294 F15000
G1 X110.125 Y95.351 E2.75807 F15000
G1 X110.755 Y96.002 E2.80327 F15000
G1 X111.324 Y96.706 E2.84843 F15000
G1 X111.83 Y97.457 E2.89361 F15000
G1 X112.267 Y98.25 E2.93878 F15000
G1 X112.632 Y99.078 E2.98393 F15000
G1 X112.923 Y99.936 E3.02913 F15000
G1 X113.137 Y100.815 E3.07426 F15000
G1 X113.272 Y101.71 E3.11942 F15000
G1 X113.328 Y102.614 E3.16461 F15000
G1 X113.309 Y103.458 E3.20672 F15000
G1 X113.272 Y104.025 E3.23507 F15000
G1 X113.133 Y106.724 E3.3699 F15000
G1 X113.077 Y109.213 E3.49411 F15000
G1 X113.09 Y111.778 E3.62208 F15000
G1 X113.176 Y114.291 E3.74753 F15000
G1 X113.272 Y115.824 E3.82416 F15000
G1 X113.316 Y116.681 E3.86697 F15000
G1 X113.322 Y117.586 E3.91213 F15000
G1 X113.248 Y118.488 E3.95728 F15000
G1 X113.094 Y119.381 E4.00249 F15000
G1 X112.863 Y120.256 E4.04764 F15000
G1 X112.555 Y121.107 E4.09279 F15000
G1 X112.173 Y121.928 E4.13797 F15000
G1 X111.72 Y122.712 E4.18314 F15000
G1 X111.2 Y123.453 E4.2283 F15000
G1 X110.616 Y124.145 E4.27348 F15000
G1 X109.974 Y124.783 E4.31863 F15000
G1 X109.278 Y125.362 E4.3638 F15000
G1 X108.534 Y125.877 E4.40894 F15000
G1 X107.747 Y126.325 E4.45412 F15000
G1 X106.923 Y126.701 E4.49931 F15000
G1 X106.07 Y127.003 E4.54446 F15000
G1 X105.193 Y127.229 E4.58964 F15000
G1 X104.572 Y127.34 E4.62111 F15000
G1 X103.773 Y127.45 E4.66135 F15000
G1 X103.252 Y127.507 E4.6875 F15000
G1 X102.267 Y127.591 E4.73682 F15000
G1 X101.342 Y127.652 E4.78307 F15000
G1 X100.731 Y127.683 E4.81359 F15000
G1 X100.09 Y127.709 E4.8456 F15000
G1 X99.252 Y127.733 E4.88742 F15000
G1 X98.371 Y127.746 E4.93138 F15000
G1 X97.53 Y127.75 E4.97334 F15000
G1 X62.664 Y127.75 E6.71281 F15000
G1 X61.813 Y127.739 E6.75527 F15000
G1 X60.909 Y127.686 E6.80045 F15000
G1 X60.013 Y127.554 E6.84563 F15000
G1 X59.459 Y127.431 E6.87394 F15000
G1 X58.23 Y127.08 E6.93771 F15000
G1 X57.389 Y126.746 E6.98286 F15000
G1 X56.58 Y126.338 E7.02806 F15000
G1 X56.114 Y126.06 E7.05513 F15000
G1 X55.153 Y125.404 E7.11318 F15000
G1 X54.459 Y124.823 E7.15834 F15000
G1 X53.66 Y124.006 E7.21535 F15000
G1 X52.887 Y123.061 E7.27626 F15000
G1 X52.387 Y122.306 E7.32144 F15000
G1 X51.8 Y121.178 E7.38488 F15000
G1 X51.368 Y120.105 E7.44258 F15000
G1 X51.026 Y118.849 E7.50753 F15000
G1 X50.841 Y117.745 E7.56337 F15000
G1 X50.777 Y116.766 E7.61232 F15000
G1 X50.76 Y115.814 E7.65982 F15000
G1 X50.758 Y104.18 E8.24025 F15000
G1 X50.77 Y103.299 E8.2842 F15000
G1 X50.824 Y102.395 E8.32939 F15000
G1 X50.957 Y101.5 E8.37453 F15000
G1 X51.083 Y100.937 E8.40331 F15000
G1 X51.439 Y99.695 E8.46777 F15000
G1 X51.775 Y98.854 E8.51295 F15000
G1 X52.413 Y97.661 E8.58045 F15000
G1 X53.057 Y96.703 E8.63804 F15000
G1 X53.714 Y95.915 E8.68922 F15000
G1 X54.335 Y95.294 E8.73304 F15000
G1 X55.176 Y94.575 E8.78824 F15000
G1 X55.917 Y94.056 E8.83337 F15000
M204 S3000
G1 F12000 E8.63337
;MESH:RR_Uberhangtest.stl
G0 X61.858 Y103.047
G0 X61.941 Y103.279
M204 S50
;TYPE:WALL-INNER
G1 F12000 E8.83337
G1  F15000 X62.014 Y103.279 E8.83702
G1 X95.495 Y103.253 E10.50739 F15000
G1 X98.129 Y103.251 E10.6388 F15000
G1 X95.543 Y103.748 E10.7041 F15000
G1 X71.343 Y108.403 E11.93357 F15000
G1 X70.744 Y108.69 E11.96671 F15000
G1 X70.237 Y109.356 E12.00847 F15000
G1 X70.116 Y110.124 E12.04726 F15000
G1 X70.312 Y110.79 E12.08189 F15000
G1 X70.756 Y111.316 E12.11623 F15000
G1 X71.39 Y111.607 E12.15104 F15000
G1 X95.55 Y116.253 E13.37847 F15000
G1 X98.125 Y116.748 E13.50929 F15000
G1 X95.503 Y116.748 E13.57417 F15000
G1 X62.058 Y116.75 E15.24275 F15000
G1 X61.795 Y116.575 E15.25851 F15000
G1 X61.758 Y103.655 E15.90309 F15000
G1 X61.758 Y103.582 E15.90673 F15000
G1 X61.816 Y103.381 E15.91717 F15000
G1 X61.941 Y103.279 E15.92522 F15000
M204 S3000
G0 F12000 X61.378 Y103.092
M204 S50
;TYPE:WALL-OUTER
G1  F15000 X61.737 Y102.801 E15.94828
G1 X62.138 Y102.75 E15.96844 F15000
G1 X98.179 Y102.751 E17.76654 F15000
G1 X98.931 Y102.761 E17.80406 F15000
G1 X99.67 Y102.781 E17.84094 F15000
G1 X100.202 Y102.803 E17.8675 F15000
G1 X100.388 Y102.81 E17.87679 F15000
G1 X100.477 Y102.815 E17.88124 F15000
G1 X101.081 Y102.849 E17.91142 F15000
G1 X101.156 Y102.854 E17.91517 F15000
G1 X101.721 Y102.894 E17.94343 F15000
G1 X101.14 Y103.085 E17.95172 F15000
G1 X100.453 Y103.255 E17.97693 F15000
G1 X100.272 Y103.297 E17.98566 F15000
G1 X99.772 Y103.415 E18.01129 F15000
G1 X99.028 Y103.577 E18.04928 F15000
G1 X98.285 Y103.73 E18.08712 F15000
G1 X71.501 Y108.882 E19.44788 F15000
G1 X71.069 Y109.089 E19.47178 F15000
G1 X70.711 Y109.559 E19.50125 F15000
G1 X70.627 Y110.091 E19.52812 F15000
G1 X70.762 Y110.548 E19.5519 F15000
G1 X71.066 Y110.908 E19.57541 F15000
G1 X71.544 Y111.127 E19.60164 F15000
G1 X98.298 Y116.272 E20.96086 F15000
G1 X99.016 Y116.42 E20.99743 F15000
G1 X99.762 Y116.584 E21.03554 F15000
G1 X100.272 Y116.704 E21.06168 F15000
G1 X100.464 Y116.748 E21.0715 F15000
G1 X101.121 Y116.91 E21.10526 F15000
G1 X101.774 Y117.083 E21.13897 F15000
G1 X101.818 Y117.096 E21.14125 F15000
G1 X101.139 Y117.146 E21.15179 F15000
G1 X101.08 Y117.151 E21.15475 F15000
G1 X100.488 Y117.183 E21.17433 F15000
G1 X100.387 Y117.189 E21.17937 F15000
G1 X100.19 Y117.196 E21.18859 F15000
G1 X99.292 Y117.23 E21.23343 F15000
G1 X98.545 Y117.245 E21.2707 F15000
G1 X97.79 Y117.25 E21.30837 F15000
G1 X61.963 Y117.25 E23.09579 F15000
G1 X61.539 Y117.084 E23.1185 F15000
G1 X61.295 Y116.733 E23.13983 F15000
G1 X61.258 Y103.512 E23.79943 F15000
G1 X61.378 Y103.092 E23.82122 F15000
M204 S3000
G0 F12000 X61.68 Y103.292
G0 X62.208 Y103.729
M104 S220
M204 S100
;TYPE:SKIN
G1  F15000 X93.39 Y103.705 E25.3769
G1 X71.201 Y107.972 E26.5042 F15000
G1 X70.452 Y108.331 E26.54563 F15000
G1 X70.127 Y107.932 E26.57131 F15000
G1 X69.656 Y107.725 E26.59698 F15000
G1 X68.862 Y108.768 E26.66237 F15000
G1 X68.633 Y110.22 E26.73571 F15000
G1 X69.007 Y111.492 E26.80186 F15000
G1 X69.857 Y112.499 E26.8676 F15000
G1 X70.943 Y112.999 E26.92725 F15000
G1 X82.908 Y115.298 E27.5351 F15000
G1 X63.242 Y115.3 E28.51624 F15000
G1 X63.211 Y104.729 E29.04364 F15000
G1 X82.851 Y104.713 E30.02348 F15000
G1 X70.885 Y107.014 E30.6314 F15000
G1 X70.7 Y107.103 E30.64165 F15000
G1 X70.859 Y106.51 E30.67228 F15000
G1 X70.569 Y106.056 E30.69915 F15000
G1 X69.152 Y106.735 E30.77754 F15000
G1 X67.914 Y108.364 E30.87962 F15000
G1 X67.611 Y110.286 E30.97669 F15000
G1 X68.107 Y111.976 E31.06457 F15000
G1 X69.237 Y113.315 E31.15198 F15000
G1 X70.635 Y113.959 E31.22877 F15000
G1 X72.407 Y114.299 E31.31879 F15000
G1 X64.239 Y114.3 E31.72629 F15000
G1 X64.214 Y105.729 E32.1539 F15000
G1 X68.564 Y105.724 E32.37092 F15000
G1 X68.564 Y106.225 E32.39592 F15000
G1 X67.903 Y106.225 E32.4289 F15000
G1 X67.903 Y106.726 E32.45389 F15000
G1 X66.966 Y107.96 E32.53119 F15000
G1 X66.589 Y110.352 E32.652 F15000
G1 X67.207 Y112.46 E32.7616 F15000
G1 X67.915 Y113.299 E32.81637 F15000
G1 X65.236 Y113.3 E32.95002 F15000
G1 X65.217 Y106.729 E33.27785 F15000
G1 X65.718 Y106.728 E33.30285 F15000
G1 X65.718 Y107.228 E33.32779 F15000
G1 X65.735 Y112.8 E33.60578 F15000
G1 X66.839 Y112.799 E33.66086 F15000
G1 X66.757 Y112.702 E33.6672 F15000
G1 X66.078 Y110.385 E33.78765 F15000
G1 X66.492 Y107.758 E33.92033 F15000
G1 X66.895 Y107.227 E33.95359 F15000
G1 X66.213 Y107.228 E33.98762 F15000
G1 X66.213 Y106.728 E34.01256 F15000
G1 X67.408 Y106.726 E34.07218 F15000
G1 X67.408 Y106.225 E34.09718 F15000
G1 X64.715 Y106.229 E34.23153 F15000
G1 X64.738 Y113.8 E34.60925 F15000
G1 X69.093 Y113.799 E34.82652 F15000
G1 X68.927 Y113.723 E34.83563 F15000
G1 X67.657 Y112.218 E34.93388 F15000
G1 X67.1 Y110.319 E35.03261 F15000
G1 X67.44 Y108.162 E35.14155 F15000
G1 X68.827 Y106.336 E35.25595 F15000
G1 X69.059 Y106.225 E35.26878 F15000
G1 X69.059 Y105.724 E35.29378 F15000
G1 X72.308 Y105.722 E35.45587 F15000
G1 X71.091 Y105.956 E35.5177 F15000
G1 X71.382 Y106.41 E35.5446 F15000
G1 X77.58 Y105.217 E35.8595 F15000
G1 X63.712 Y105.229 E36.55138 F15000
G1 X63.741 Y114.8 E37.02888 F15000
G1 X77.658 Y114.799 E37.7232 F15000
G1 X70.789 Y113.479 E38.07217 F15000
G1 X69.547 Y112.907 E38.14038 F15000
G1 X68.557 Y111.734 E38.21696 F15000
G1 X68.122 Y110.253 E38.29397 F15000
G1 X68.388 Y108.566 E38.37918 F15000
G1 X69.477 Y107.134 E38.46893 F15000
G1 X70.283 Y106.748 E38.51352 F15000
G1 X70.112 Y107.385 E38.54642 F15000
G1 X70.715 Y107.651 E38.5793 F15000
G1 X71.043 Y107.493 E38.59747 F15000
G1 X88.121 Y104.209 E39.4651 F15000
G1 X62.709 Y104.229 E40.73291 F15000
G1 X62.744 Y115.8 E41.31019 F15000
G1 X88.156 Y115.798 E42.578 F15000
G1 X71.097 Y112.519 E43.44466 F15000
G1 X70.167 Y112.091 E43.49573 F15000
G1 X69.457 Y111.25 E43.55065 F15000
G1 X69.144 Y110.187 E43.60593 F15000
G1 X69.336 Y108.971 E43.66735 F15000
G1 X69.819 Y108.337 E43.70711 F15000
G1 X70.144 Y108.736 E43.73279 F15000
G1 X69.81 Y109.174 E43.76027 F15000
G1 X69.655 Y110.154 E43.80977 F15000
G1 X69.907 Y111.008 E43.85419 F15000
G1 X70.477 Y111.683 E43.89827 F15000
G1 X71.251 Y112.039 E43.94077 F15000
G1 X93.404 Y116.298 E45.06623 F15000
G1 X62.245 Y116.3 E46.62076 F15000
G1 X62.208 Y103.729 E47.24793 F15000
M204 S3000
;MESH:NONMESH
G0 F3000 X62.208 Y103.729 Z0.4
G0 F12000 X61.917 Y103.299
;TIME_ELAPSED:52.531940
;LAYER:1
M140 S60
M204 S1525
;TYPE:WALL-INNER
;MESH:RR_Uberhangtest.stl
G1  F15000 X62.005 Y103.299 E47.25085
G1 X95.482 Y103.252 E48.36431 F14999
G1 X96.591 Y103.251 E48.40119 F15000
G1 X97.334 Y103.262 E48.42591 F15000
G1 X97.868 Y103.276 E48.44367 F15000
G1 X97.363 Y103.388 E48.44586 F15000
G1 X96.614 Y103.541 E48.45687 F75524
G1 X95.525 Y103.75 E48.48597 F60115
G1 X71.345 Y108.402 E49.30495 F15000
G1 X70.749 Y108.688 E49.32693 F15000
G1 X70.243 Y109.345 E49.35451 F15000
G1 X70.112 Y110.054 E49.3785 F15000
G1 X70.312 Y110.798 E49.40412 F15000
G1 X70.873 Y111.398 E49.43144 F15000
G1 X71.406 Y111.609 E49.45051 F15000
G1 X95.572 Y116.258 E50.26901 F15000
G1 X96.256 Y116.389 E50.29217 F15000
G1 X96.618 Y116.459 E50.30444 F15000
G1 X96.978 Y116.533 E50.31666 F15000
G1 X97.321 Y116.604 E50.32831 F15000
G1 X97.871 Y116.724 E50.34703 F15000
G1 X97.324 Y116.736 E50.34938 F15000
G1 X96.935 Y116.745 E50.35467 F90105
G1 X96.62 Y116.747 E50.35989 F72930
G1 X96.187 Y116.75 E50.37 F70827
G1 X95.49 Y116.75 E50.38994 F57806
G1 X62.059 Y116.75 E51.50186 F15000
G1 X61.795 Y116.578 E51.51234 F14999
G1 X61.758 Y103.669 E51.94169 F14999
G1 X61.758 Y103.581 E51.94462 F15000
G1 X61.917 Y103.299 E51.95539 F23349
M204 S3000
G0 F14970 X61.742 Y102.799
M204 S1525
;TYPE:WALL-OUTER
G1  F15107 X96.597 Y102.751 E53.11467
G1 X97.348 Y102.762 E53.13965 F15085
G1 X98.088 Y102.782 E53.16427 F15039
G1 X99.156 Y102.829 E53.19983 F15000
G1 X99.608 Y102.858 E53.21489 F15000
G1 X99.798 Y102.87 E53.22123 F15000
G1 X100.192 Y102.903 E53.23438 F15000
G1 X100.757 Y102.952 E53.25324 F14999
G1 X101.016 Y102.98 E53.2619 F15000
G1 X100.785 Y103.047 E53.26264 F132000
G1 X100.165 Y103.227 E53.27284 F74467
G1 X99.91 Y103.294 E53.27932 F52040
G1 X99.725 Y103.342 E53.28528 F71581
G1 X99.531 Y103.394 E53.29196 F15000
G1 X98.881 Y103.556 E53.31424 F15000
G1 X98.858 Y103.561 E53.31502 F132000
G1 X98.15 Y103.726 E53.3392 F28160
G1 X97.464 Y103.877 E53.36256 F15000
G1 X96.715 Y104.031 E53.38799 F15000
G1 X71.503 Y108.881 E54.24192 F15064
G1 X71.073 Y109.087 E54.25778 F15078
G1 X70.713 Y109.555 E54.27742 F15068
G1 X70.624 Y110.034 E54.29362 F15067
G1 X70.762 Y110.548 E54.31132 F15066
G1 X71.161 Y110.974 E54.33074 F15067
G1 X71.547 Y111.127 E54.34455 F15064
G1 X96.719 Y115.969 E55.19712 F15087
G1 X97.427 Y116.115 E55.22116 F15130
G1 X98.144 Y116.271 E55.24557 F15030
G1 X98.179 Y116.28 E55.24677 F132000
G1 X98.882 Y116.445 E55.27079 F22357
G1 X99.53 Y116.605 E55.29299 F15000
G1 X99.729 Y116.658 E55.29984 F15000
G1 X99.912 Y116.706 E55.30613 F15000
G1 X100.19 Y116.78 E55.3157 F15000
G1 X100.492 Y116.866 E55.32614 F15000
G1 X100.786 Y116.95 E55.33631 F14999
G1 X101.019 Y117.02 E55.3444 F15000
G1 X100.796 Y117.042 E55.34505 F132000
G1 X100.432 Y117.079 E55.35008 F87288
G1 X100.216 Y117.096 E55.35382 F81912
G1 X99.8 Y117.13 E55.36513 F69471
G1 X99.611 Y117.142 E55.37104 F47934
G1 X99.131 Y117.173 E55.38704 F15000
G1 X98.422 Y117.206 E55.41064 F14999
G1 X97.692 Y117.23 E55.43494 F15000
G1 X96.945 Y117.245 E55.45979 F15000
G1 X96.19 Y117.25 E55.4849 F15000
G1 X61.964 Y117.25 E56.62326 F15060
G1 X61.531 Y117.079 E56.63874 F15000
G1 X61.295 Y116.733 E56.65267 F15000
G1 X61.258 Y103.512 E57.09241 F15065
G1 X61.381 Y103.088 E57.10709 F15000
G1 X61.742 Y102.799 E57.12247 F15048
M204 S3000
G1 F12000 E56.92247
G0 F14970 X61.822 Y103.135
G0 X62.244 Y116.3
M204 S1550
;TYPE:SKIN
G1 F12000 E57.12247
G1  F15517 X93.413 Y116.3 E58.15916
G1 X91.854 Y116 E58.21196 F15352
G1 X62.243 Y116 E59.19683 F21076
G1 X62.241 Y115.5 E59.21346 F15243
G1 X89.254 Y115.5 E60.11191 F23376
G1 X86.655 Y115 E60.19994 F15131
G1 X62.24 Y115 E61.01199 F24715
G1 X62.238 Y114.5 E61.02862 F15069
G1 X84.055 Y114.5 E61.75425 F24916
G1 X81.455 Y114 E61.84231 F15210
G1 X62.237 Y114 E62.48151 F26727
G1 X62.235 Y113.5 E62.49814 F15041
G1 X78.856 Y113.5 E63.05095 F26943
G1 X76.256 Y113 E63.13901 F15281
G1 X62.234 Y113 E63.60539 F29133
G1 X62.232 Y112.5 E63.62202 F15043
G1 X73.657 Y112.5 E64.00202 F29576
G1 X71.28 Y112.043 E64.08252 F15351
G1 X71.172 Y112 E64.08639 F15000
G1 X62.231 Y112 E64.38377 F34118
G1 X62.229 Y111.5 E64.4004 F15060
G1 X70.354 Y111.5 E64.67064 F34669
G1 X69.907 Y111.023 E64.69238 F15000
G1 X69.901 Y111 E64.69317 F132000
G1 X62.228 Y111 E64.94838 F37278
G1 X62.226 Y110.5 E64.96501 F15086
G1 X69.767 Y110.5 E65.21582 F43364
G1 X69.651 Y110.072 E65.23057 F15011
G1 X69.664 Y110 E65.233 F15000
G1 X62.225 Y110 E65.48042 F32235
G1 X62.223 Y109.5 E65.49705 F15144
G1 X69.756 Y109.5 E65.7476 F43094
G1 X69.82 Y109.156 E65.75924 F15000
G1 X69.94 Y109 E65.76579 F15000
G1 X62.222 Y109 E66.02249 F32069
G1 X62.221 Y108.5 E66.03912 F15156
G1 X70.325 Y108.5 E66.30866 F42377
G1 X70.458 Y108.328 E66.31589 F15222
G1 X71.142 Y108 E66.34112 F15000
G1 X62.219 Y108 E66.6379 F29721
G1 X62.218 Y107.5 E66.65453 F15131
G1 X73.652 Y107.5 E67.03483 F32222
G1 X76.252 Y107 E67.12289 F15019
G1 X62.216 Y107 E67.58973 F31089
G1 X62.215 Y106.5 E67.60636 F15099
G1 X78.852 Y106.5 E68.15971 F28218
G1 X81.452 Y106 E68.24777 F15234
G1 X62.213 Y106 E68.88766 F27933
G1 X62.212 Y105.5 E68.90429 F15062
G1 X84.053 Y105.5 E69.63072 F26155
G1 X86.653 Y105 E69.71879 F15286
G1 X62.21 Y105 E70.53176 F26024
G1 X62.209 Y104.5 E70.54839 F15037
G1 X89.253 Y104.5 E71.44788 F24354
G1 X91.853 Y104 E71.53594 F15231
G1 X62.207 Y104 E72.52197 F24270
G1 X62.207 Y103.749 E72.53032 F15023
G1 X93.382 Y103.706 E73.5672 F21615
G1 X92.171 Y103.939 E73.60822 F15381
M204 S3000
G1 F12000 E73.40822
;MESH:NONMESH
G0 F3000 X92.171 Y103.939 Z0.56
G0 F14970 X61.928 Y103.291
;TIME_ELAPSED:64.012861
;LAYER:2
;TYPE:WALL-INNER
;MESH:RR_Uberhangtest.stl
G1 F12000 E73.60822
