;FLAVOR:Marlin
;TIME:165
;Filament used: 0.357955m
;Layer height: 0.16
;MINX:69.264
;MINY:94.263
;MINZ:0.24
;MAXX:100.735
;MAXY:125.732
;MAXZ:19.92
;Generated with Cura_SteamEngine mb-master-20210130
M82 ;absolute extrusion mode
M104 S220
M140 S0
M105
G28 ;Home
G1 Z16.0 F6000 ;Move the platform down 16mm
M109 S220
G92 E0 ;absolute position is set above
G92 E0 ;reset back to 0
G92 E0
G92 E0
G1 F12000 E-0.2
;LAYER_COUNT:124
;LAYER:0
M107
M204 S3000
G0 X75.413 Y97.526 Z0.24
M204 S200
;TYPE:SKIRT
G1 F12000 E0
G1 F1200 X75.995 Y97.099 E0.03601
G1 X76.275 Y96.908 E0.05292
G1 X76.881 Y96.524 E0.08871
G1 X77.158 Y96.361 E0.10475
G1 X77.79 Y96.017 E0.14065
G1 X78.111 Y95.856 E0.15856
G1 X78.731 Y95.57 E0.19263
G1 X78.976 Y95.466 E0.20591
G1 X79.683 Y95.194 E0.2437
G1 X80.073 Y95.06 E0.26427
G1 X80.703 Y94.865 E0.29718
G1 X80.931 Y94.802 E0.30898
G1 X81.638 Y94.632 E0.34525
G1 X82.019 Y94.554 E0.36466
G1 X82.737 Y94.433 E0.40098
G1 X83.063 Y94.389 E0.4174
G1 X83.769 Y94.317 E0.4528
G1 X84.194 Y94.288 E0.47405
G1 X84.994 Y94.263 E0.51398
G1 X85.308 Y94.265 E0.52965
G1 X86.487 Y94.338 E0.58858
G1 X87.035 Y94.402 E0.61611
G1 X87.901 Y94.539 E0.65985
G1 X88.31 Y94.621 E0.68066
G1 X88.964 Y94.773 E0.71416
G1 X89.163 Y94.826 E0.72443
G1 X89.813 Y95.022 E0.75831
G1 X90.162 Y95.139 E0.77667
G1 X90.906 Y95.419 E0.81633
G1 X91.23 Y95.555 E0.83386
G1 X91.832 Y95.83 E0.86688
G1 X92.182 Y96.003 E0.88636
G1 X93.279 Y96.627 E0.94932
G1 X93.845 Y96.995 E0.983
G1 X94.911 Y97.787 E1.04926
G1 X95.33 Y98.14 E1.07659
G1 X96.03 Y98.784 E1.12405
G1 X96.343 Y99.099 E1.1462
G1 X97.185 Y100.054 E1.20972
G1 X97.551 Y100.522 E1.23936
G1 X98.082 Y101.263 E1.28484
G1 X98.28 Y101.566 E1.3029
G1 X98.89 Y102.627 E1.36396
G1 X99.208 Y103.261 E1.39934
G1 X99.745 Y104.527 E1.46795
G1 X99.945 Y105.098 E1.49814
G1 X100.204 Y105.951 E1.54261
G1 X100.285 Y106.263 E1.55869
G1 X100.437 Y106.936 E1.59312
G1 X100.476 Y107.139 E1.60343
G1 X100.593 Y107.893 E1.6415
G1 X100.635 Y108.245 E1.65918
G1 X100.696 Y108.955 E1.69473
G1 X100.721 Y109.431 E1.71851
G1 X100.735 Y110.121 E1.75295
G1 X100.732 Y110.377 E1.76572
G1 X100.708 Y110.986 E1.79613
G1 X100.693 Y111.205 E1.80708
G1 X100.605 Y112.024 E1.84817
G1 X100.553 Y112.38 E1.86612
G1 X100.42 Y113.112 E1.90324
G1 X100.321 Y113.567 E1.92647
G1 X100.191 Y114.098 E1.95374
G1 X100.15 Y114.249 E1.96155
G1 X99.889 Y115.078 E2.00491
G1 X99.708 Y115.58 E2.03153
G1 X99.207 Y116.748 E2.09494
G1 X98.923 Y117.315 E2.12658
G1 X98.543 Y118.009 E2.16605
G1 X98.435 Y118.19 E2.17657
G1 X98.021 Y118.83 E2.2146
G1 X97.8 Y119.147 E2.23387
G1 X97.346 Y119.753 E2.27165
G1 X97.153 Y119.992 E2.28698
G1 X96.717 Y120.498 E2.3203
G1 X96.489 Y120.747 E2.33714
G1 X96.005 Y121.243 E2.37172
G1 X95.781 Y121.458 E2.38721
G1 X95.26 Y121.926 E2.42215
G1 X94.982 Y122.16 E2.44028
G1 X94.407 Y122.612 E2.47677
G1 X94.202 Y122.762 E2.48944
G1 X93.453 Y123.263 E2.5344
G1 X92.899 Y123.601 E2.56677
G1 X91.782 Y124.195 E2.62989
G1 X91.431 Y124.356 E2.64916
G1 X90.819 Y124.614 E2.68229
G1 X90.464 Y124.751 E2.70128
G1 X89.734 Y125.003 E2.7398
G1 X89.436 Y125.094 E2.75535
G1 X88.867 Y125.251 E2.7848
G1 X88.664 Y125.301 E2.79523
G1 X87.897 Y125.461 E2.83432
G1 X87.427 Y125.541 E2.8581
G1 X86.709 Y125.638 E2.89425
G1 X86.394 Y125.67 E2.91005
G1 X85.692 Y125.718 E2.94515
G1 X85.384 Y125.729 E2.96053
G1 X84.699 Y125.732 E2.9947
G1 X84.485 Y125.726 E3.00538
G1 X83.785 Y125.683 E3.04037
G1 X83.325 Y125.64 E3.06342
G1 X82.592 Y125.546 E3.10029
G1 X82.225 Y125.486 E3.11884
G1 X81.501 Y125.342 E3.15567
G1 X81.352 Y125.307 E3.16331
G1 X80.698 Y125.132 E3.19708
G1 X80.255 Y124.998 E3.22017
G1 X79.564 Y124.763 E3.25659
G1 X79.252 Y124.645 E3.27323
G1 X78.598 Y124.372 E3.30859
G1 X78.35 Y124.259 E3.32218
G1 X77.705 Y123.939 E3.3581
G1 X77.399 Y123.774 E3.37545
G1 X76.813 Y123.434 E3.40925
G1 X76.542 Y123.265 E3.42518
G1 X75.929 Y122.853 E3.46203
G1 X75.6 Y122.615 E3.48229
G1 X74.679 Y121.868 E3.54145
G1 X74.228 Y121.459 E3.57183
G1 X73.566 Y120.804 E3.61829
G1 X73.325 Y120.544 E3.63597
G1 X72.85 Y119.996 E3.67216
G1 X72.702 Y119.813 E3.6839
G1 X72.288 Y119.265 E3.71816
G1 X72.026 Y118.895 E3.74078
G1 X71.602 Y118.248 E3.77937
G1 X71.484 Y118.053 E3.79075
G1 X71.16 Y117.479 E3.82363
G1 X70.987 Y117.149 E3.84222
G1 X70.68 Y116.514 E3.87741
G1 X70.559 Y116.241 E3.8923
G1 X70.282 Y115.553 E3.92931
G1 X70.131 Y115.137 E3.95139
G1 X69.924 Y114.507 E3.98447
G1 X69.853 Y114.266 E3.997
G1 X69.574 Y113.073 E4.05813
G1 X69.454 Y112.384 E4.09302
G1 X69.333 Y111.44 E4.1405
G1 X69.306 Y111.119 E4.15657
G1 X69.27 Y110.427 E4.19114
G1 X69.264 Y110.118 E4.20656
G1 X69.268 Y109.561 E4.23435
G1 X69.275 Y109.345 E4.24514
G1 X69.338 Y108.477 E4.28855
G1 X69.379 Y108.117 E4.30663
G1 X69.481 Y107.423 E4.34163
G1 X69.559 Y106.991 E4.36353
G1 X69.719 Y106.255 E4.4011
G1 X69.783 Y106.003 E4.41408
G1 X69.958 Y105.388 E4.44598
G1 X70.057 Y105.077 E4.46226
G1 X70.31 Y104.371 E4.49967
G1 X70.447 Y104.026 E4.51819
G1 X70.734 Y103.368 E4.55401
G1 X70.866 Y103.091 E4.56932
G1 X71.207 Y102.435 E4.6062
G1 X71.392 Y102.107 E4.62499
G1 X71.74 Y101.533 E4.65848
G1 X71.866 Y101.339 E4.67002
G1 X72.25 Y100.786 E4.70361
G1 X72.495 Y100.456 E4.72411
G1 X72.947 Y99.888 E4.76033
G1 X73.121 Y99.684 E4.77371
G1 X73.621 Y99.137 E4.81068
G1 X73.909 Y98.843 E4.83121
G1 X74.42 Y98.355 E4.86646
G1 X74.61 Y98.185 E4.87918
G1 X75.138 Y97.742 E4.91357
G1 X75.413 Y97.526 E4.93101
M204 S3000
G0 F12000 X75.722 Y97.919
M204 S200
G1 F1200 X76.277 Y97.512 E4.96535
G1 X76.557 Y97.321 E4.98226
G1 X77.135 Y96.955 E5.01639
G1 X77.412 Y96.792 E5.03243
G1 X78.015 Y96.464 E5.06667
G1 X78.336 Y96.303 E5.08459
G1 X78.926 Y96.03 E5.11702
G1 X79.171 Y95.926 E5.1303
G1 X79.845 Y95.667 E5.16633
G1 X80.235 Y95.533 E5.1869
G1 X80.836 Y95.347 E5.21829
G1 X81.064 Y95.284 E5.23009
G1 X81.738 Y95.122 E5.26467
G1 X82.119 Y95.044 E5.28407
G1 X82.804 Y94.928 E5.31873
G1 X83.13 Y94.884 E5.33515
G1 X83.803 Y94.816 E5.36889
G1 X84.228 Y94.787 E5.39015
G1 X84.991 Y94.763 E5.42823
G1 X85.305 Y94.765 E5.4439
G1 X86.429 Y94.834 E5.50008
G1 X86.977 Y94.898 E5.5276
G1 X87.803 Y95.029 E5.56933
G1 X88.212 Y95.111 E5.59014
G1 X88.835 Y95.256 E5.62205
G1 X89.034 Y95.309 E5.63233
G1 X89.654 Y95.496 E5.66464
G1 X90.003 Y95.613 E5.683
G1 X90.712 Y95.88 E5.7208
G1 X91.036 Y96.016 E5.73833
G1 X91.611 Y96.278 E5.76985
G1 X91.961 Y96.451 E5.78933
G1 X93.006 Y97.047 E5.84935
G1 X93.572 Y97.415 E5.88303
G1 X94.589 Y98.169 E5.94619
G1 X95.008 Y98.522 E5.97353
G1 X95.675 Y99.136 E6.01876
G1 X95.988 Y99.451 E6.04091
G1 X96.791 Y100.362 E6.1015
G1 X97.157 Y100.83 E6.13114
G1 X97.663 Y101.537 E6.17451
G1 X97.861 Y101.84 E6.19257
G1 X98.443 Y102.852 E6.25081
G1 X98.761 Y103.486 E6.2862
G1 X99.273 Y104.693 E6.35161
G1 X99.473 Y105.264 E6.38179
G1 X99.72 Y106.076 E6.42414
G1 X99.801 Y106.388 E6.44022
G1 X99.946 Y107.03 E6.47306
G1 X99.985 Y107.233 E6.48337
G1 X100.097 Y107.953 E6.51972
G1 X100.139 Y108.305 E6.53741
G1 X100.197 Y108.981 E6.57126
G1 X100.222 Y109.457 E6.59504
G1 X100.235 Y110.115 E6.62787
G1 X100.232 Y110.371 E6.64064
G1 X100.209 Y110.951 E6.6696
G1 X100.194 Y111.17 E6.68056
G1 X100.11 Y111.951 E6.71974
G1 X100.058 Y112.307 E6.73769
G1 X99.932 Y113.005 E6.77308
G1 X99.833 Y113.46 E6.79631
G1 X99.709 Y113.967 E6.82235
G1 X99.668 Y114.118 E6.83016
G1 X99.418 Y114.909 E6.87154
G1 X99.237 Y115.411 E6.89817
G1 X98.76 Y116.524 E6.95858
G1 X98.476 Y117.091 E6.99022
G1 X98.113 Y117.753 E7.02788
G1 X98.005 Y117.934 E7.0384
G1 X97.611 Y118.544 E7.07463
G1 X97.39 Y118.861 E7.09391
G1 X96.957 Y119.439 E7.12994
G1 X96.764 Y119.678 E7.14527
G1 X96.349 Y120.16 E7.177
G1 X96.121 Y120.409 E7.19384
G1 X95.659 Y120.882 E7.22683
G1 X95.435 Y121.097 E7.24232
G1 X94.938 Y121.544 E7.27567
G1 X94.66 Y121.778 E7.2938
G1 X94.112 Y122.208 E7.32855
G1 X93.907 Y122.358 E7.34122
G1 X93.192 Y122.836 E7.38413
G1 X92.638 Y123.174 E7.41651
G1 X91.573 Y123.741 E7.4767
G1 X91.222 Y123.902 E7.49597
G1 X90.639 Y124.148 E7.52754
G1 X90.284 Y124.285 E7.54652
G1 X89.588 Y124.525 E7.58325
G1 X89.29 Y124.616 E7.5988
G1 X88.747 Y124.766 E7.6269
G1 X88.544 Y124.816 E7.63733
G1 X87.813 Y124.968 E7.67458
G1 X87.343 Y125.048 E7.69837
G1 X86.659 Y125.141 E7.7328
G1 X86.344 Y125.173 E7.7486
G1 X85.674 Y125.218 E7.7821
G1 X85.366 Y125.229 E7.79748
G1 X84.713 Y125.232 E7.83006
G1 X84.499 Y125.226 E7.84074
G1 X83.832 Y125.186 E7.87407
G1 X83.372 Y125.143 E7.89712
G1 X82.672 Y125.053 E7.93233
G1 X82.305 Y124.993 E7.95089
G1 X81.615 Y124.855 E7.98599
G1 X81.466 Y124.82 E7.99363
G1 X80.842 Y124.653 E8.02586
G1 X80.399 Y124.519 E8.04895
G1 X79.741 Y124.295 E8.08362
G1 X79.429 Y124.177 E8.10027
G1 X78.805 Y123.917 E8.13399
G1 X78.557 Y123.804 E8.14759
G1 X77.942 Y123.499 E8.18184
G1 X77.636 Y123.334 E8.19918
G1 X77.077 Y123.009 E8.23144
G1 X76.806 Y122.84 E8.24738
G1 X76.222 Y122.448 E8.28247
G1 X75.893 Y122.21 E8.30272
G1 X75.015 Y121.498 E8.35912
G1 X74.564 Y121.089 E8.3895
G1 X73.933 Y120.464 E8.43381
G1 X73.692 Y120.204 E8.45149
G1 X73.239 Y119.682 E8.48597
G1 X73.091 Y119.499 E8.49772
G1 X72.696 Y118.976 E8.53041
G1 X72.434 Y118.606 E8.55303
G1 X72.03 Y117.99 E8.58979
G1 X71.912 Y117.795 E8.60116
G1 X71.603 Y117.247 E8.63254
G1 X71.43 Y116.917 E8.65113
G1 X71.137 Y116.311 E8.68471
G1 X71.016 Y116.038 E8.69961
G1 X70.752 Y115.382 E8.73489
G1 X70.601 Y114.966 E8.75697
G1 X70.404 Y114.366 E8.78848
G1 X70.333 Y114.125 E8.80101
G1 X70.067 Y112.987 E8.85932
G1 X69.947 Y112.298 E8.89421
G1 X69.831 Y111.398 E8.93948
G1 X69.804 Y111.077 E8.95555
G1 X69.77 Y110.417 E8.98852
G1 X69.764 Y110.108 E9.00394
G1 X69.767 Y109.577 E9.03043
G1 X69.774 Y109.361 E9.04122
G1 X69.835 Y108.533 E9.08264
G1 X69.876 Y108.173 E9.10071
G1 X69.973 Y107.512 E9.13404
G1 X70.051 Y107.08 E9.15595
G1 X70.203 Y106.378 E9.19178
G1 X70.267 Y106.126 E9.20475
G1 X70.435 Y105.54 E9.23516
G1 X70.534 Y105.229 E9.25145
G1 X70.775 Y104.555 E9.28716
G1 X70.912 Y104.21 E9.30568
G1 X71.185 Y103.584 E9.33975
G1 X71.317 Y103.307 E9.35506
G1 X71.642 Y102.68 E9.39029
G1 X71.827 Y102.352 E9.40908
G1 X72.159 Y101.805 E9.441
G1 X72.285 Y101.611 E9.45254
G1 X72.651 Y101.084 E9.48455
G1 X72.896 Y100.754 E9.50506
G1 X73.327 Y100.212 E9.53961
G1 X73.501 Y100.008 E9.55298
G1 X73.978 Y99.487 E9.58823
G1 X74.266 Y99.193 E9.60876
G1 X74.753 Y98.727 E9.64239
G1 X74.943 Y98.557 E9.65511
G1 X75.447 Y98.135 E9.6879
G1 X75.722 Y97.919 E9.70535
M204 S3000
G1 F12000 E9.50535
;MESH:Modifier_Cylinder.stl
G0 X82.337 Y106.712
G0 X82.325 Y106.697
M204 S50
;TYPE:WALL-INNER
G1 F12000 E9.70535
G1 F900 X82.558 Y106.522 E9.71988
G1 X82.781 Y106.376 E9.73318
G1 X83.035 Y106.234 E9.7477
G1 X83.296 Y106.108 E9.76216
G1 X83.552 Y106.005 E9.77593
G1 X83.83 Y105.916 E9.79049
G1 X84.079 Y105.852 E9.80332
G1 X84.374 Y105.797 E9.81829
G1 X84.647 Y105.766 E9.83199
G1 X84.926 Y105.752 E9.84593
G1 X85.219 Y105.755 E9.86055
G1 X85.49 Y105.777 E9.87412
G1 X85.758 Y105.817 E9.88763
G1 X86.034 Y105.878 E9.90174
G1 X86.309 Y105.957 E9.91601
G1 X86.573 Y106.051 E9.92999
G1 X86.838 Y106.168 E9.94444
G1 X87.079 Y106.294 E9.95801
G1 X87.331 Y106.447 E9.97272
G1 X87.546 Y106.598 E9.98583
G1 X87.775 Y106.781 E10.00045
G1 X87.979 Y106.969 E10.01429
G1 X88.163 Y107.163 E10.02763
G1 X88.359 Y107.396 E10.04282
G1 X88.512 Y107.606 E10.05578
G1 X88.666 Y107.851 E10.07022
G1 X88.798 Y108.096 E10.08411
G1 X88.92 Y108.363 E10.09875
G1 X89.017 Y108.618 E10.11236
G1 X89.104 Y108.901 E10.12713
G1 X89.164 Y109.151 E10.13996
G1 X89.21 Y109.428 E10.15397
G1 X89.24 Y109.727 E10.16896
G1 X89.249 Y109.999 E10.18254
G1 X89.242 Y110.268 E10.19596
G1 X89.212 Y110.562 E10.21071
G1 X89.169 Y110.827 E10.2241
G1 X89.101 Y111.115 E10.23887
G1 X89.025 Y111.366 E10.25195
G1 X88.924 Y111.631 E10.2661
G1 X88.803 Y111.896 E10.28063
G1 X88.67 Y112.143 E10.29463
G1 X88.518 Y112.384 E10.30884
G1 X88.358 Y112.605 E10.32245
G1 X88.174 Y112.826 E10.3368
G1 X87.978 Y113.032 E10.35099
G1 X87.785 Y113.211 E10.36412
G1 X87.547 Y113.402 E10.37935
G1 X87.337 Y113.549 E10.39213
G1 X87.085 Y113.702 E10.40684
G1 X86.844 Y113.828 E10.42041
G1 X86.575 Y113.947 E10.43508
G1 X86.309 Y114.042 E10.44918
G1 X86.051 Y114.116 E10.46257
G1 X85.76 Y114.182 E10.47745
G1 X85.496 Y114.221 E10.49077
G1 X85.225 Y114.243 E10.50433
G1 X84.924 Y114.249 E10.51935
G1 X84.653 Y114.236 E10.53289
G1 X84.38 Y114.205 E10.5466
G1 X84.091 Y114.151 E10.56126
G1 X83.826 Y114.086 E10.57488
G1 X83.554 Y113.997 E10.58915
G1 X83.302 Y113.896 E10.6027
G1 X83.041 Y113.77 E10.61716
G1 X82.787 Y113.628 E10.63168
G1 X82.564 Y113.482 E10.64497
G1 X82.344 Y113.316 E10.65872
G1 X82.117 Y113.122 E10.67362
G1 X81.928 Y112.936 E10.68685
G1 X81.731 Y112.716 E10.70158
G1 X81.565 Y112.503 E10.71506
G1 X81.407 Y112.269 E10.72914
G1 X81.269 Y112.033 E10.74278
G1 X81.138 Y111.772 E10.75735
G1 X81.032 Y111.517 E10.77113
G1 X80.934 Y111.231 E10.78621
G1 X80.863 Y110.972 E10.79961
G1 X80.811 Y110.714 E10.81274
G1 X80.772 Y110.415 E10.82778
G1 X80.754 Y110.147 E10.84119
G1 X80.752 Y109.853 E10.85585
G1 X80.77 Y109.591 E10.86896
G1 X80.809 Y109.289 E10.88415
G1 X80.865 Y109.014 E10.89815
G1 X80.931 Y108.772 E10.91066
G1 X81.028 Y108.489 E10.92559
G1 X81.134 Y108.234 E10.93937
G1 X81.266 Y107.971 E10.95405
G1 X81.407 Y107.731 E10.96793
G1 X81.567 Y107.494 E10.9822
G1 X81.721 Y107.296 E10.99471
G1 X81.927 Y107.064 E11.01019
G1 X82.122 Y106.872 E11.02385
G1 X82.325 Y106.697 E11.03722
M204 S3000
G0 F12000 X82.011 Y106.308
M204 S50
;TYPE:WALL-OUTER
G1 F900 X82.27 Y106.113 E11.05339
G1 X82.525 Y105.946 E11.0686
G1 X82.803 Y105.79 E11.0845
G1 X83.097 Y105.649 E11.10077
G1 X83.378 Y105.536 E11.11588
G1 X83.685 Y105.437 E11.13197
G1 X83.981 Y105.361 E11.14722
G1 X84.299 Y105.302 E11.16336
G1 X84.596 Y105.268 E11.17827
G1 X84.924 Y105.252 E11.19465
G1 X85.236 Y105.255 E11.21022
G1 X85.546 Y105.28 E11.22574
G1 X85.853 Y105.326 E11.24122
G1 X86.166 Y105.395 E11.25721
G1 X86.463 Y105.48 E11.27263
G1 X86.761 Y105.587 E11.28842
G1 X87.04 Y105.71 E11.30364
G1 X87.333 Y105.863 E11.32013
G1 X87.597 Y106.023 E11.33553
G1 X87.852 Y106.202 E11.35107
G1 X88.096 Y106.398 E11.36669
G1 X88.33 Y106.613 E11.38254
G1 X88.54 Y106.834 E11.39775
G1 X88.752 Y107.087 E11.41422
G1 X88.926 Y107.326 E11.42897
G1 X89.102 Y107.606 E11.44547
G1 X89.244 Y107.868 E11.46033
G1 X89.381 Y108.169 E11.47683
G1 X89.493 Y108.463 E11.49253
G1 X89.585 Y108.763 E11.50818
G1 X89.654 Y109.052 E11.52301
G1 X89.708 Y109.379 E11.53954
G1 X89.739 Y109.692 E11.55523
G1 X89.749 Y109.996 E11.57041
G1 X89.741 Y110.302 E11.58568
G1 X89.71 Y110.615 E11.60137
G1 X89.656 Y110.942 E11.61791
G1 X89.588 Y111.231 E11.63272
G1 X89.497 Y111.531 E11.64836
G1 X89.385 Y111.825 E11.66406
G1 X89.249 Y112.124 E11.68044
G1 X89.106 Y112.388 E11.69542
G1 X88.931 Y112.666 E11.71181
G1 X88.752 Y112.913 E11.72703
G1 X88.547 Y113.16 E11.74304
G1 X88.334 Y113.383 E11.75843
G1 X88.108 Y113.592 E11.77379
G1 X87.851 Y113.799 E11.79025
G1 X87.603 Y113.973 E11.80536
G1 X87.339 Y114.133 E11.82077
G1 X87.046 Y114.286 E11.83726
G1 X86.767 Y114.409 E11.85247
G1 X86.468 Y114.516 E11.86831
G1 X86.171 Y114.602 E11.88374
G1 X85.859 Y114.672 E11.89969
G1 X85.552 Y114.718 E11.91518
G1 X85.242 Y114.743 E11.93069
G1 X84.926 Y114.749 E11.94646
G1 X84.602 Y114.734 E11.96264
G1 X84.305 Y114.7 E11.97756
G1 X83.993 Y114.642 E11.99339
G1 X83.683 Y114.565 E12.00933
G1 X83.384 Y114.468 E12.02501
G1 X83.103 Y114.355 E12.04012
G1 X82.809 Y114.214 E12.05639
G1 X82.531 Y114.058 E12.07229
G1 X82.276 Y113.891 E12.0875
G1 X82.028 Y113.704 E12.10299
G1 X81.779 Y113.491 E12.11934
G1 X81.566 Y113.281 E12.13426
G1 X81.352 Y113.042 E12.15027
G1 X81.158 Y112.793 E12.16602
G1 X80.985 Y112.537 E12.18143
G1 X80.828 Y112.269 E12.19693
G1 X80.685 Y111.984 E12.21284
G1 X80.563 Y111.692 E12.22863
G1 X80.459 Y111.388 E12.24465
G1 X80.377 Y111.092 E12.25998
G1 X80.316 Y110.788 E12.27545
G1 X80.274 Y110.466 E12.29165
G1 X80.254 Y110.166 E12.30665
G1 X80.252 Y109.836 E12.32311
G1 X80.272 Y109.54 E12.33791
G1 X80.315 Y109.212 E12.35442
G1 X80.377 Y108.905 E12.37004
G1 X80.455 Y108.618 E12.38488
G1 X80.559 Y108.314 E12.40091
G1 X80.681 Y108.022 E12.4167
G1 X80.825 Y107.735 E12.43272
G1 X80.984 Y107.464 E12.44839
