;FLAVOR:Marlin
;TIME:106
;Filament used: 0.20742m
;Layer height: 0.16
;MINX:69.267
;MINY:94.265
;MINZ:0.24
;MAXX:100.735
;MAXY:125.731
;MAXZ:10
;Generated with Cura_SteamEngine mb-master-20210130
M82 ;absolute extrusion mode
M104 S220
M140 S0
M105
G28 ;Home
G1 Z16.0 F6000 ;Move the platform down 16mm
M109 S220
G92 E0 ;absolute position is set above
G92 E0 ;reset back to 0
G92 E0
G92 E0
G1 F12000 E-0.2
;LAYER_COUNT:62
;LAYER:0
M107
M204 S3000
G0 X75.601 Y97.389 Z0.24
M204 S200
;TYPE:SKIRT
G1 F12000 E0
G1  F15000 X76.126 Y97.015 E0.03216
G1 X76.915 Y96.503 E0.07908 F15000
G1 X77.854 Y95.982 E0.13266 F15000
G1 X78.642 Y95.613 E0.17607 F15000
G1 X79.769 Y95.163 E0.23661 F15000
G1 X80.655 Y94.88 E0.28301 F15000
G1 X81.734 Y94.61 E0.33851 F15000
G1 X82.733 Y94.431 E0.38914 F15000
G1 X83.672 Y94.327 E0.43627 F15000
G1 X84.218 Y94.289 E0.46358 F15000
G1 X85.316 Y94.265 E0.51837 F15000
G1 X86.378 Y94.326 E0.57144 F15000
G1 X87.807 Y94.522 E0.6434 F15000
G1 X88.962 Y94.774 E0.70238 F15000
G1 X89.908 Y95.05 E0.75155 F15000
G1 X90.837 Y95.392 E0.80093 F15000
G1 X91.856 Y95.839 E0.85645 F15000
G1 X92.78 Y96.324 E0.90851 F15000
G1 X93.586 Y96.819 E0.9557 F15000
G1 X94.007 Y97.102 E0.98101 F15000
G1 X94.582 Y97.517 E1.01639 F15000
G1 X95.691 Y98.461 E1.08905 F15000
G1 X96.188 Y98.944 E1.12362 F15000
G1 X96.824 Y99.618 E1.16986 F15000
G1 X97.15 Y100.012 E1.19537 F15000
G1 X97.542 Y100.511 E1.22703 F15000
G1 X98.082 Y101.264 E1.27326 F15000
G1 X98.638 Y102.153 E1.32557 F15000
G1 X99.177 Y103.172 E1.38308 F15000
G1 X99.772 Y104.596 E1.46008 F15000
G1 X99.971 Y105.18 E1.49086 F15000
G1 X100.195 Y105.922 E1.52953 F15000
G1 X100.43 Y106.939 E1.5816 F15000
G1 X100.668 Y108.64 E1.66729 F15000
G1 X100.713 Y109.33 E1.70179 F15000
G1 X100.735 Y110.167 E1.74356 F15000
G1 X100.696 Y111.159 E1.79309 F15000
G1 X100.597 Y112.094 E1.84 F15000
G1 X100.31 Y113.619 E1.91742 F15000
G1 X100.159 Y114.201 E1.94741 F15000
G1 X99.867 Y115.146 E1.99676 F15000
G1 X99.257 Y116.642 E2.07736 F15000
G1 X98.973 Y117.219 E2.10945 F15000
G1 X98.532 Y118.027 E2.15537 F15000
G1 X98.017 Y118.836 E2.20322 F15000
G1 X97.328 Y119.776 E2.26136 F15000
G1 X96.748 Y120.463 E2.30622 F15000
G1 X96.011 Y121.237 E2.35954 F15000
G1 X95.239 Y121.944 E2.41176 F15000
G1 X94.421 Y122.601 E2.46411 F15000
G1 X93.587 Y123.179 E2.51473 F15000
G1 X93.153 Y123.452 E2.54031 F15000
G1 X92.505 Y123.829 E2.57771 F15000
G1 X91.194 Y124.463 E2.65037 F15000
G1 X89.889 Y124.952 E2.71989 F15000
G1 X88.825 Y125.261 E2.77517 F15000
G1 X87.804 Y125.479 E2.82726 F15000
G1 X86.748 Y125.636 E2.88052 F15000
G1 X85.774 Y125.713 E2.92926 F15000
G1 X84.697 Y125.731 E2.983 F15000
G1 X83.736 Y125.682 E3.03101 F15000
G1 X82.677 Y125.558 E3.0842 F15000
G1 X81.538 Y125.349 E3.14198 F15000
G1 X80.597 Y125.104 E3.19049 F15000
G1 X79.619 Y124.781 E3.24187 F15000
G1 X78.094 Y124.132 E3.32456 F15000
G1 X77.608 Y123.883 E3.3518 F15000
G1 X76.829 Y123.442 E3.39646 F15000
G1 X75.903 Y122.834 E3.45173 F15000
G1 X74.635 Y121.83 E3.53242 F15000
G1 X74.193 Y121.426 E3.5623 F15000
G1 X73.559 Y120.795 E3.60692 F15000
G1 X72.856 Y120.002 E3.65979 F15000
G1 X72.288 Y119.264 E3.70625 F15000
G1 X71.584 Y118.219 E3.76912 F15000
G1 X71.171 Y117.503 E3.81036 F15000
G1 X70.706 Y116.568 E3.86245 F15000
G1 X70.263 Y115.503 E3.92 F15000
G1 X69.924 Y114.502 E3.97273 F15000
G1 X69.697 Y113.645 E4.01696 F15000
G1 X69.463 Y112.466 E4.07692 F15000
G1 X69.344 Y111.537 E4.12365 F15000
G1 X69.27 Y110.423 E4.17935 F15000
G1 X69.267 Y109.599 E4.22046 F15000
G1 X69.327 Y108.586 E4.27109 F15000
G1 X69.469 Y107.503 E4.32558 F15000
G1 X69.711 Y106.299 E4.38685 F15000
G1 X70.167 Y104.77 E4.46645 F15000
G1 X70.401 Y104.15 E4.49951 F15000
G1 X70.742 Y103.348 E4.54299 F15000
G1 X71.179 Y102.484 E4.5913 F15000
G1 X71.726 Y101.555 E4.64508 F15000
G1 X72.264 Y100.766 E4.69273 F15000
G1 X72.98 Y99.848 E4.75081 F15000
G1 X73.598 Y99.161 E4.79691 F15000
G1 X74.407 Y98.369 E4.85339 F15000
G1 X75.601 Y97.389 E4.93046 F15000
M204 S3000
G0 F12000 X75.891 Y97.797
M204 S200
G1  F15000 X76.416 Y97.423 E4.96262
G1 X77.169 Y96.935 E5.00738 F15000
G1 X78.077 Y96.43 E5.05922 F15000
G1 X78.837 Y96.073 E5.10111 F15000
G1 X79.932 Y95.636 E5.15993 F15000
G1 X80.788 Y95.362 E5.20477 F15000
G1 X81.833 Y95.1 E5.25852 F15000
G1 X82.8 Y94.926 E5.30754 F15000
G1 X83.706 Y94.826 E5.35301 F15000
G1 X84.252 Y94.788 E5.38032 F15000
G1 X85.313 Y94.765 E5.43327 F15000
G1 X86.325 Y94.823 E5.48384 F15000
G1 X87.709 Y95.012 E5.55353 F15000
G1 X88.833 Y95.257 E5.61092 F15000
G1 X89.748 Y95.524 E5.65847 F15000
G1 X90.645 Y95.853 E5.70614 F15000
G1 X91.635 Y96.288 E5.76009 F15000
G1 X92.528 Y96.756 E5.81039 F15000
G1 X93.307 Y97.234 E5.85599 F15000
G1 X93.728 Y97.517 E5.88129 F15000
G1 X94.276 Y97.912 E5.915 F15000
G1 X95.343 Y98.819 E5.98486 F15000
G1 X95.84 Y99.302 E6.01944 F15000
G1 X96.46 Y99.961 E6.06458 F15000
G1 X97.148 Y100.82 E6.11949 F15000
G1 X97.663 Y101.537 E6.16353 F15000
G1 X98.203 Y102.4 E6.21432 F15000
G1 X98.724 Y103.383 E6.26982 F15000
G1 X99.299 Y104.757 E6.34413 F15000
G1 X99.498 Y105.341 E6.37491 F15000
G1 X99.711 Y106.049 E6.4118 F15000
G1 X99.938 Y107.029 E6.46199 F15000
G1 X100.169 Y108.673 E6.54481 F15000
G1 X100.214 Y109.363 E6.57931 F15000
G1 X100.235 Y110.16 E6.61908 F15000
G1 X100.198 Y111.117 E6.66687 F15000
G1 X100.103 Y112.022 E6.71226 F15000
G1 X99.827 Y113.493 E6.78693 F15000
G1 X99.676 Y114.075 E6.81693 F15000
G1 X99.397 Y114.976 E6.86399 F15000
G1 X98.808 Y116.421 E6.94184 F15000
G1 X98.524 Y116.998 E6.97392 F15000
G1 X98.104 Y117.768 E7.01768 F15000
G1 X97.606 Y118.551 E7.06398 F15000
G1 X96.939 Y119.461 E7.12027 F15000
G1 X96.378 Y120.126 E7.16367 F15000
G1 X95.664 Y120.877 E7.21537 F15000
G1 X94.918 Y121.561 E7.26586 F15000
G1 X94.125 Y122.198 E7.31661 F15000
G1 X93.321 Y122.756 E7.36544 F15000
G1 X92.887 Y123.029 E7.39102 F15000
G1 X92.269 Y123.388 E7.42667 F15000
G1 X91.006 Y124 E7.49669 F15000
G1 X89.74 Y124.475 E7.56415 F15000
G1 X88.707 Y124.775 E7.61782 F15000
G1 X87.722 Y124.986 E7.66808 F15000
G1 X86.695 Y125.138 E7.71987 F15000
G1 X85.756 Y125.213 E7.76687 F15000
G1 X84.709 Y125.232 E7.81911 F15000
G1 X83.782 Y125.185 E7.86542 F15000
G1 X82.758 Y125.064 E7.91686 F15000
G1 X81.65 Y124.861 E7.97306 F15000
G1 X80.743 Y124.626 E8.0198 F15000
G1 X79.796 Y124.313 E8.06956 F15000
G1 X78.322 Y123.687 E8.14946 F15000
G1 X77.836 Y123.438 E8.1767 F15000
G1 X77.093 Y123.018 E8.21928 F15000
G1 X76.196 Y122.429 E8.27282 F15000
G1 X74.973 Y121.461 E8.35064 F15000
G1 X74.531 Y121.057 E8.38051 F15000
G1 X73.925 Y120.456 E8.42309 F15000
G1 X73.244 Y119.687 E8.47434 F15000
G1 X72.696 Y118.975 E8.51916 F15000
G1 X72.012 Y117.961 E8.58019 F15000
G1 X71.613 Y117.268 E8.62008 F15000
G1 X71.163 Y116.366 E8.67037 F15000
G1 X70.733 Y115.333 E8.72619 F15000
G1 X70.404 Y114.363 E8.7773 F15000
G1 X70.185 Y113.536 E8.81998 F15000
G1 X69.957 Y112.392 E8.87817 F15000
G1 X69.843 Y111.494 E8.92333 F15000
G1 X69.77 Y110.412 E8.97744 F15000
G1 X69.766 Y109.613 E9.0173 F15000
G1 X69.824 Y108.638 E9.06603 F15000
G1 X69.961 Y107.591 E9.11871 F15000
G1 X70.196 Y106.42 E9.1783 F15000
G1 X70.635 Y104.947 E9.25498 F15000
G1 X70.869 Y104.327 E9.28804 F15000
G1 X71.194 Y103.562 E9.32951 F15000
G1 X71.615 Y102.729 E9.37607 F15000
G1 X72.145 Y101.827 E9.42827 F15000
G1 X72.665 Y101.064 E9.47433 F15000
G1 X73.359 Y100.174 E9.53064 F15000
G1 X73.956 Y99.51 E9.57519 F15000
G1 X74.74 Y98.742 E9.62994 F15000
G1 X75.891 Y97.797 E9.70424 F15000
M204 S3000
G1 F12000 E9.50424
;MESH:Modifier_Cylinder.stl
G0 X82.35 Y106.705
G0 X82.338 Y106.69
M204 S50
;TYPE:WALL-INNER
G1 F12000 E9.70424
G1  F15000 X82.789 Y106.373 E9.73174
G1 X83.298 Y106.107 E9.76039 F15000
G1 X83.819 Y105.919 E9.78803 F15000
G1 X84.366 Y105.801 E9.81595 F15000
G1 X85.216 Y105.756 E9.85841 F15000
G1 X85.758 Y105.818 E9.88563 F15000
G1 X86.308 Y105.958 E9.91394 F15000
G1 X86.841 Y106.171 E9.94258 F15000
G1 X87.323 Y106.442 E9.97017 F15000
G1 X87.769 Y106.776 E9.99797 F15000
G1 X88.165 Y107.166 E10.02569 F15000
G1 X88.51 Y107.606 E10.05359 F15000
G1 X88.81 Y108.119 E10.08324 F15000
G1 X89.016 Y108.614 E10.10999 F15000
G1 X89.161 Y109.143 E10.13735 F15000
G1 X89.239 Y109.728 E10.1668 F15000
G1 X89.24 Y110.273 E10.19399 F15000
G1 X89.166 Y110.844 E10.22271 F15000
G1 X89.024 Y111.364 E10.24961 F15000
G1 X88.797 Y111.908 E10.27901 F15000
G1 X88.519 Y112.381 E10.30639 F15000
G1 X88.173 Y112.827 E10.33455 F15000
G1 X87.782 Y113.211 E10.36189 F15000
G1 X87.329 Y113.554 E10.39024 F15000
G1 X86.839 Y113.831 E10.41832 F15000
G1 X86.314 Y114.039 E10.44649 F15000
G1 X85.77 Y114.178 E10.4745 F15000
G1 X85.215 Y114.243 E10.50238 F15000
G1 X84.64 Y114.234 E10.53107 F15000
G1 X84.093 Y114.152 E10.55867 F15000
G1 X83.561 Y113.998 E10.5863 F15000
G1 X83.042 Y113.77 E10.61458 F15000
G1 X82.563 Y113.481 E10.64249 F15000
G1 X82.12 Y113.124 E10.67088 F15000
G1 X81.737 Y112.721 E10.69861 F15000
G1 X81.41 Y112.272 E10.72632 F15000
G1 X81.138 Y111.771 E10.75477 F15000
G1 X80.94 Y111.25 E10.78257 F15000
G1 X80.811 Y110.703 E10.81061 F15000
G1 X80.755 Y110.154 E10.83814 F15000
G1 X80.771 Y109.584 E10.86659 F15000
G1 X80.861 Y109.035 E10.89435 F15000
G1 X81.031 Y108.484 E10.92311 F15000
G1 X81.261 Y107.982 E10.95066 F15000
G1 X81.564 Y107.5 E10.97907 F15000
G1 X81.921 Y107.072 E11.00687 F15000
G1 X82.338 Y106.69 E11.03509 F15000
M204 S3000
G0 F12000 X82.4 Y106.767
G0 X84.379 Y105.9
G0 X84.296 Y105.304
M204 S50
;TYPE:WALL-OUTER
G1  F15000 X85.234 Y105.255 E11.08195
G1 X85.85 Y105.325 E11.11288 F15000
G1 X86.46 Y105.48 E11.14428 F15000
G1 X87.059 Y105.72 E11.17647 F15000
G1 X87.596 Y106.022 E11.20721 F15000
G1 X88.095 Y106.396 E11.23832 F15000
G1 X88.538 Y106.832 E11.26933 F15000
G1 X88.925 Y107.325 E11.3006 F15000
G1 X89.256 Y107.891 E11.33331 F15000
G1 X89.49 Y108.452 E11.36364 F15000
G1 X89.653 Y109.05 E11.39456 F15000
G1 X89.739 Y109.691 E11.42683 F15000
G1 X89.74 Y110.307 E11.45756 F15000
G1 X89.658 Y110.937 E11.48925 F15000
G1 X89.497 Y111.529 E11.51986 F15000
G1 X89.245 Y112.132 E11.55247 F15000
G1 X88.932 Y112.665 E11.5833 F15000
G1 X88.549 Y113.158 E11.61445 F15000
G1 X88.11 Y113.59 E11.64518 F15000
G1 X87.604 Y113.972 E11.67681 F15000
G1 X87.051 Y114.285 E11.70851 F15000
G1 X86.47 Y114.516 E11.7397 F15000
G1 X85.861 Y114.671 E11.77106 F15000
G1 X85.243 Y114.743 E11.8021 F15000
G1 X84.603 Y114.734 E11.83403 F15000
G1 X83.984 Y114.641 E11.86526 F15000
G1 X83.387 Y114.468 E11.89627 F15000
G1 X82.81 Y114.215 E11.9277 F15000
G1 X82.277 Y113.892 E11.95879 F15000
G1 X81.781 Y113.493 E11.99055 F15000
G1 X81.354 Y113.044 E12.02146 F15000
G1 X80.986 Y112.538 E12.05268 F15000
G1 X80.684 Y111.983 E12.0842 F15000
G1 X80.459 Y111.39 E12.11585 F15000
G1 X80.318 Y110.792 E12.1465 F15000
G1 X80.254 Y110.168 E12.17779 F15000
G1 X80.272 Y109.542 E12.20904 F15000
G1 X80.374 Y108.916 E12.24068 F15000
G1 X80.562 Y108.307 E12.27248 F15000
G1 X80.82 Y107.745 E12.30333 F15000
G1 X81.159 Y107.205 E12.33514 F15000
G1 X81.561 Y106.723 E12.36645 F15000
G1 X82.023 Y106.3 E12.3977 F15000
G1 X82.524 Y105.947 E12.42828 F15000
G1 X83.098 Y105.648 E12.46057 F15000
G1 X83.685 Y105.436 E12.49171 F15000
G1 X84.296 Y105.304 E12.52289 F15000
M204 S3000
G0 F12000 X84.417 Y106.249
M204 S100
;TYPE:SKIN
G1  F15000 X85.201 Y106.258 E12.56201
G1 X85.084 Y106.72 E12.58578 F15000
G1 X85.168 Y107.21 E12.61059 F15000
G1 X85.498 Y107.249 E12.62717 F15000
G1 X86.219 Y107.484 E12.665 F15000
G1 X86.82 Y107.874 E12.70074 F15000
G1 X87.305 Y108.417 E12.73707 F15000
G1 X87.646 Y109.096 E12.77497 F15000
G1 X87.789 Y109.831 E12.81233 F15000
G1 X87.741 Y110.557 E12.84863 F15000
G1 X87.496 Y111.261 E12.88582 F15000
G1 X87.079 Y111.869 E12.9226 F15000
G1 X86.531 Y112.339 E12.95862 F15000
G1 X85.868 Y112.657 E12.9953 F15000
G1 X85.138 Y112.791 E13.03233 F15000
G1 X84.401 Y112.732 E13.06922 F15000
G1 X83.7 Y112.474 E13.10649 F15000
G1 X83.1 Y112.05 E13.14314 F15000
G1 X82.633 Y111.486 E13.17967 F15000
G1 X82.331 Y110.823 E13.21602 F15000
G1 X82.207 Y110.109 E13.25217 F15000
G1 X82.276 Y109.368 E13.2893 F15000
G1 X82.54 Y108.671 E13.32649 F15000
G1 X82.969 Y108.077 E13.36304 F15000
G1 X83.549 Y107.612 E13.40013 F15000
G1 X83.831 Y107.487 E13.41552 F15000
G1 X83.888 Y108.004 E13.44147 F15000
G1 X84.503 Y108.276 E13.47502 F15000
G1 X85.321 Y108.236 E13.51588 F15000
G1 X85.992 Y108.505 E13.55194 F15000
G1 X86.475 Y108.979 E13.58571 F15000
G1 X86.751 Y109.614 E13.62025 F15000
G1 X86.79 Y110.114 E13.64527 F15000
G1 X86.596 Y110.821 E13.68185 F15000
G1 X86.183 Y111.351 E13.71537 F15000
G1 X85.569 Y111.7 E13.7506 F15000
G1 X84.838 Y111.786 E13.78732 F15000
G1 X84.156 Y111.582 E13.82284 F15000
G1 X83.625 Y111.151 E13.85696 F15000
G1 X83.289 Y110.531 E13.89214 F15000
G1 X83.217 Y109.818 E13.92789 F15000
G1 X83.423 Y109.146 E13.96296 F15000
G1 X83.603 Y108.929 E13.97703 F15000
G1 X83.97 Y109.222 E14.00045 F15000
G1 X84.494 Y109.393 E14.02795 F15000
G1 X84.819 Y109.231 E14.04607 F15000
G1 X85.134 Y109.22 E14.0618 F15000
G1 X85.513 Y109.394 E14.0826 F15000
G1 X85.768 Y109.809 E14.1069 F15000
G1 X85.756 Y110.236 E14.12821 F15000
G1 X85.523 Y110.595 E14.14957 F15000
G1 X85.151 Y110.775 E14.17018 F15000
G1 X84.753 Y110.753 E14.19007 F15000
G1 X84.396 Y110.51 E14.21162 F15000
G1 X85.064 Y110.281 E14.24685 F15000
G1 X85.253 Y110.145 E14.25846 F15000
G1 X85.276 Y109.908 E14.27034 F15000
G1 X85.137 Y109.745 E14.28103 F15000
G1 X84.881 Y109.734 E14.29381 F15000
G1 X84.794 Y109.85 E14.30105 F15000
G1 X84.224 Y110.045 E14.3311 F15000
G1 X84.248 Y109.834 E14.3417 F15000
G1 X83.756 Y109.672 E14.36754 F15000
G1 X83.743 Y109.699 E14.36904 F15000
G1 X83.723 Y110.193 E14.3937 F15000
G1 X83.903 Y110.683 E14.41974 F15000
G1 X84.27 Y111.067 E14.44625 F15000
G1 X84.711 Y111.261 E14.47028 F15000
G1 X85.24 Y111.268 E14.49668 F15000
G1 X85.703 Y111.085 E14.52151 F15000
G1 X86.078 Y110.715 E14.5478 F15000
G1 X86.266 Y110.265 E14.57213 F15000
G1 X86.259 Y109.709 E14.59987 F15000
G1 X86.06 Y109.26 E14.62437 F15000
G1 X85.722 Y108.927 E14.64804 F15000
G1 X85.225 Y108.728 E14.67475 F15000
G1 X84.754 Y108.734 E14.69825 F15000
G1 X84.342 Y108.888 E14.7202 F15000
G1 X83.946 Y108.57 E14.74553 F15000
G1 X83.432 Y108.342 E14.77359 F15000
G1 X83.332 Y108.423 E14.78001 F15000
G1 X82.982 Y108.908 E14.80985 F15000
G1 X82.765 Y109.477 E14.84023 F15000
G1 X82.708 Y110.094 E14.87114 F15000
G1 X82.809 Y110.674 E14.90051 F15000
G1 X83.057 Y111.22 E14.93043 F15000
G1 X83.44 Y111.682 E14.96037 F15000
G1 X83.931 Y112.03 E14.9904 F15000
G1 X84.502 Y112.241 E15.02077 F15000
G1 X85.111 Y112.29 E15.05125 F15000
G1 X85.721 Y112.178 E15.08219 F15000
G1 X86.255 Y111.921 E15.11176 F15000
G1 X86.707 Y111.534 E15.14144 F15000
G1 X87.046 Y111.041 E15.17129 F15000
G1 X87.249 Y110.461 E15.20195 F15000
G1 X87.289 Y109.866 E15.2317 F15000
G1 X87.172 Y109.259 E15.26254 F15000
G1 X86.89 Y108.698 E15.29387 F15000
G1 X86.492 Y108.252 E15.32369 F15000
G1 X86.005 Y107.937 E15.35263 F15000
G1 X85.408 Y107.742 E15.38396 F15000
G1 X84.362 Y107.795 E15.43621 F15000
G1 X84.308 Y107.304 E15.46086 F15000
G1 X84.676 Y107.264 E15.47932 F15000
G1 X84.592 Y106.775 E15.50408 F15000
G1 X84.084 Y106.832 E15.52958 F15000
G1 X83.285 Y107.186 E15.57318 F15000
G1 X82.606 Y107.732 E15.61665 F15000
G1 X82.097 Y108.437 E15.66003 F15000
G1 X81.788 Y109.254 E15.70361 F15000
G1 X81.706 Y110.123 E15.74716 F15000
G1 X81.851 Y110.969 E15.78998 F15000
G1 X82.212 Y111.758 E15.83327 F15000
G1 X82.76 Y112.418 E15.87606 F15000
G1 X83.475 Y112.922 E15.91971 F15000
G1 X84.292 Y113.221 E15.96311 F15000
G1 X85.166 Y113.292 E16.00686 F15000
G1 X86.02 Y113.134 E16.05019 F15000
G1 X86.804 Y112.759 E16.09355 F15000
G1 X87.456 Y112.2 E16.13639 F15000
G1 X87.944 Y111.485 E16.17958 F15000
G1 X88.233 Y110.653 E16.22352 F15000
G1 X88.289 Y109.794 E16.26647 F15000
G1 X88.118 Y108.929 E16.31046 F15000
G1 X87.719 Y108.134 E16.35484 F15000
G1 X87.148 Y107.496 E16.39755 F15000
G1 X86.433 Y107.031 E16.44011 F15000
G1 X85.585 Y106.755 E16.4846 F15000
G1 X85.708 Y106.27 E16.50956 F15000
G1 X86.167 Y106.387 E16.53319 F15000
G1 X86.647 Y106.578 E16.55897 F15000
G1 X87.477 Y107.119 E16.60839 F15000
