;FLAVOR:Marlin
;TIME:1294
;Filament used: 1.63941m
;Layer height: 0.16
;MINX:50.758
;MINY:92.251
;MINZ:0.24
;MAXX:113.328
;MAXY:127.75
;MAXZ:39.28
;Generated with Cura_SteamEngine mb-master-20210130
M82 ;absolute extrusion mode
M104 S220
M140 S0
M105
G28 ;Home
G1 Z16.0 F6000 ;Move the platform down 16mm
M109 S220
G92 E0 ;absolute position is set above
G92 E0 ;reset back to 0
G92 E0
G92 E0
G1 F12000 E-0.2
;LAYER_COUNT:246
;LAYER:0
M107
M204 S3000
G0 X55.917 Y94.056 Z0.24
M204 S200
;TYPE:SKIRT
G1 F12000 E0
G1 F1200 X56.451 Y93.739 E0.03098
G1 X57.474 Y93.218 E0.08826
G1 X58.317 Y92.887 E0.13344
G1 X59.161 Y92.639 E0.17733
G1 X60.335 Y92.389 E0.23721
G1 X61.572 Y92.272 E0.2992
G1 X62.363 Y92.251 E0.33868
G1 X97.863 Y92.251 E2.10978
G1 X98.622 Y92.256 E2.14765
G1 X99.516 Y92.273 E2.19226
G1 X100.373 Y92.301 E2.23504
G1 X101.249 Y92.342 E2.27879
G1 X102.08 Y92.394 E2.32033
G1 X102.694 Y92.441 E2.35105
G1 X103.368 Y92.504 E2.38482
G1 X103.892 Y92.563 E2.41113
G1 X104.504 Y92.645 E2.44194
G1 X105.394 Y92.811 E2.48711
G1 X106.266 Y93.054 E2.53227
G1 X107.113 Y93.373 E2.57742
G1 X107.929 Y93.766 E2.62261
G1 X108.707 Y94.229 E2.66778
G1 X109.441 Y94.759 E2.71294
G1 X110.125 Y95.351 E2.75807
G1 X110.755 Y96.002 E2.80327
G1 X111.324 Y96.706 E2.84843
G1 X111.83 Y97.457 E2.89361
G1 X112.267 Y98.25 E2.93878
G1 X112.632 Y99.078 E2.98393
G1 X112.923 Y99.936 E3.02913
G1 X113.137 Y100.815 E3.07426
G1 X113.272 Y101.71 E3.11942
G1 X113.328 Y102.614 E3.16461
G1 X113.309 Y103.458 E3.20672
G1 X113.272 Y104.025 E3.23507
G1 X113.133 Y106.724 E3.3699
G1 X113.077 Y109.213 E3.49411
G1 X113.09 Y111.778 E3.62208
G1 X113.176 Y114.291 E3.74753
G1 X113.272 Y115.824 E3.82416
G1 X113.316 Y116.681 E3.86697
G1 X113.322 Y117.586 E3.91213
G1 X113.248 Y118.488 E3.95728
G1 X113.094 Y119.381 E4.00249
G1 X112.863 Y120.256 E4.04764
G1 X112.555 Y121.107 E4.09279
G1 X112.173 Y121.928 E4.13797
G1 X111.72 Y122.712 E4.18314
G1 X111.2 Y123.453 E4.2283
G1 X110.616 Y124.145 E4.27348
G1 X109.974 Y124.783 E4.31863
G1 X109.278 Y125.362 E4.3638
G1 X108.534 Y125.877 E4.40894
G1 X107.747 Y126.325 E4.45412
G1 X106.923 Y126.701 E4.49931
G1 X106.07 Y127.003 E4.54446
G1 X105.193 Y127.229 E4.58964
G1 X104.572 Y127.34 E4.62111
G1 X103.773 Y127.45 E4.66135
G1 X103.252 Y127.507 E4.6875
G1 X102.267 Y127.591 E4.73682
G1 X101.342 Y127.652 E4.78307
G1 X100.731 Y127.683 E4.81359
G1 X100.09 Y127.709 E4.8456
G1 X99.252 Y127.733 E4.88742
G1 X98.371 Y127.746 E4.93138
G1 X97.53 Y127.75 E4.97334
G1 X62.664 Y127.75 E6.71281
G1 X61.813 Y127.739 E6.75527
G1 X60.909 Y127.686 E6.80045
G1 X60.013 Y127.554 E6.84563
G1 X59.459 Y127.431 E6.87394
G1 X58.23 Y127.08 E6.93771
G1 X57.389 Y126.746 E6.98286
G1 X56.58 Y126.338 E7.02806
G1 X56.114 Y126.06 E7.05513
G1 X55.153 Y125.404 E7.11318
G1 X54.459 Y124.823 E7.15834
G1 X53.66 Y124.006 E7.21535
G1 X52.887 Y123.061 E7.27626
G1 X52.387 Y122.306 E7.32144
G1 X51.8 Y121.178 E7.38488
G1 X51.368 Y120.105 E7.44258
G1 X51.026 Y118.849 E7.50753
G1 X50.841 Y117.745 E7.56337
G1 X50.777 Y116.766 E7.61232
G1 X50.76 Y115.814 E7.65982
G1 X50.758 Y104.18 E8.24025
G1 X50.77 Y103.299 E8.2842
G1 X50.824 Y102.395 E8.32939
G1 X50.957 Y101.5 E8.37453
G1 X51.083 Y100.937 E8.40331
G1 X51.439 Y99.695 E8.46777
G1 X51.775 Y98.854 E8.51295
G1 X52.413 Y97.661 E8.58045
G1 X53.057 Y96.703 E8.63804
G1 X53.714 Y95.915 E8.68922
G1 X54.335 Y95.294 E8.73304
G1 X55.176 Y94.575 E8.78824
G1 X55.917 Y94.056 E8.83337
M204 S3000
G1 F12000 E8.63337
;MESH:RR_Uberhangtest.stl
G0 X61.858 Y103.047
G0 X61.941 Y103.279
M204 S50
;TYPE:WALL-INNER
G1 F12000 E8.83337
G1 F900 X62.014 Y103.279 E8.83702
G1 X95.495 Y103.253 E10.50739
G1 X98.129 Y103.251 E10.6388
G1 X95.543 Y103.748 E10.7041
G1 X71.343 Y108.403 E11.93357
G1 X70.744 Y108.69 E11.96671
G1 X70.237 Y109.356 E12.00847
G1 X70.116 Y110.124 E12.04726
G1 X70.312 Y110.79 E12.08189
G1 X70.756 Y111.316 E12.11623
G1 X71.39 Y111.607 E12.15104
G1 X95.55 Y116.253 E13.37847
G1 X98.125 Y116.748 E13.50929
G1 X95.503 Y116.748 E13.57417
G1 X62.058 Y116.75 E15.24275
G1 X61.795 Y116.575 E15.25851
G1 X61.758 Y103.655 E15.90309
G1 X61.758 Y103.582 E15.90673
G1 X61.816 Y103.381 E15.91717
G1 X61.941 Y103.279 E15.92522
M204 S3000
G0 F12000 X61.378 Y103.092
M204 S50
;TYPE:WALL-OUTER
G1 F900 X61.737 Y102.801 E15.94828
G1 X62.138 Y102.75 E15.96844
G1 X98.179 Y102.751 E17.76654
G1 X98.931 Y102.761 E17.80406
G1 X99.67 Y102.781 E17.84094
G1 X100.202 Y102.803 E17.8675
G1 X100.388 Y102.81 E17.87679
G1 X100.477 Y102.815 E17.88124
G1 X101.081 Y102.849 E17.91142
G1 X101.156 Y102.854 E17.91517
G1 X101.721 Y102.894 E17.94343
G1 X101.14 Y103.085 E17.95172
G1 X100.453 Y103.255 E17.97693
G1 X100.272 Y103.297 E17.98566
G1 X99.772 Y103.415 E18.01129
G1 X99.028 Y103.577 E18.04928
G1 X98.285 Y103.73 E18.08712
G1 X71.501 Y108.882 E19.44788
G1 X71.069 Y109.089 E19.47178
G1 X70.711 Y109.559 E19.50125
G1 X70.627 Y110.091 E19.52812
G1 X70.762 Y110.548 E19.5519
G1 X71.066 Y110.908 E19.57541
G1 X71.544 Y111.127 E19.60164
G1 X98.298 Y116.272 E20.96086
G1 X99.016 Y116.42 E20.99743
G1 X99.762 Y116.584 E21.03554
G1 X100.272 Y116.704 E21.06168
G1 X100.464 Y116.748 E21.0715
G1 X101.121 Y116.91 E21.10526
G1 X101.774 Y117.083 E21.13897
G1 X101.818 Y117.096 E21.14125
G1 X101.139 Y117.146 E21.15179
G1 X101.08 Y117.151 E21.15475
G1 X100.488 Y117.183 E21.17433
G1 X100.387 Y117.189 E21.17937
G1 X100.19 Y117.196 E21.18859
G1 X99.292 Y117.23 E21.23343
G1 X98.545 Y117.245 E21.2707
G1 X97.79 Y117.25 E21.30837
G1 X61.963 Y117.25 E23.09579
G1 X61.539 Y117.084 E23.1185
G1 X61.295 Y116.733 E23.13983
G1 X61.258 Y103.512 E23.79943
G1 X61.378 Y103.092 E23.82122
M204 S3000
G0 F12000 X61.68 Y103.292
G0 X62.208 Y103.729
M104 S220
M204 S100
;TYPE:SKIN
G1 F1800 X93.39 Y103.705 E25.3769
G1 X71.201 Y107.972 E26.5042
G1 X70.452 Y108.331 E26.54563
G1 X70.127 Y107.932 E26.57131
G1 X69.656 Y107.725 E26.59698
G1 X68.862 Y108.768 E26.66237
G1 X68.633 Y110.22 E26.73571
G1 X69.007 Y111.492 E26.80186
G1 X69.857 Y112.499 E26.8676
G1 X70.943 Y112.999 E26.92725
G1 X82.908 Y115.298 E27.5351
G1 X63.242 Y115.3 E28.51624
G1 X63.211 Y104.729 E29.04364
G1 X82.851 Y104.713 E30.02348
G1 X70.885 Y107.014 E30.6314
G1 X70.7 Y107.103 E30.64165
G1 X70.859 Y106.51 E30.67228
G1 X70.569 Y106.056 E30.69915
G1 X69.152 Y106.735 E30.77754
G1 X67.914 Y108.364 E30.87962
G1 X67.611 Y110.286 E30.97669
G1 X68.107 Y111.976 E31.06457
G1 X69.237 Y113.315 E31.15198
G1 X70.635 Y113.959 E31.22877
G1 X72.407 Y114.299 E31.31879
G1 X64.239 Y114.3 E31.72629
G1 X64.214 Y105.729 E32.1539
G1 X68.564 Y105.724 E32.37092
G1 X68.564 Y106.225 E32.39592
G1 X67.903 Y106.225 E32.4289
G1 X67.903 Y106.726 E32.45389
G1 X66.966 Y107.96 E32.53119
G1 X66.589 Y110.352 E32.652
G1 X67.207 Y112.46 E32.7616
G1 X67.915 Y113.299 E32.81637
G1 X65.236 Y113.3 E32.95002
G1 X65.217 Y106.729 E33.27785
G1 X65.718 Y106.728 E33.30285
G1 X65.718 Y107.228 E33.32779
G1 X65.735 Y112.8 E33.60578
G1 X66.839 Y112.799 E33.66086
G1 X66.757 Y112.702 E33.6672
G1 X66.078 Y110.385 E33.78765
G1 X66.492 Y107.758 E33.92033
G1 X66.895 Y107.227 E33.95359
G1 X66.213 Y107.228 E33.98762
G1 X66.213 Y106.728 E34.01256
G1 X67.408 Y106.726 E34.07218
G1 X67.408 Y106.225 E34.09718
G1 X64.715 Y106.229 E34.23153
G1 X64.738 Y113.8 E34.60925
G1 X69.093 Y113.799 E34.82652
G1 X68.927 Y113.723 E34.83563
G1 X67.657 Y112.218 E34.93388
G1 X67.1 Y110.319 E35.03261
G1 X67.44 Y108.162 E35.14155
G1 X68.827 Y106.336 E35.25595
G1 X69.059 Y106.225 E35.26878
G1 X69.059 Y105.724 E35.29378
G1 X72.308 Y105.722 E35.45587
G1 X71.091 Y105.956 E35.5177
G1 X71.382 Y106.41 E35.5446
G1 X77.58 Y105.217 E35.8595
G1 X63.712 Y105.229 E36.55138
G1 X63.741 Y114.8 E37.02888
G1 X77.658 Y114.799 E37.7232
G1 X70.789 Y113.479 E38.07217
G1 X69.547 Y112.907 E38.14038
G1 X68.557 Y111.734 E38.21696
G1 X68.122 Y110.253 E38.29397
G1 X68.388 Y108.566 E38.37918
G1 X69.477 Y107.134 E38.46893
G1 X70.283 Y106.748 E38.51352
G1 X70.112 Y107.385 E38.54642
G1 X70.715 Y107.651 E38.5793
G1 X71.043 Y107.493 E38.59747
G1 X88.121 Y104.209 E39.4651
G1 X62.709 Y104.229 E40.73291
G1 X62.744 Y115.8 E41.31019
G1 X88.156 Y115.798 E42.578
G1 X71.097 Y112.519 E43.44466
G1 X70.167 Y112.091 E43.49573
G1 X69.457 Y111.25 E43.55065
G1 X69.144 Y110.187 E43.60593
G1 X69.336 Y108.971 E43.66735
G1 X69.819 Y108.337 E43.70711
G1 X70.144 Y108.736 E43.73279
G1 X69.81 Y109.174 E43.76027
G1 X69.655 Y110.154 E43.80977
G1 X69.907 Y111.008 E43.85419
G1 X70.477 Y111.683 E43.89827
G1 X71.251 Y112.039 E43.94077
G1 X93.404 Y116.298 E45.06623
G1 X62.245 Y116.3 E46.62076
G1 X62.208 Y103.729 E47.24793
M204 S3000
;MESH:NONMESH
G0 F3000 X62.208 Y103.729 Z0.4
G0 F12000 X61.917 Y103.299
;TIME_ELAPSED:52.531940
;LAYER:1
M140 S60
M204 S1525
;TYPE:WALL-INNER
;MESH:RR_Uberhangtest.stl
G1 F4950 X62.005 Y103.299 E47.25085
G1 X95.482 Y103.252 E48.36431
G1 X96.591 Y103.251 E48.40119
G1 X97.334 Y103.262 E48.42591
G1 X97.868 Y103.276 E48.44367
G1 X97.363 Y103.388 E48.44586
G1 X96.614 Y103.541 E48.45687
G1 X95.525 Y103.75 E48.48597
G1 X71.345 Y108.402 E49.30495
G1 X70.749 Y108.688 E49.32693
G1 X70.243 Y109.345 E49.35451
G1 X70.112 Y110.054 E49.3785
G1 X70.312 Y110.798 E49.40412
G1 X70.873 Y111.398 E49.43144
G1 X71.406 Y111.609 E49.45051
G1 X95.572 Y116.258 E50.26901
G1 X96.256 Y116.389 E50.29217
G1 X96.618 Y116.459 E50.30444
G1 X96.978 Y116.533 E50.31666
G1 X97.321 Y116.604 E50.32831
G1 X97.871 Y116.724 E50.34703
G1 X97.324 Y116.736 E50.34938
G1 X96.935 Y116.745 E50.35467
G1 X96.62 Y116.747 E50.35989
G1 X96.187 Y116.75 E50.37
G1 X95.49 Y116.75 E50.38994
G1 X62.059 Y116.75 E51.50186
G1 X61.795 Y116.578 E51.51234
G1 X61.758 Y103.669 E51.94169
G1 X61.758 Y103.581 E51.94462
G1 X61.917 Y103.299 E51.95539
M204 S3000
G0 F14970 X61.742 Y102.799
M204 S1525
;TYPE:WALL-OUTER
G1 F4950 X96.597 Y102.751 E53.11467
G1 X97.348 Y102.762 E53.13965
G1 X98.088 Y102.782 E53.16427
G1 X99.156 Y102.829 E53.19983
G1 X99.608 Y102.858 E53.21489
G1 X99.798 Y102.87 E53.22123
G1 X100.192 Y102.903 E53.23438
G1 X100.757 Y102.952 E53.25324
G1 X101.016 Y102.98 E53.2619
G1 X100.785 Y103.047 E53.26264
G1 X100.165 Y103.227 E53.27284
G1 X99.91 Y103.294 E53.27932
G1 X99.725 Y103.342 E53.28528
G1 X99.531 Y103.394 E53.29196
G1 X98.881 Y103.556 E53.31424
G1 X98.858 Y103.561 E53.31502
G1 X98.15 Y103.726 E53.3392
G1 X97.464 Y103.877 E53.36256
G1 X96.715 Y104.031 E53.38799
G1 X71.503 Y108.881 E54.24192
G1 X71.073 Y109.087 E54.25778
G1 X70.713 Y109.555 E54.27742
G1 X70.624 Y110.034 E54.29362
G1 X70.762 Y110.548 E54.31132
G1 X71.161 Y110.974 E54.33074
G1 X71.547 Y111.127 E54.34455
G1 X96.719 Y115.969 E55.19712
G1 X97.427 Y116.115 E55.22116
G1 X98.144 Y116.271 E55.24557
G1 X98.179 Y116.28 E55.24677
G1 X98.882 Y116.445 E55.27079
G1 X99.53 Y116.605 E55.29299
G1 X99.729 Y116.658 E55.29984
G1 X99.912 Y116.706 E55.30613
G1 X100.19 Y116.78 E55.3157
G1 X100.492 Y116.866 E55.32614
G1 X100.786 Y116.95 E55.33631
G1 X101.019 Y117.02 E55.3444
G1 X100.796 Y117.042 E55.34505
G1 X100.432 Y117.079 E55.35008
G1 X100.216 Y117.096 E55.35382
G1 X99.8 Y117.13 E55.36513
G1 X99.611 Y117.142 E55.37104
G1 X99.131 Y117.173 E55.38704
G1 X98.422 Y117.206 E55.41064
G1 X97.692 Y117.23 E55.43494
G1 X96.945 Y117.245 E55.45979
G1 X96.19 Y117.25 E55.4849
G1 X61.964 Y117.25 E56.62326
G1 X61.531 Y117.079 E56.63874
G1 X61.295 Y116.733 E56.65267
G1 X61.258 Y103.512 E57.09241
G1 X61.381 Y103.088 E57.10709
G1 X61.742 Y102.799 E57.12247
M204 S3000
G1 F12000 E56.92247
G0 F14970 X61.822 Y103.135
G0 X62.244 Y116.3
M204 S1550
;TYPE:SKIN
G1 F12000 E57.12247
G1 F5400 X93.413 Y116.3 E58.15916
G1 X91.854 Y116 E58.21196
G1 X62.243 Y116 E59.19683
G1 X62.241 Y115.5 E59.21346
G1 X89.254 Y115.5 E60.11191
G1 X86.655 Y115 E60.19994
G1 X62.24 Y115 E61.01199
G1 X62.238 Y114.5 E61.02862
G1 X84.055 Y114.5 E61.75425
G1 X81.455 Y114 E61.84231
G1 X62.237 Y114 E62.48151
G1 X62.235 Y113.5 E62.49814
G1 X78.856 Y113.5 E63.05095
G1 X76.256 Y113 E63.13901
G1 X62.234 Y113 E63.60539
G1 X62.232 Y112.5 E63.62202
G1 X73.657 Y112.5 E64.00202
G1 X71.28 Y112.043 E64.08252
G1 X71.172 Y112 E64.08639
G1 X62.231 Y112 E64.38377
G1 X62.229 Y111.5 E64.4004
G1 X70.354 Y111.5 E64.67064
G1 X69.907 Y111.023 E64.69238
G1 X69.901 Y111 E64.69317
G1 X62.228 Y111 E64.94838
G1 X62.226 Y110.5 E64.96501
G1 X69.767 Y110.5 E65.21582
G1 X69.651 Y110.072 E65.23057
G1 X69.664 Y110 E65.233
G1 X62.225 Y110 E65.48042
G1 X62.223 Y109.5 E65.49705
G1 X69.756 Y109.5 E65.7476
G1 X69.82 Y109.156 E65.75924
G1 X69.94 Y109 E65.76579
G1 X62.222 Y109 E66.02249
G1 X62.221 Y108.5 E66.03912
G1 X70.325 Y108.5 E66.30866
G1 X70.458 Y108.328 E66.31589
G1 X71.142 Y108 E66.34112
G1 X62.219 Y108 E66.6379
G1 X62.218 Y107.5 E66.65453
G1 X73.652 Y107.5 E67.03483
G1 X76.252 Y107 E67.12289
G1 X62.216 Y107 E67.58973
G1 X62.215 Y106.5 E67.60636
G1 X78.852 Y106.5 E68.15971
G1 X81.452 Y106 E68.24777
G1 X62.213 Y106 E68.88766
G1 X62.212 Y105.5 E68.90429
G1 X84.053 Y105.5 E69.63072
G1 X86.653 Y105 E69.71879
G1 X62.21 Y105 E70.53176
G1 X62.209 Y104.5 E70.54839
G1 X89.253 Y104.5 E71.44788
G1 X91.853 Y104 E71.53594
G1 X62.207 Y104 E72.52197
G1 X62.207 Y103.749 E72.53032
G1 X93.382 Y103.706 E73.5672
G1 X92.171 Y103.939 E73.60822
M204 S3000
G1 F12000 E73.40822
;MESH:NONMESH
G0 F3000 X92.171 Y103.939 Z0.56
G0 F14970 X61.928 Y103.291
;TIME_ELAPSED:64.012861
;LAYER:2
;TYPE:WALL-INNER
;MESH:RR_Uberhangtest.stl
G1 F12000 E73.60822
G1 F7969.2 X62.583 Y103.25 E73.63005
G1 X95.325 Y103.251 E74.71905
G1 X95.524 Y103.254 E74.72567
G1 X96.069 Y103.262 E74.7438
G1 X96.799 Y103.282 E74.76809
G1 X97.477 Y103.31 E74.79066
G1 X97.506 Y103.311 E74.79162
G1 X96.811 Y103.474 E74.79724
G1 X96.147 Y103.618 E74.8096
G1 X96.041 Y103.642 E74.81321
G1 X95.507 Y103.751 E74.82921
G1 X95.305 Y103.793 E74.83607
G1 X71.343 Y108.403 E75.64767
G1 X70.697 Y108.73 E75.67175
G1 X70.236 Y109.362 E75.69777
G1 X70.114 Y110.129 E75.7236
G1 X70.355 Y110.869 E75.74948
G1 X70.872 Y111.393 E75.77396
G1 X71.402 Y111.609 E75.793
G1 X95.353 Y116.215 E76.60421
G1 X95.551 Y116.256 E76.61094
G1 X95.748 Y116.297 E76.61763
G1 X96.089 Y116.369 E76.62922
G1 X96.457 Y116.449 E76.64175
G1 X96.809 Y116.526 E76.65373
G1 X97.461 Y116.678 E76.676
G1 X96.818 Y116.709 E76.67979
G1 X96.396 Y116.73 E76.68738
G1 X96.097 Y116.736 E76.69379
G1 X95.655 Y116.745 E76.70633
G1 X95.453 Y116.746 E76.7127
G1 X94.907 Y116.75 E76.73086
G1 X62.052 Y116.75 E77.82362
G1 X61.795 Y116.568 E77.83409
G1 X61.758 Y103.582 E78.26601
G1 X61.815 Y103.382 E78.27293
G1 X61.928 Y103.291 E78.27775
G0 F17940 X61.736 Y102.802
;TYPE:WALL-OUTER
G1 F7969.2 X62.568 Y102.75 E78.30548
G1 X95.332 Y102.751 E79.39522
G1 X96.083 Y102.762 E79.4202
G1 X96.82 Y102.782 E79.44472
G1 X97.498 Y102.81 E79.46729
G1 X98.227 Y102.85 E79.49157
G1 X98.874 Y102.897 E79.51315
G1 X99.065 Y102.916 E79.51953
G1 X99.74 Y102.98 E79.54208
G1 X100.092 Y103.021 E79.55387
G1 X100.29 Y103.05 E79.56053
G1 X100.119 Y103.104 E79.561
G1 X99.812 Y103.203 E79.56498
G1 X99.756 Y103.221 E79.56587
G1 X99.105 Y103.409 E79.5823
G1 X98.885 Y103.473 E79.58992
G1 X98.248 Y103.641 E79.61183
G1 X97.574 Y103.809 E79.63493
G1 X96.924 Y103.962 E79.65714
G1 X96.147 Y104.131 E79.68359
G1 X95.405 Y104.283 E79.70878
G1 X71.506 Y108.881 E80.51824
G1 X71.03 Y109.122 E80.53599
G1 X70.711 Y109.559 E80.55398
G1 X70.627 Y110.089 E80.57183
G1 X70.794 Y110.602 E80.58977
G1 X71.156 Y110.969 E80.60692
G1 X71.545 Y111.127 E80.62088
G1 X95.455 Y115.726 E81.43071
G1 X96.196 Y115.88 E81.45588
G1 X96.916 Y116.037 E81.48039
G1 X97.575 Y116.191 E81.5029
G1 X98.287 Y116.368 E81.52731
G1 X98.884 Y116.527 E81.54785
G1 X99.166 Y116.607 E81.5576
G1 X99.277 Y116.638 E81.56144
G1 X99.513 Y116.706 E81.56961
G1 X99.808 Y116.795 E81.57985
G1 X100 Y116.854 E81.58653
G1 X100.245 Y116.958 E81.59539
G1 X100.017 Y116.986 E81.59627
G1 X99.74 Y117.02 E81.60121
G1 X99.547 Y117.039 E81.60472
G1 X99.152 Y117.079 E81.61598
G1 X99.037 Y117.088 E81.61965
G1 X98.52 Y117.13 E81.63691
G1 X97.851 Y117.173 E81.6592
G1 X97.142 Y117.206 E81.68281
G1 X96.412 Y117.23 E81.7071
G1 X95.665 Y117.245 E81.73195
G1 X94.91 Y117.25 E81.75707
G1 X61.965 Y117.25 E82.85282
G1 X61.572 Y117.11 E82.8667
G1 X61.295 Y116.733 E82.88226
G1 X61.258 Y103.512 E83.32199
G1 X61.378 Y103.092 E83.33652
